<?xml version="1.0" encoding="UTF-8"?>
<map version="1.10" tiledversion="1.12.1" orientation="orthogonal" renderorder="right-down" width="90" height="34" tilewidth="16" tileheight="16" infinite="0" nextlayerid="11" nextobjectid="169">
 <tileset firstgid="1" source="tilesetAD/map1/Set 1.0.tsx"/>
 <tileset firstgid="49" source="tilesetAD/map1/Set 1.2.tsx"/>
 <objectgroup id="2" name="collisions" offsetx="-3.12373" offsety="1.56186">
  <object id="13" name="wall" x="1278.07" y="13.5443" width="15.2463" height="132.837"/>
  <object id="115" name="wall" x="1282.07" y="226.878" width="15.2463" height="155.504"/>
  <object id="14" name="wall" x="1166.46" y="110.773" width="14.4636" height="48.3353"/>
  <object id="116" name="wall" x="1167.46" y="197.106" width="14.4636" height="56.3353"/>
  <object id="117" name="wall" x="864.007" y="190.443" width="17.2285" height="62.9977"/>
  <object id="118" name="wall" x="866.674" y="109.11" width="13.2285" height="49.9977"/>
  <object id="21" name="wall" x="160.775" y="272.572" width="528.685" height="14.152"/>
  <object id="22" name="wall" x="158.213" y="127.255" width="524.667" height="14.2948"/>
  <object id="24" name="wall" x="9.33333" y="-2.33333" width="1420" height="16"/>
  <object id="120" name="wall" x="16" y="525.667" width="1411" height="16"/>
  <object id="114" name="wall" x="100.667" y="386.333" width="1331" height="14.6667"/>
  <object id="25" name="wall" x="1428.67" y="-1.33333" width="16" height="546"/>
  <object id="26" name="wall" x="781.3" y="14.8353" width="16.8093" height="157.913"/>
  <object id="121" name="wall" x="381.3" y="400.502" width="13.8093" height="123.58"/>
  <object id="28" name="wall" x="781.731" y="253.798" width="15.6667" height="126.93"/>
  <object id="31" name="wall" x="1.72908" y="1.2212" width="14.6667" height="540.195"/>
  <object id="32" name="wall" x="882.484" y="237.277" width="284.701" height="15.1237"/>
  <object id="109" name="wall" x="880.817" y="110.61" width="286.034" height="16.1237"/>
  <object id="156" x="260.624" y="308.938"/>
 </objectgroup>
 <objectgroup id="5" name="entities" offsetx="15.6186" offsety="9.37119">
  <object id="131" name="player_spawn" x="240.381" y="444.629" width="31" height="17"/>
  <object id="132" name="sever" x="1344.38" y="287.629" width="31" height="17" visible="0"/>
  <object id="157" name="server" x="1327.05" y="293.962" width="31.3333" height="25.3333"/>
  <object id="158" x="1479.05" y="211.295"/>
  <object id="159" name="vending_machine" x="101.048" y="457.295" width="70.6667" height="62"/>
  <object id="160" name="item_meat" x="100.381" y="65.2955"/>
  <object id="161" name="item_beer" x="84.3814" y="225.295"/>
  <object id="162" name="item_coin" x="477.715" y="43.9621"/>
  <object id="163" name="item_coin" x="508.381" y="327.962"/>
  <object id="164" name="item_coin" x="708.381" y="283.962"/>
  <object id="165" name="item_coin" x="1057.71" y="322.629"/>
  <object id="166" name="item_coin" x="1084.38" y="59.9621"/>
  <object id="167" name="item_coin" x="1217.71" y="142.629" width="1.33333" height="1.33333"/>
  <object id="168" x="1115.05" y="-165.371"/>
 </objectgroup>
 <objectgroup id="6" name="enemies" offsetx="-6.24746" offsety="9.37119">
  <object id="80" name="guard_end" x="339.078" y="144.93" width="14" height="13">
   <properties>
    <property name="id" type="int" value="13"/>
    <property name="viewAngle" type="int" value="60"/>
    <property name="viewRadius" type="int" value="120"/>
   </properties>
  </object>
  <object id="81" name="guard_start" x="339.2" y="237.643" width="13.5" height="14.5">
   <properties>
    <property name="id" type="int" value="13"/>
    <property name="viewAngle" type="int" value="60"/>
    <property name="viewRadius" type="int" value="120"/>
   </properties>
  </object>
  <object id="82" name="guard_start" x="44.7257" y="466.591" width="15.3333" height="16">
   <properties>
    <property name="id" type="int" value="14"/>
    <property name="viewAngle" type="int" value="60"/>
    <property name="viewRadius" type="int" value="120"/>
   </properties>
  </object>
  <object id="83" name="guard_end" x="45.124" y="321.851" width="15.3333" height="16.6667">
   <properties>
    <property name="id" type="int" value="14"/>
    <property name="viewAngle" type="int" value="60"/>
    <property name="viewRadius" type="int" value="120"/>
   </properties>
  </object>
  <object id="86" name="guard_start" x="207.619" y="143.146" width="14" height="15.3333">
   <properties>
    <property name="id" type="int" value="16"/>
    <property name="viewAngle" type="int" value="60"/>
    <property name="viewRadius" type="int" value="120"/>
   </properties>
  </object>
  <object id="87" name="guard_end" x="207.031" y="239.268" width="15.3333" height="14.6667">
   <properties>
    <property name="id" type="int" value="16"/>
    <property name="viewAngle" type="int" value="60"/>
    <property name="viewRadius" type="int" value="120"/>
   </properties>
  </object>
  <object id="95" name="guard_end" x="588.354" y="144.253" width="17.5" height="17.5">
   <properties>
    <property name="id" type="int" value="22"/>
    <property name="viewAngle" type="int" value="60"/>
    <property name="viewRadius" type="int" value="120"/>
   </properties>
  </object>
  <object id="113" name="guard_end" x="728.688" y="191.92" width="17.5" height="17.5">
   <properties>
    <property name="id" type="int" value="23"/>
    <property name="viewAngle" type="int" value="60"/>
    <property name="viewRadius" type="int" value="120"/>
   </properties>
  </object>
  <object id="110" name="guard_end" x="670.021" y="235.92" width="17.5" height="17.5">
   <properties>
    <property name="id" type="int" value="20"/>
    <property name="viewAngle" type="int" value="60"/>
    <property name="viewRadius" type="int" value="120"/>
   </properties>
  </object>
  <object id="96" name="guard_start" x="668.186" y="143.292" width="16" height="14.5">
   <properties>
    <property name="id" type="int" value="20"/>
    <property name="viewAngle" type="int" value="60"/>
    <property name="viewRadius" type="int" value="120"/>
   </properties>
  </object>
  <object id="97" name="guard_start" x="480.65" y="237.642" width="15.5" height="14">
   <properties>
    <property name="id" type="int" value="21"/>
    <property name="viewAngle" type="int" value="60"/>
    <property name="viewRadius" type="int" value="120"/>
   </properties>
  </object>
  <object id="133" name="guard_start" x="261.65" y="294.642" width="15.5" height="14">
   <properties>
    <property name="id" type="int" value="35"/>
    <property name="viewAngle" type="int" value="60"/>
    <property name="viewRadius" type="int" value="120"/>
   </properties>
  </object>
  <object id="137" name="guard_start" x="254.65" y="33.642" width="15.5" height="14">
   <properties>
    <property name="id" type="int" value="25"/>
    <property name="viewAngle" type="int" value="60"/>
    <property name="viewRadius" type="int" value="120"/>
   </properties>
  </object>
  <object id="139" name="guard_start" x="622.65" y="92.642" width="15.5" height="14">
   <properties>
    <property name="id" type="int" value="26"/>
    <property name="viewAngle" type="int" value="60"/>
    <property name="viewRadius" type="int" value="120"/>
   </properties>
  </object>
  <object id="143" name="guard_start" x="916.65" y="206.642" width="15.5" height="14">
   <properties>
    <property name="id" type="int" value="28"/>
    <property name="viewAngle" type="int" value="60"/>
    <property name="viewRadius" type="int" value="120"/>
   </properties>
  </object>
  <object id="146" name="guard_start" x="1243.65" y="262.642" width="15.5" height="14">
   <properties>
    <property name="id" type="int" value="29"/>
    <property name="viewAngle" type="int" value="60"/>
    <property name="viewRadius" type="int" value="120"/>
   </properties>
  </object>
  <object id="147" name="guard_start" x="836.65" y="264.642" width="15.5" height="14">
   <properties>
    <property name="id" type="int" value="30"/>
    <property name="viewAngle" type="int" value="60"/>
    <property name="viewRadius" type="int" value="120"/>
   </properties>
  </object>
  <object id="149" name="guard_start" x="823.65" y="77.642" width="15.5" height="14">
   <properties>
    <property name="id" type="int" value="31"/>
    <property name="viewAngle" type="int" value="60"/>
    <property name="viewRadius" type="int" value="120"/>
   </properties>
  </object>
  <object id="155" name="guard_start" x="1359.65" y="41.642" width="15.5" height="14">
   <properties>
    <property name="id" type="int" value="33"/>
    <property name="viewAngle" type="int" value="60"/>
    <property name="viewRadius" type="int" value="120"/>
   </properties>
  </object>
  <object id="150" name="guard_start" x="1234.65" y="81.642" width="15.5" height="14">
   <properties>
    <property name="id" type="int" value="32"/>
    <property name="viewAngle" type="int" value="60"/>
    <property name="viewRadius" type="int" value="120"/>
   </properties>
  </object>
  <object id="141" name="guard_start" x="1106.32" y="128.309" width="15.5" height="14">
   <properties>
    <property name="id" type="int" value="27"/>
    <property name="viewAngle" type="int" value="60"/>
    <property name="viewRadius" type="int" value="120"/>
   </properties>
  </object>
  <object id="135" name="guard_start" x="625.65" y="342.642" width="15.5" height="14">
   <properties>
    <property name="id" type="int" value="24"/>
    <property name="viewAngle" type="int" value="60"/>
    <property name="viewRadius" type="int" value="120"/>
   </properties>
  </object>
  <object id="111" name="guard_start" x="587.317" y="230.976" width="15.5" height="18">
   <properties>
    <property name="id" type="int" value="22"/>
    <property name="viewAngle" type="int" value="60"/>
    <property name="viewRadius" type="int" value="120"/>
   </properties>
  </object>
  <object id="112" name="guard_start" x="28.317" y="185.976" width="15.5" height="18">
   <properties>
    <property name="id" type="int" value="23"/>
    <property name="viewAngle" type="int" value="60"/>
    <property name="viewRadius" type="int" value="120"/>
   </properties>
  </object>
  <object id="98" name="guard_end" x="479.976" y="145.123" width="14.5" height="16">
   <properties>
    <property name="id" type="int" value="21"/>
    <property name="viewAngle" type="int" value="60"/>
    <property name="viewRadius" type="int" value="120"/>
   </properties>
  </object>
  <object id="134" name="guard_end" x="625.976" y="287.123" width="14.5" height="16">
   <properties>
    <property name="id" type="int" value="35"/>
    <property name="viewAngle" type="int" value="60"/>
    <property name="viewRadius" type="int" value="120"/>
   </properties>
  </object>
  <object id="138" name="guard_end" x="623.976" y="28.1229" width="14.5" height="16">
   <properties>
    <property name="id" type="int" value="25"/>
    <property name="viewAngle" type="int" value="60"/>
    <property name="viewRadius" type="int" value="120"/>
   </properties>
  </object>
  <object id="142" name="guard_end" x="1105.98" y="209.123" width="14.5" height="16">
   <properties>
    <property name="id" type="int" value="27"/>
    <property name="viewAngle" type="int" value="60"/>
    <property name="viewRadius" type="int" value="120"/>
   </properties>
  </object>
  <object id="140" name="guard_end" x="257.976" y="93.1229" width="14.5" height="16">
   <properties>
    <property name="id" type="int" value="26"/>
    <property name="viewAngle" type="int" value="60"/>
    <property name="viewRadius" type="int" value="120"/>
   </properties>
  </object>
  <object id="144" name="guard_end" x="915.976" y="134.123" width="14.5" height="16">
   <properties>
    <property name="id" type="int" value="28"/>
    <property name="viewAngle" type="int" value="60"/>
    <property name="viewRadius" type="int" value="120"/>
   </properties>
  </object>
  <object id="145" name="guard_end" x="834.976" y="346.123" width="14.5" height="16">
   <properties>
    <property name="id" type="int" value="29"/>
    <property name="viewAngle" type="int" value="60"/>
    <property name="viewRadius" type="int" value="120"/>
   </properties>
  </object>
  <object id="151" name="guard_end" x="1225.98" y="20.1229" width="14.5" height="16">
   <properties>
    <property name="id" type="int" value="31"/>
    <property name="viewAngle" type="int" value="60"/>
    <property name="viewRadius" type="int" value="120"/>
   </properties>
  </object>
  <object id="152" name="guard_end" x="1225.98" y="20.1229" width="14.5" height="16">
   <properties>
    <property name="id" type="int" value="31"/>
    <property name="viewAngle" type="int" value="60"/>
    <property name="viewRadius" type="int" value="120"/>
   </properties>
  </object>
  <object id="154" name="guard_end" x="1361.31" y="169.456" width="14.5" height="16">
   <properties>
    <property name="id" type="int" value="33"/>
    <property name="viewAngle" type="int" value="60"/>
    <property name="viewRadius" type="int" value="120"/>
   </properties>
  </object>
  <object id="153" name="guard_end" x="828.976" y="17.1229" width="14.5" height="16">
   <properties>
    <property name="id" type="int" value="32"/>
    <property name="viewAngle" type="int" value="60"/>
    <property name="viewRadius" type="int" value="120"/>
   </properties>
  </object>
  <object id="148" name="guard_end" x="1243.98" y="347.123" width="14.5" height="16">
   <properties>
    <property name="id" type="int" value="30"/>
    <property name="viewAngle" type="int" value="60"/>
    <property name="viewRadius" type="int" value="120"/>
   </properties>
  </object>
  <object id="136" name="guard_end" x="252.976" y="346.123" width="14.5" height="16">
   <properties>
    <property name="id" type="int" value="24"/>
    <property name="viewAngle" type="int" value="60"/>
    <property name="viewRadius" type="int" value="120"/>
   </properties>
  </object>
 </objectgroup>
 <layer id="9" name="Tile Layer 2" width="90" height="34" mode="screen">
  <data encoding="csv">
2,3,3,3,3,3,3,3,3,3,3,3,3,3,3,3,3,3,3,3,3,3,3,3,3,3,3,3,3,3,3,3,3,3,3,3,3,3,3,3,3,3,3,3,3,3,3,3,3,3,3,3,3,3,3,3,3,3,3,3,3,3,3,3,3,3,3,3,3,3,3,3,3,3,3,3,3,3,3,3,3,3,3,3,3,3,3,3,3,4,
14,23,23,23,23,23,23,23,23,23,23,23,23,23,23,23,23,23,23,23,23,23,23,23,23,23,23,23,23,23,23,23,23,23,23,23,23,23,23,23,23,23,23,23,23,23,23,23,23,13,23,23,23,23,23,23,23,23,23,23,23,23,23,23,23,23,23,23,23,23,23,23,23,23,23,23,23,23,23,23,16,23,23,23,23,23,23,23,23,16,
14,23,23,23,23,23,23,23,23,23,23,23,23,23,23,23,23,23,23,23,23,23,23,23,23,23,23,23,23,23,23,23,23,23,23,23,23,23,23,23,23,23,23,23,23,23,23,23,23,13,23,23,23,23,23,23,23,23,23,23,23,23,23,23,23,23,23,23,23,23,23,23,23,23,23,23,23,23,23,23,16,23,23,23,23,23,23,23,23,16,
14,23,23,23,23,23,23,23,23,23,23,23,23,23,23,23,23,23,23,23,23,23,23,23,23,23,23,23,23,23,23,23,23,23,23,23,23,23,23,23,23,23,23,23,23,23,23,23,23,13,23,23,23,23,23,23,23,23,23,23,23,23,23,23,23,23,23,23,23,23,23,23,23,23,23,23,23,23,23,23,16,23,23,23,23,23,23,23,23,16,
14,23,23,23,23,23,23,23,23,23,23,23,23,23,23,23,23,23,23,23,23,23,23,23,23,23,23,23,23,23,23,23,23,23,23,23,23,23,23,23,23,23,23,23,23,23,23,23,23,13,23,23,23,23,23,23,23,23,23,23,23,23,23,23,23,23,23,23,23,23,23,23,23,23,23,23,23,23,23,23,16,23,23,23,23,23,23,23,23,16,
14,23,23,23,23,23,23,23,23,23,23,23,23,23,23,23,23,23,23,23,23,23,23,23,23,23,23,23,23,23,23,23,23,23,23,23,23,23,23,23,23,23,23,23,23,23,23,23,23,13,23,23,23,23,23,23,23,23,23,23,23,23,23,23,23,23,23,23,23,23,23,23,23,23,23,23,23,23,23,23,16,23,23,23,23,23,23,23,23,16,
14,23,23,23,23,23,23,23,23,23,23,23,23,23,23,23,23,23,23,23,23,23,23,23,23,23,23,23,23,23,23,23,23,23,23,23,23,23,23,23,23,23,23,23,23,23,23,23,23,13,23,23,23,23,23,23,23,23,23,23,23,23,23,23,23,23,23,23,23,23,23,23,23,23,23,23,23,23,23,23,16,23,23,23,23,23,23,23,23,16,
14,23,23,23,23,23,23,23,23,23,23,23,23,23,23,23,23,23,23,23,23,23,23,23,23,23,23,23,23,23,23,23,23,23,23,23,23,23,23,23,23,23,23,23,23,23,23,23,23,13,23,23,23,23,14,7,7,7,7,7,7,7,7,7,7,7,7,7,7,7,7,7,7,4,23,23,23,23,23,23,16,23,23,23,23,23,23,23,23,16,
14,23,23,23,23,23,23,23,23,23,7,7,7,7,7,7,7,7,7,7,7,7,7,7,7,7,7,7,7,7,7,7,7,7,7,7,7,7,7,7,7,7,7,23,23,23,23,23,23,13,23,23,23,23,14,23,23,23,23,23,23,23,23,23,23,23,23,23,23,23,23,23,23,16,23,23,23,23,23,23,16,23,23,23,23,23,23,23,23,16,
14,23,23,23,23,23,23,23,23,23,23,23,23,23,23,23,23,23,23,23,23,23,23,23,23,23,23,23,23,23,23,23,23,23,23,23,23,23,23,23,23,23,23,23,23,23,23,23,23,13,23,23,23,23,14,23,23,23,23,23,23,23,23,23,23,23,23,23,23,23,23,23,23,16,23,23,23,23,23,23,23,23,23,23,23,23,23,23,23,16,
14,23,23,23,23,23,23,23,23,23,23,23,23,23,23,23,23,23,23,23,23,23,23,23,23,23,23,23,23,23,23,23,23,23,23,23,23,23,23,23,23,23,23,23,23,23,23,23,23,13,23,23,23,23,23,23,23,23,23,23,23,23,23,23,23,23,23,23,23,23,23,23,23,23,23,23,23,23,23,23,23,23,23,23,23,23,23,23,23,16,
14,23,23,23,23,23,23,23,23,23,23,23,23,23,23,23,23,23,23,23,23,23,23,23,23,23,23,23,23,23,23,23,23,23,23,23,23,23,23,23,23,23,23,23,23,23,23,23,23,23,23,23,23,23,23,23,23,23,23,23,23,23,23,23,23,23,23,23,23,23,23,23,23,23,23,23,23,23,23,23,23,23,23,23,23,23,23,23,23,16,
14,23,23,23,23,23,23,23,23,23,23,23,23,23,23,23,23,23,23,23,23,23,23,23,23,23,23,23,23,23,23,23,23,23,23,23,23,23,23,23,23,23,23,23,23,23,23,23,23,23,23,23,23,23,14,23,23,23,23,23,23,23,23,23,23,23,23,23,23,23,23,23,23,16,23,23,23,23,23,23,23,23,23,23,23,23,23,23,23,16,
14,23,23,23,23,23,23,23,23,23,23,23,23,23,23,23,23,23,23,23,23,23,23,23,23,23,23,23,23,23,23,23,23,23,23,23,23,23,23,23,23,23,23,23,23,23,23,23,23,23,23,23,23,23,14,23,23,23,23,23,23,23,23,23,23,23,23,23,23,23,23,23,23,16,23,23,23,23,23,23,23,23,23,23,23,23,23,23,23,16,
14,23,23,23,23,23,23,23,23,23,23,23,23,23,23,23,23,23,23,23,23,23,23,23,23,23,23,23,23,23,23,23,23,23,23,23,23,23,23,23,23,23,23,23,23,23,23,23,23,23,23,23,23,23,14,23,23,23,23,23,23,23,23,23,23,23,23,23,23,23,23,23,23,16,23,23,23,23,23,23,16,23,23,23,23,23,23,23,23,16,
14,23,23,23,23,23,23,23,23,23,23,23,23,23,23,23,23,23,23,23,23,23,23,23,23,23,23,23,23,23,23,23,23,23,23,23,23,23,23,23,23,23,23,23,23,23,23,23,23,23,23,23,23,23,26,7,7,7,7,7,7,7,7,7,7,7,7,7,7,7,7,7,7,28,23,23,23,23,23,23,16,23,23,23,23,23,23,23,23,16,
14,23,23,23,23,23,23,23,23,23,23,23,23,23,23,23,23,23,23,23,23,23,23,23,23,23,23,23,23,23,23,23,23,23,23,23,23,23,23,23,23,23,23,23,23,23,23,23,23,13,23,23,23,23,23,23,23,23,23,23,23,23,23,23,23,23,23,23,23,23,23,23,23,23,23,23,23,23,23,23,16,23,23,23,23,23,23,23,23,16,
14,23,23,23,23,23,23,23,23,23,7,7,7,7,7,7,7,7,7,7,7,7,7,7,7,7,7,7,7,7,7,7,7,7,7,7,7,7,7,7,7,7,7,23,23,23,23,23,23,13,23,23,23,23,23,23,23,23,23,23,23,23,23,23,23,23,23,23,23,23,23,23,23,23,23,23,23,23,23,23,16,23,23,23,23,23,23,23,23,16,
14,23,23,23,23,23,23,23,23,23,23,23,23,23,23,23,23,23,23,23,23,23,23,23,23,23,23,23,23,23,23,23,23,23,23,23,23,23,23,23,23,23,23,23,23,23,23,23,23,13,23,23,23,23,23,23,23,23,23,23,23,23,23,23,23,23,23,23,23,23,23,23,23,23,23,23,23,23,23,23,16,23,23,23,23,23,23,23,23,16,
14,23,23,23,23,23,23,23,23,23,23,23,23,23,23,23,23,23,23,23,23,23,23,23,23,23,23,23,23,23,23,23,23,23,23,23,23,23,23,23,23,23,23,23,23,23,23,23,23,13,23,23,23,23,23,23,23,23,23,23,23,23,23,23,23,23,23,23,23,23,23,23,23,23,23,23,23,23,23,23,16,23,23,23,23,23,23,23,23,16,
14,23,23,23,23,23,23,23,23,23,23,23,23,23,23,23,23,23,23,23,23,23,23,23,23,23,23,23,23,23,23,23,23,23,23,23,23,23,23,23,23,23,23,23,23,23,23,23,23,13,23,23,23,23,23,23,23,23,23,23,23,23,23,23,23,23,23,23,23,23,23,23,23,23,23,23,23,23,23,23,16,23,23,23,23,23,23,23,23,16,
14,23,23,23,23,23,23,23,23,23,23,23,23,23,23,23,23,23,23,23,23,23,23,23,23,23,23,23,23,23,23,23,23,23,23,23,23,23,23,23,23,23,23,23,23,23,23,23,23,13,23,23,23,23,23,23,23,23,23,23,23,23,23,23,23,23,23,23,23,23,23,23,23,23,23,23,23,23,23,23,16,23,23,23,23,23,23,23,23,16,
14,23,23,23,23,23,23,23,23,23,23,23,23,23,23,23,23,23,23,23,23,23,23,23,23,23,23,23,23,23,23,23,23,23,23,23,23,23,23,23,23,23,23,23,23,23,23,23,23,13,23,23,23,23,23,23,23,23,23,23,23,23,23,23,23,23,23,23,23,23,23,23,23,23,23,23,23,23,23,23,16,23,23,23,23,23,23,23,23,16,
14,23,23,23,23,23,23,23,23,23,23,23,23,23,23,23,23,23,23,23,23,23,23,23,23,23,23,23,23,23,23,23,23,23,23,23,23,23,23,23,23,23,23,23,23,23,23,23,23,13,23,23,23,23,23,23,23,23,23,23,23,23,23,23,23,23,23,23,23,23,23,23,23,23,23,23,23,23,23,23,16,23,23,23,23,23,23,23,23,16,
14,23,23,23,23,23,6,6,6,6,6,6,6,6,6,6,6,6,6,6,6,6,6,6,6,6,6,6,6,6,6,6,6,6,6,6,6,6,6,6,6,6,6,6,6,6,6,6,6,6,6,6,6,6,6,6,6,6,6,6,6,6,6,6,6,6,6,6,6,6,6,6,6,6,6,6,6,6,6,6,6,6,6,6,6,6,6,6,6,16,
14,23,23,23,23,23,23,23,23,23,23,23,23,23,23,23,23,23,23,23,23,23,23,23,0,0,0,0,0,0,0,0,0,0,0,0,0,0,0,0,0,0,0,0,0,0,0,0,0,0,0,0,0,0,0,0,0,0,0,0,0,0,0,0,0,0,0,0,0,0,0,0,0,0,0,0,0,0,0,0,0,0,0,0,0,0,0,0,0,16,
14,23,23,23,23,23,23,23,23,23,23,23,23,23,23,23,23,23,23,23,23,23,23,23,0,0,0,0,0,0,0,0,0,0,0,0,0,0,0,0,0,0,0,0,0,0,0,0,0,0,0,0,0,0,0,0,0,0,0,0,0,0,0,0,0,0,0,0,0,0,0,0,0,0,0,0,0,0,0,0,0,0,0,0,0,0,0,0,0,0,
14,23,23,23,23,23,23,23,23,23,23,23,23,23,23,23,23,23,23,23,23,23,23,23,0,0,0,0,0,0,0,0,0,0,0,0,0,0,0,0,0,0,0,0,0,0,0,0,0,0,0,0,0,0,0,0,0,0,0,0,0,0,0,0,0,0,0,0,0,0,0,0,0,0,0,0,0,0,0,0,0,0,0,0,0,0,0,0,0,0,
14,23,23,23,23,23,23,23,23,23,23,23,23,23,23,23,23,23,23,23,23,23,23,23,0,0,0,0,0,0,0,0,0,0,0,0,0,0,0,0,0,0,0,0,0,0,0,0,0,0,0,0,0,0,0,0,0,0,0,0,0,0,0,0,0,0,0,0,0,0,0,0,0,0,0,0,0,0,0,0,0,0,0,0,0,0,0,0,0,0,
14,23,23,23,23,23,23,23,23,23,23,23,23,23,23,23,23,23,23,23,23,23,23,23,0,0,0,0,0,0,0,0,0,0,0,0,0,0,0,0,0,0,0,0,0,0,0,0,0,0,0,0,0,0,0,0,0,0,0,0,0,0,0,0,0,0,0,0,0,0,0,0,0,0,0,0,0,0,0,0,0,0,0,0,0,0,0,0,0,0,
14,23,23,23,23,23,23,23,23,23,23,23,23,23,23,23,23,23,23,23,23,23,23,23,0,0,0,0,0,0,0,0,0,0,0,0,0,0,0,0,0,0,0,0,0,0,0,0,0,0,0,0,0,0,0,0,0,0,0,0,0,0,0,0,0,0,0,0,0,0,0,0,0,0,0,0,0,0,0,0,0,0,0,0,0,0,0,0,0,0,
14,23,23,23,23,23,23,23,23,23,23,23,23,23,23,23,23,23,23,23,23,23,23,23,0,0,0,0,0,0,0,0,0,0,0,0,0,0,0,0,0,0,0,0,0,0,0,0,0,0,0,0,0,0,0,0,0,0,0,0,0,0,0,0,0,0,0,0,0,0,0,0,0,0,0,0,0,0,0,0,0,0,0,0,0,0,0,0,0,0,
14,23,23,23,23,23,23,23,23,23,23,23,23,23,23,23,23,23,23,23,23,23,23,23,0,0,0,0,0,0,0,0,0,0,0,0,0,0,0,0,0,0,0,0,0,0,0,0,0,0,0,0,0,0,0,0,0,0,0,0,0,0,0,0,0,0,0,0,0,0,0,0,0,0,0,0,0,0,0,0,0,0,0,0,0,0,0,0,0,0,
45,45,45,45,45,45,45,45,45,45,45,45,45,45,45,45,45,45,45,45,45,45,45,45,0,0,0,0,0,0,0,0,0,0,0,0,0,0,0,0,0,0,0,0,0,0,0,0,0,0,0,0,0,0,0,0,0,0,0,0,0,0,0,0,0,0,0,0,0,0,0,0,0,0,0,0,0,0,0,0,0,0,0,0,0,0,0,0,0,0
</data>
 </layer>
</map>
