<?xml version="1.0" encoding="UTF-8"?>
<map version="1.10" tiledversion="1.12.2" orientation="orthogonal" renderorder="right-down" width="60" height="40" tilewidth="16" tileheight="16" infinite="0" nextlayerid="7" nextobjectid="1023">
 <tileset firstgid="1" name="Set 1.0" tilewidth="16" tileheight="16" tilecount="48" columns="12">
  <image source="tilesetAD/map1/Dungeon Gathering Free Version/Set 1.0.png" width="192" height="64"/>
 </tileset>
 <tileset firstgid="49" name="Set 1.2" tilewidth="16" tileheight="16" tilecount="96" columns="16">
  <image source="tilesetAD/map1/Dungeon Gathering Free Version/Set 1.2.png" width="256" height="96"/>
 </tileset>
 <tileset firstgid="145" name="Structure" tilewidth="16" tileheight="16" tilecount="2" columns="1">
  <image source="tilesetAD/map1/Dungeon Gathering Free Version/Structure.png" width="16" height="32"/>
 </tileset>
 <layer id="1" name="Tile Layer 1" width="60" height="40">
  <data encoding="csv">
2,6,6,6,6,6,6,6,6,6,6,6,6,6,6,6,6,6,6,6,6,6,6,6,6,6,6,6,6,6,7,7,7,7,7,7,7,7,7,7,7,7,7,7,7,7,7,7,7,7,7,7,7,7,7,7,7,7,7,4,
14,74,75,74,75,74,75,74,75,74,75,74,75,74,75,74,75,74,75,74,75,74,75,74,75,74,75,74,75,74,75,74,75,74,75,74,75,74,75,74,75,74,75,74,75,74,75,74,75,74,75,74,75,74,75,74,75,74,75,16,
14,75,58,58,58,58,58,58,58,58,58,58,58,58,74,75,74,75,74,75,74,75,74,75,74,75,74,75,74,75,90,91,90,91,90,91,90,91,90,91,90,91,90,91,90,75,74,75,74,75,74,75,74,75,74,75,74,75,74,16,
14,74,58,73,58,58,58,107,58,58,58,105,58,58,1,74,75,74,75,74,75,74,75,74,75,74,75,74,16,74,91,107,91,90,91,90,106,90,91,90,91,105,91,90,91,74,75,105,75,74,75,73,75,74,75,107,75,74,75,16,
14,75,58,58,58,58,58,58,58,58,58,58,58,58,13,75,74,106,74,75,74,75,105,75,74,75,74,89,16,75,90,91,90,91,90,91,90,91,90,91,90,91,90,91,90,75,74,75,74,75,74,75,74,75,74,75,74,75,74,16,
14,74,58,58,58,58,58,58,58,58,58,58,58,58,13,74,75,74,75,74,75,74,75,74,75,74,75,74,16,74,91,90,91,90,91,90,91,90,91,90,91,90,91,90,91,74,75,74,75,74,75,74,75,74,75,74,75,74,75,16,
14,75,58,58,58,58,58,58,58,58,58,58,58,58,13,75,74,75,74,75,74,75,74,75,74,75,74,75,16,75,90,91,90,91,90,91,90,91,90,91,90,91,90,91,90,75,74,75,74,75,74,75,74,75,74,75,74,75,74,16,
14,74,58,107,58,58,58,105,58,58,58,73,58,58,13,74,75,74,75,74,75,74,75,74,75,74,75,74,16,74,91,90,91,90,91,90,91,90,91,90,91,90,91,90,91,74,75,73,75,74,75,107,75,74,75,105,75,74,75,16,
14,75,58,58,58,58,27,27,27,27,27,27,27,27,13,27,27,27,27,27,27,27,27,27,74,75,74,75,16,3,3,3,3,3,3,3,3,3,3,3,3,3,3,3,3,4,3,3,3,3,74,75,74,75,74,75,74,75,74,16,
14,74,58,58,58,58,58,58,58,58,58,58,58,58,13,74,75,105,75,74,75,74,89,74,75,74,75,73,16,74,91,90,91,90,91,90,91,90,91,90,91,90,91,90,91,16,75,74,75,74,75,74,75,74,75,74,75,74,75,16,
14,75,74,75,74,75,74,75,74,75,74,75,74,75,13,75,74,75,74,75,74,75,74,75,74,75,74,75,16,75,90,91,90,91,90,91,90,91,90,91,90,91,90,91,90,16,74,75,74,75,74,75,74,75,74,75,74,75,74,16,
14,74,75,74,75,74,75,74,75,74,75,74,75,74,13,74,75,74,75,74,75,74,75,74,75,74,75,74,16,74,91,90,91,90,91,90,91,90,91,90,91,90,91,90,91,16,75,107,75,74,75,105,75,74,75,73,75,74,75,16,
14,75,74,75,74,75,74,75,74,75,74,75,74,75,13,75,74,75,74,75,74,75,74,75,74,75,74,75,16,75,90,91,90,91,90,91,90,91,90,91,90,91,90,91,90,16,74,75,74,75,74,75,74,75,74,75,74,75,74,16,
14,74,75,74,75,74,75,74,75,74,75,74,75,74,13,74,75,74,75,74,75,74,75,74,75,74,75,74,16,74,91,105,91,90,91,90,89,90,91,90,91,73,91,90,91,16,75,74,75,74,75,74,75,74,75,74,75,74,75,16,
14,75,74,75,74,75,74,75,74,75,74,75,74,75,13,75,74,89,74,75,74,75,73,75,74,75,74,108,16,75,90,91,90,91,90,91,90,91,90,91,90,91,90,91,90,16,74,75,74,75,74,75,74,75,74,75,74,75,74,16,
14,74,75,74,75,74,75,74,75,74,75,74,75,74,13,74,75,74,75,74,75,74,75,74,75,74,75,74,16,74,91,90,91,90,91,90,91,90,91,90,91,90,91,90,91,16,75,74,75,74,75,74,75,74,75,74,75,74,75,16,
14,75,74,75,74,75,74,75,74,75,74,75,74,75,13,27,27,27,27,27,27,27,27,27,27,27,27,27,28,75,74,75,27,27,27,27,27,27,27,27,27,27,27,27,27,28,74,75,74,75,74,75,74,75,74,75,74,75,74,16,
14,74,75,74,75,74,75,74,75,74,75,74,75,74,13,74,75,74,75,74,75,74,75,74,75,74,75,74,75,74,75,74,75,74,75,74,75,74,75,74,75,74,75,74,75,74,75,74,75,74,75,74,75,74,75,74,75,74,75,16,
14,75,74,75,74,75,74,75,74,91,90,91,90,91,13,91,90,91,90,91,90,91,90,75,74,75,74,75,14,75,74,75,74,75,74,75,74,75,74,75,74,75,74,75,74,16,74,23,74,75,74,75,74,75,74,75,74,75,74,16,
14,74,75,74,75,74,75,74,75,90,108,90,91,90,25,90,108,90,91,90,91,90,108,74,75,74,106,74,14,74,75,74,106,74,75,74,75,74,106,74,75,74,75,74,75,16,75,74,75,74,75,74,75,74,75,74,75,74,75,16,
14,75,74,75,74,75,74,75,74,91,90,91,90,91,90,91,90,91,90,91,90,91,90,75,74,75,74,75,14,75,74,75,74,75,74,75,74,75,74,75,74,75,74,75,74,16,90,91,90,91,90,91,90,91,90,91,74,75,74,16,
14,74,75,74,75,74,75,74,75,90,91,90,91,90,91,90,91,90,91,90,91,90,91,74,75,74,75,74,14,74,75,74,75,74,75,74,75,74,75,74,75,74,75,74,75,16,89,90,91,90,91,73,91,90,91,90,75,74,75,16,
14,75,74,75,74,75,74,75,74,91,90,91,90,91,90,91,90,91,90,91,90,91,90,75,74,75,74,75,14,75,74,75,74,75,74,75,74,75,74,75,74,75,74,75,74,16,90,91,90,91,90,91,90,91,90,91,74,75,74,16,
14,74,75,74,75,74,75,74,75,90,91,90,91,90,91,90,91,90,91,90,91,90,91,74,75,74,75,74,14,74,75,74,75,74,75,74,75,74,75,74,75,74,75,74,75,16,91,90,91,90,91,90,91,90,91,90,75,74,75,16,
14,75,74,75,74,75,74,75,74,91,90,91,90,91,90,91,90,91,90,91,90,91,90,75,74,75,74,75,14,75,74,75,74,75,74,75,74,75,74,75,74,75,74,75,74,16,90,91,90,91,90,91,90,91,90,91,74,75,74,16,
14,74,75,74,75,74,23,23,2,3,3,3,3,3,3,3,3,3,3,3,3,3,108,74,75,74,27,27,27,27,27,27,27,27,27,39,39,39,39,39,39,39,39,39,44,28,91,90,2,3,3,3,91,90,91,4,75,74,75,16,
14,75,74,75,74,75,74,75,14,91,90,91,90,91,90,91,90,91,90,91,90,91,90,75,74,75,74,75,74,75,74,75,74,75,74,75,74,75,74,75,74,75,74,75,74,23,73,91,14,91,90,108,90,91,90,16,74,75,74,16,
14,74,75,74,75,74,75,74,14,90,91,90,91,90,91,90,91,90,91,90,91,90,91,74,75,74,75,74,75,74,75,74,75,74,75,74,75,74,75,74,75,74,75,74,75,23,91,90,14,90,91,90,91,90,91,16,75,74,75,16,
14,75,74,75,74,75,74,75,14,91,90,91,90,91,90,91,90,91,90,91,90,91,90,75,74,75,74,75,74,75,74,75,74,75,74,75,74,75,74,75,74,75,74,75,74,23,90,91,14,91,90,91,90,91,90,16,74,75,74,16,
14,74,75,74,75,74,75,74,14,90,91,90,91,90,91,90,91,90,91,90,91,90,16,74,75,74,75,74,75,74,75,74,75,74,75,74,75,74,75,74,75,74,75,74,75,23,91,90,14,90,91,105,146,145,106,16,75,74,75,16,
14,75,74,75,74,75,74,75,14,91,90,91,90,91,90,91,90,91,90,91,90,91,16,75,74,75,74,75,74,75,74,75,74,75,74,75,74,75,74,75,74,75,74,75,74,23,90,91,14,91,90,107,145,146,108,16,74,75,74,16,
14,74,75,74,75,74,75,74,14,90,108,90,91,90,91,90,108,90,91,90,91,90,16,74,75,74,75,74,75,74,75,74,75,74,75,74,75,74,75,74,75,74,75,74,75,90,108,90,14,90,91,107,91,90,91,16,75,74,75,16,
14,75,74,75,74,75,74,75,14,75,74,75,74,75,74,75,74,75,74,75,74,75,16,75,74,75,74,75,74,75,74,75,74,75,74,75,74,75,74,75,74,75,74,75,74,91,90,91,14,91,90,91,90,91,90,16,74,75,74,16,
14,74,75,74,75,74,75,74,26,27,27,27,27,27,27,27,27,27,27,27,27,27,28,74,75,74,3,3,3,3,3,3,3,3,3,3,3,3,3,3,3,3,3,3,75,90,91,90,14,90,91,90,91,90,91,16,75,74,75,16,
14,75,74,75,74,75,74,75,74,75,74,75,74,75,74,75,74,75,74,75,74,75,74,75,74,75,74,75,74,75,74,75,74,75,74,75,74,75,74,75,74,75,74,75,74,75,74,75,14,75,74,75,74,75,74,16,74,75,74,16,
14,74,75,74,75,74,75,74,75,74,75,74,75,74,75,74,75,74,75,74,75,74,75,74,75,74,75,74,75,74,75,74,75,74,75,74,75,74,75,74,75,74,75,74,75,74,75,74,26,27,27,27,27,27,27,28,75,74,75,16,
14,75,74,75,74,75,74,75,74,75,74,75,74,75,74,75,74,75,74,75,74,75,74,75,74,75,74,75,74,75,74,75,74,75,74,75,74,75,74,75,74,75,74,75,74,75,74,75,74,75,74,75,74,75,74,75,74,75,74,16,
14,74,75,74,75,74,75,74,75,74,75,74,75,74,75,74,75,74,75,74,75,74,75,74,75,74,75,74,75,74,75,74,75,74,75,74,75,74,75,74,75,74,75,74,75,74,75,74,75,74,75,74,75,74,75,74,75,74,75,16,
14,75,74,75,74,75,74,75,74,75,74,75,74,75,74,75,74,75,74,75,74,75,74,75,74,75,74,75,74,75,74,75,74,75,74,75,74,75,74,75,74,75,74,75,74,75,74,75,74,75,74,75,74,75,74,75,74,75,74,16,
3,3,3,3,3,3,3,3,3,3,3,3,3,3,3,3,3,3,3,3,3,3,3,3,3,3,3,3,3,3,3,3,3,3,3,3,3,3,3,3,3,3,3,3,3,3,3,3,3,3,3,3,3,3,3,3,3,3,3,3
</data>
 </layer>
 <objectgroup id="2" name="collisions">
  <object id="1" name="wall" x="0" y="0" width="960" height="16"/>
  <object id="2" name="wall" x="0" y="624" width="960" height="16"/>
  <object id="3" name="wall" x="0" y="0" width="16" height="640"/>
  <object id="4" name="wall" x="944" y="0" width="16" height="640"/>
  <object id="5" name="wall" x="133" y="133" width="214" height="6"/>
  <object id="6" name="wall" x="485" y="133" width="278" height="6"/>
  <object id="7" name="wall" x="229" y="69" width="6" height="38"/>
  <object id="9" name="wall" x="453" y="85" width="6" height="134"/>
  <object id="11" name="wall" x="261" y="261" width="150" height="6"/>
  <object id="1000" name="wall" x="129.333" y="400" width="6.66667" height="144"/>
  <object id="1004" name="wall" x="130" y="402" width="220.667" height="5.33333"/>
  <object id="1005" name="wall" x="133.333" y="528" width="232.667" height="14"/>
  <object id="1006" name="wall" x="360" y="463.333" width="7.33333" height="70.6667"/>
  <object id="1007" name="wall" x="415.333" y="527.333" width="288.667" height="16.6667"/>
  <object id="1008" name="wall" x="224" y="62.6667" width="10.6667" height="256"/>
  <object id="1009" name="wall" x="98.6667" y="129.333" width="281.333" height="12"/>
  <object id="1010" name="wall" x="229.333" y="250.667" width="232" height="21.3333"/>
  <object id="1011" name="wall" x="444" y="68" width="21.3333" height="206.667"/>
  <object id="1012" name="wall" x="456" y="126.667" width="346.667" height="18.6667"/>
  <object id="1013" name="wall" x="514.667" y="258.667" width="221.333" height="9.33333"/>
  <object id="1014" name="wall" x="724" y="122.667" width="12" height="141.333"/>
  <object id="1015" name="wall" x="410.667" y="401.333" width="325.333" height="14.6667"/>
  <object id="1016" name="wall" x="444" y="284" width="20" height="120"/>
  <object id="1017" name="wall" x="714.667" y="286.667" width="18.6667" height="118.667"/>
  <object id="1018" name="wall" x="773.333" y="401.333" width="58.6667" height="16"/>
  <object id="1019" name="wall" x="882.667" y="402.667" width="14.6667" height="174.667"/>
  <object id="1020" name="wall" x="769.333" y="404" width="16" height="168"/>
  <object id="1021" name="wall" x="772" y="557.333" width="125.333" height="20"/>
  <object id="1022" x="768" y="768"/>
 </objectgroup>
 <objectgroup id="5" name="entities" visible="0">
  <object id="26" name="player_spawn" x="34" y="594" width="14" height="16"/>
  <object id="27" name="server" x="833" y="465" width="30" height="32"/>
  <object id="28" name="server_door" x="832" y="400" width="48" height="8"/>
  <object id="29" name="key" x="372" y="340" width="10" height="12"/>
  <object id="30" name="item_water" x="290" y="210" width="12" height="12"/>
  <object id="31" name="item_meat" x="577" y="465" width="14" height="13"/>
 </objectgroup>
 <objectgroup id="6" name="enemies" visible="0">
  <object id="100" name="guard_start" x="64" y="80" width="12" height="12">
   <properties>
    <property name="id" type="int" value="1"/>
    <property name="viewAngle" type="int" value="60"/>
    <property name="viewRadius" type="int" value="120"/>
   </properties>
  </object>
  <object id="101" name="guard_end" x="192" y="80" width="12" height="12">
   <properties>
    <property name="id" type="int" value="1"/>
    <property name="viewAngle" type="int" value="60"/>
    <property name="viewRadius" type="int" value="120"/>
   </properties>
  </object>
  <object id="102" name="guard_start" x="256" y="80" width="12" height="12">
   <properties>
    <property name="id" type="int" value="2"/>
    <property name="viewAngle" type="int" value="60"/>
    <property name="viewRadius" type="int" value="120"/>
   </properties>
  </object>
  <object id="103" name="guard_end" x="416" y="80" width="12" height="12">
   <properties>
    <property name="id" type="int" value="2"/>
    <property name="viewAngle" type="int" value="60"/>
    <property name="viewRadius" type="int" value="120"/>
   </properties>
  </object>
  <object id="104" name="guard_start" x="480" y="80" width="12" height="12">
   <properties>
    <property name="id" type="int" value="3"/>
    <property name="viewAngle" type="int" value="60"/>
    <property name="viewRadius" type="int" value="120"/>
   </properties>
  </object>
  <object id="105" name="guard_end" x="672" y="80" width="12" height="12">
   <properties>
    <property name="id" type="int" value="3"/>
    <property name="viewAngle" type="int" value="60"/>
    <property name="viewRadius" type="int" value="120"/>
   </properties>
  </object>
  <object id="106" name="guard_start" x="576" y="80" width="12" height="12">
   <properties>
    <property name="id" type="int" value="4"/>
    <property name="viewAngle" type="int" value="60"/>
    <property name="viewRadius" type="int" value="120"/>
   </properties>
  </object>
  <object id="107" name="guard_end" x="768" y="80" width="12" height="12">
   <properties>
    <property name="id" type="int" value="4"/>
    <property name="viewAngle" type="int" value="60"/>
    <property name="viewRadius" type="int" value="120"/>
   </properties>
  </object>
  <object id="108" name="guard_start" x="672" y="80" width="12" height="12">
   <properties>
    <property name="id" type="int" value="5"/>
    <property name="viewAngle" type="int" value="60"/>
    <property name="viewRadius" type="int" value="120"/>
   </properties>
  </object>
  <object id="109" name="guard_end" x="864" y="80" width="12" height="12">
   <properties>
    <property name="id" type="int" value="5"/>
    <property name="viewAngle" type="int" value="60"/>
    <property name="viewRadius" type="int" value="120"/>
   </properties>
  </object>
  <object id="110" name="guard_start" x="64" y="176" width="12" height="12">
   <properties>
    <property name="id" type="int" value="6"/>
    <property name="viewAngle" type="int" value="60"/>
    <property name="viewRadius" type="int" value="120"/>
   </properties>
  </object>
  <object id="111" name="guard_end" x="192" y="176" width="12" height="12">
   <properties>
    <property name="id" type="int" value="6"/>
    <property name="viewAngle" type="int" value="60"/>
    <property name="viewRadius" type="int" value="120"/>
   </properties>
  </object>
  <object id="112" name="guard_start" x="256" y="176" width="12" height="12">
   <properties>
    <property name="id" type="int" value="7"/>
    <property name="viewAngle" type="int" value="60"/>
    <property name="viewRadius" type="int" value="120"/>
   </properties>
  </object>
  <object id="113" name="guard_end" x="416" y="176" width="12" height="12">
   <properties>
    <property name="id" type="int" value="7"/>
    <property name="viewAngle" type="int" value="60"/>
    <property name="viewRadius" type="int" value="120"/>
   </properties>
  </object>
  <object id="114" name="guard_start" x="480" y="176" width="12" height="12">
   <properties>
    <property name="id" type="int" value="8"/>
    <property name="viewAngle" type="int" value="60"/>
    <property name="viewRadius" type="int" value="120"/>
   </properties>
  </object>
  <object id="115" name="guard_end" x="672" y="176" width="12" height="12">
   <properties>
    <property name="id" type="int" value="8"/>
    <property name="viewAngle" type="int" value="60"/>
    <property name="viewRadius" type="int" value="120"/>
   </properties>
  </object>
  <object id="116" name="guard_start" x="768" y="176" width="12" height="12">
   <properties>
    <property name="id" type="int" value="9"/>
    <property name="viewAngle" type="int" value="60"/>
    <property name="viewRadius" type="int" value="120"/>
   </properties>
  </object>
  <object id="117" name="guard_end" x="896" y="176" width="12" height="12">
   <properties>
    <property name="id" type="int" value="9"/>
    <property name="viewAngle" type="int" value="60"/>
    <property name="viewRadius" type="int" value="120"/>
   </properties>
  </object>
 </objectgroup>
</map>
