<?xml version="1.0" encoding="UTF-8"?>
<map version="1.10" tiledversion="1.12.2" orientation="orthogonal" renderorder="right-down" width="60" height="40" tilewidth="16" tileheight="16" infinite="0" nextlayerid="7" nextobjectid="1000">
 <tileset firstgid="1" name="Set 1.0" tilewidth="16" tileheight="16" tilecount="48" columns="12">
  <image source="tilesetAD/map1/Dungeon Gathering Free Version/Set 1.0.png" width="192" height="64"/>
 </tileset>
 <tileset firstgid="49" name="Set 1.2" tilewidth="16" tileheight="16" tilecount="96" columns="16">
  <image source="tilesetAD/map1/Dungeon Gathering Free Version/Set 1.2.png" width="256" height="96"/>
 </tileset>
 <tileset firstgid="145" name="Structure" tilewidth="16" tileheight="16" tilecount="2" columns="1">
  <image source="tilesetAD/map1/Dungeon Gathering Free Version/Structure.png" width="16" height="32"/>
 </tileset>
 <layer id="1" name="Tile Layer 1" width="60" height="40">
  <data encoding="csv">
2,3,3,3,3,3,3,3,3,3,3,3,3,3,3,3,3,3,3,3,3,3,3,3,3,3,3,3,3,3,3,3,3,3,3,3,3,3,3,3,3,3,3,3,3,3,3,3,3,3,3,3,3,3,3,3,3,3,3,4,
14,91,90,91,90,91,90,91,90,91,90,91,90,91,90,91,90,91,90,91,90,91,90,91,90,91,90,91,90,91,90,91,90,91,90,91,90,91,90,91,90,91,90,91,90,91,90,91,90,91,90,91,90,91,90,91,90,91,90,14,
14,75,74,75,74,75,74,75,74,75,74,75,74,75,74,75,74,75,74,75,74,75,74,75,14,75,74,75,74,75,74,75,74,75,74,75,74,75,74,75,74,75,74,75,74,75,74,75,74,75,74,75,74,75,74,75,74,75,74,14,
14,91,90,91,90,91,90,91,90,91,90,91,90,91,90,91,90,91,90,91,90,91,90,91,14,91,90,91,90,91,90,91,90,91,90,91,90,91,90,91,90,91,14,91,90,91,90,91,90,91,90,91,90,91,90,91,90,91,90,14,
14,75,74,75,74,75,74,75,74,75,74,75,74,75,74,75,74,75,74,75,74,89,74,75,14,75,74,75,74,75,74,75,74,75,74,75,74,75,74,75,74,75,14,75,74,75,74,75,74,75,74,75,74,75,74,75,74,75,74,14,
14,91,90,91,90,91,90,91,90,91,90,91,90,91,90,91,90,91,90,91,90,91,90,91,14,23,23,91,90,91,90,91,90,91,90,91,90,91,90,91,90,91,14,91,90,91,90,91,90,91,90,91,90,91,90,91,90,91,90,14,
14,75,74,75,3,3,3,3,3,3,3,3,14,3,3,3,3,3,3,3,74,75,74,75,14,23,23,23,23,3,3,3,3,3,3,3,14,3,3,3,3,3,14,3,3,3,3,3,3,3,3,3,3,3,3,3,74,75,74,14,
14,91,90,91,90,91,90,91,90,91,90,91,14,91,90,91,90,91,90,91,90,91,90,91,14,91,90,91,90,91,90,91,90,91,90,91,14,91,90,91,90,91,14,91,90,91,90,91,90,91,90,91,90,91,90,91,90,91,90,14,
14,75,74,75,74,75,74,75,74,75,74,75,14,75,74,75,74,75,74,75,74,75,74,75,14,75,74,75,74,75,74,75,74,75,74,75,14,75,74,75,74,75,14,75,74,75,74,75,14,75,74,75,74,75,74,75,74,75,74,14,
14,91,90,91,90,91,90,91,90,91,90,91,14,91,90,91,90,91,90,91,90,91,90,91,14,91,90,91,90,91,90,91,90,91,90,91,14,91,90,91,90,91,3,3,3,3,3,3,3,3,3,3,3,3,3,3,90,91,90,14,
14,75,74,75,74,75,74,75,74,75,74,75,14,75,74,75,74,75,74,75,74,75,74,75,14,75,74,75,74,75,74,75,74,75,74,75,14,75,74,75,74,75,14,75,74,75,74,75,14,75,74,75,74,75,74,75,74,75,74,14,
14,91,90,91,90,91,90,91,105,91,90,91,14,91,90,91,90,91,90,91,90,91,90,91,14,91,90,91,90,91,90,91,90,91,90,91,14,91,90,91,90,91,14,91,90,91,90,91,14,91,90,91,90,91,90,91,90,91,90,14,
14,75,74,75,74,75,74,75,74,75,74,75,14,75,74,75,74,75,74,75,74,75,74,75,74,75,74,75,74,75,74,75,74,75,74,75,14,75,74,75,74,75,14,75,74,75,74,75,14,75,74,75,74,75,74,75,74,75,74,14,
14,91,90,91,90,91,90,91,90,91,90,91,14,91,90,91,90,91,90,91,90,91,90,91,90,91,90,91,90,91,90,91,90,91,90,91,14,91,90,91,90,91,90,91,90,91,90,91,14,91,90,91,90,91,90,91,90,91,90,14,
14,75,74,75,3,3,3,3,3,3,3,3,3,75,74,75,74,3,3,3,3,3,3,3,3,3,3,3,3,3,3,3,74,75,74,75,14,3,3,3,3,3,3,3,3,3,3,3,14,3,3,3,3,3,3,3,74,75,74,14,
14,91,90,91,90,91,90,91,90,91,90,91,14,91,90,91,90,91,90,91,90,91,90,91,90,91,90,91,90,91,90,91,90,91,90,91,14,91,90,91,90,91,90,91,90,91,90,91,14,91,90,91,90,91,90,91,90,91,90,14,
14,75,74,75,74,75,74,75,74,75,74,75,14,75,74,75,74,75,74,75,74,75,74,75,23,75,74,75,74,75,74,75,74,75,74,75,14,75,74,75,74,75,74,75,74,75,74,75,14,75,74,75,74,75,74,75,74,75,74,14,
14,91,90,91,90,91,90,91,90,91,90,91,14,91,90,91,90,91,90,91,90,91,90,91,14,91,90,91,90,91,90,91,90,91,90,91,14,91,90,91,90,91,90,91,90,91,89,91,14,91,90,91,90,91,90,91,90,91,90,14,
14,75,74,75,74,75,74,75,74,75,74,75,14,75,74,75,74,75,74,75,74,75,74,75,14,75,74,75,74,75,74,75,74,75,74,75,14,105,74,75,74,75,74,75,74,75,74,75,14,75,74,75,74,75,74,75,74,75,74,14,
14,91,90,91,90,91,90,91,90,91,90,91,14,91,90,91,90,91,90,91,90,91,90,91,14,91,90,91,90,91,90,91,90,91,90,91,14,91,90,91,90,91,90,91,90,91,90,91,14,91,90,91,90,91,90,91,90,91,90,14,
14,75,74,75,74,75,74,75,74,75,74,75,14,75,105,75,74,75,2,3,3,3,3,3,3,3,74,75,74,75,74,3,3,3,3,3,3,3,3,75,74,75,74,75,74,75,74,75,14,75,74,75,74,75,74,75,74,75,74,14,
14,91,90,91,90,91,90,91,90,91,90,91,14,91,90,91,90,91,14,91,90,91,90,91,14,91,90,91,90,91,90,91,90,91,90,91,14,91,90,91,90,91,90,91,90,91,90,91,14,91,90,91,90,91,90,91,90,91,90,14,
14,75,74,75,74,75,74,75,74,75,74,75,14,75,74,75,74,75,14,75,74,75,74,75,14,75,74,75,74,75,74,75,74,75,74,75,14,75,74,75,74,75,74,75,74,75,74,75,14,75,74,75,74,75,74,75,74,75,74,14,
14,91,90,91,90,91,90,91,90,91,90,91,14,91,90,91,90,91,14,91,90,91,90,91,14,91,90,91,90,91,90,91,90,91,90,91,14,91,90,91,90,91,90,91,90,91,90,91,14,91,90,91,90,91,90,91,90,91,90,14,
14,75,74,75,74,75,74,75,74,75,74,75,14,75,74,75,74,75,14,75,74,75,74,75,14,75,74,75,74,75,74,75,74,75,74,75,14,75,74,75,74,75,74,75,74,75,74,75,14,75,74,75,74,75,74,75,74,75,74,14,
14,91,90,91,90,91,90,91,90,91,90,91,14,91,90,91,90,91,14,91,90,91,90,91,14,91,90,91,90,91,90,91,90,105,90,91,14,91,90,91,90,91,90,91,90,91,90,91,14,91,90,91,90,91,90,91,90,91,90,14,
14,75,74,75,74,75,74,75,105,75,74,75,14,75,74,75,74,75,14,75,74,75,74,75,14,75,74,75,74,75,74,75,74,75,74,75,14,75,74,75,74,75,74,75,74,75,74,75,14,75,74,75,74,75,74,75,74,75,74,14,
14,91,90,91,90,91,90,91,90,91,90,91,14,91,90,91,90,105,14,91,90,91,90,91,14,91,90,91,90,91,90,91,90,91,90,91,14,91,90,91,90,91,90,91,89,91,90,91,14,91,90,91,90,91,90,91,90,91,90,14,
14,75,74,75,3,3,3,3,3,3,3,3,3,3,3,3,3,3,14,3,3,75,74,75,74,75,3,3,3,3,3,3,3,3,3,3,14,3,3,3,3,3,74,75,74,75,74,3,3,3,3,3,3,3,3,3,74,75,74,14,
14,91,90,91,90,91,90,91,90,91,90,105,90,91,90,91,90,91,14,91,90,91,90,91,90,91,90,91,90,91,90,91,90,91,90,91,14,91,90,91,105,91,90,91,90,91,90,91,14,91,90,91,90,91,90,91,90,91,90,14,
14,75,74,75,74,75,74,75,74,75,74,75,74,75,74,75,74,75,14,75,74,75,74,75,74,75,74,75,74,75,74,75,74,75,74,75,14,75,74,75,74,75,74,75,74,75,74,75,14,75,74,75,74,75,74,75,74,75,74,14,
14,91,90,91,90,91,90,91,90,91,90,91,90,91,90,91,90,91,14,91,90,91,90,91,90,91,90,105,90,91,90,91,90,91,90,91,14,91,90,91,90,91,90,91,90,91,90,91,14,91,90,91,90,91,90,91,90,91,90,14,
14,75,74,75,74,75,74,75,74,75,74,75,74,75,74,75,74,75,23,75,74,75,74,75,74,75,74,75,74,75,74,75,74,75,74,75,14,75,74,75,74,75,74,75,74,75,74,75,14,75,74,75,74,75,74,75,74,75,74,14,
14,91,90,91,90,91,90,91,90,91,90,91,90,91,90,91,90,91,90,91,90,91,90,91,90,91,90,91,90,91,90,91,90,91,90,91,14,91,90,91,90,91,90,91,90,91,90,91,14,91,90,91,90,91,90,91,90,91,90,14,
14,75,74,75,74,75,74,75,3,3,3,3,3,3,3,3,3,3,3,3,3,3,3,3,3,3,3,3,3,3,3,75,74,75,74,75,3,3,3,3,3,3,3,3,3,3,3,3,14,3,3,3,3,3,3,3,74,75,74,14,
14,91,90,91,90,91,90,91,90,91,90,91,90,91,90,91,90,91,90,91,90,91,90,91,90,91,90,91,90,91,90,91,90,91,90,91,90,91,90,91,90,91,90,91,90,91,90,73,14,91,90,91,90,91,90,91,90,91,90,14,
14,75,74,75,74,75,74,75,74,75,74,75,74,75,74,75,74,75,74,75,74,75,74,75,74,75,74,75,74,75,74,75,73,75,74,75,74,75,74,75,74,75,74,75,74,75,74,75,14,75,74,75,74,75,74,75,74,75,74,14,
14,91,90,91,90,91,90,91,90,91,90,91,90,91,90,91,90,91,90,91,90,91,90,91,90,91,90,91,90,91,90,91,90,91,90,91,90,91,90,91,90,91,90,91,90,91,90,91,14,91,90,91,90,91,90,91,90,91,90,14,
14,75,74,75,74,75,74,75,74,75,74,75,74,75,74,75,74,75,74,75,74,75,74,75,74,75,74,75,74,75,74,75,74,75,74,75,74,75,74,75,74,75,74,75,74,75,74,75,14,75,74,75,74,75,74,75,74,75,74,14,
3,3,3,3,3,3,3,3,3,3,3,3,3,3,3,3,3,3,3,3,3,3,3,3,3,3,3,3,3,3,3,3,3,3,3,3,3,3,3,3,3,3,3,3,3,3,3,3,3,3,3,3,3,3,3,3,3,3,3,3
</data>
 </layer>
 <objectgroup id="2" name="collisions">
  <object id="1" name="wall" x="0" y="0" width="960" height="16"/>
  <object id="2" name="wall" x="0" y="624" width="960" height="16"/>
  <object id="3" name="wall" x="0" y="0" width="16" height="640"/>
  <object id="4" name="wall" x="944" y="0" width="16" height="640"/>
  <object id="5" name="wall" x="61" y="97.6667" width="258.333" height="9.33333"/>
  <object id="6" name="wall" x="467.667" y="97.6667" width="426.667" height="9.33333"/>
  <object id="7" name="wall" x="65" y="225.333" width="141.667" height="9"/>
  <object id="8" name="wall" x="273.333" y="225.667" width="237" height="9.33333"/>
  <object id="9" name="wall" x="629" y="225.667" width="266.333" height="9.33333"/>
  <object id="10" name="wall" x="55" y="453" width="282" height="6"/>
  <object id="11" name="wall" x="423" y="448" width="247" height="11"/>
  <object id="12" name="wall" x="755.333" y="449" width="140.667" height="10"/>
  <object id="13" name="wall" x="128.333" y="544.333" width="367.667" height="10.6667"/>
  <object id="14" name="wall" x="575.667" y="545" width="320.333" height="10"/>
  <object id="15" name="wall" x="194" y="97" width="9" height="126.333"/>
  <object id="16" name="wall" x="193.333" y="231.667" width="9.66667" height="214"/>
  <object id="17" name="wall" x="385.667" y="32.3333" width="9.33333" height="159"/>
  <object id="18" name="wall" x="386.333" y="273" width="8.66667" height="176.667"/>
  <object id="19" name="wall" x="577.667" y="110.333" width="9.33333" height="172"/>
  <object id="20" name="wall" x="577.667" y="277" width="9.33333" height="272.667"/>
  <object id="21" name="wall" x="769" y="129.333" width="10" height="281.667"/>
  <object id="22" name="wall" x="768.667" y="411.333" width="10.3333" height="214.333"/>
  <object id="23" name="wall" x="294.333" y="322.333" width="122" height="8.66667"/>
  <object id="24" name="wall" x="497" y="325" width="124" height="6"/>
  <object id="25" name="wall" x="289.667" y="322.333" width="9.33333" height="188.667"/>
  <object id="26" name="wall" x="677" y="77" width="6" height="126"/>
  <object id="27" name="wall" x="673" y="149" width="220" height="6"/>
 </objectgroup>
 <objectgroup id="5" name="entities" visible="0">
  <object id="28" name="player_spawn" x="34" y="34" width="14" height="16"/>
  <object id="29" name="key" x="98" y="514" width="10" height="12"/>
  <object id="30" name="server" x="830.333" y="572" width="30" height="32"/>
  <object id="31" name="server_door" x="944.564" y="447.7" width="16" height="48" rotation="89.2813"/>
  <object id="32" name="item_water" x="450" y="290" width="12" height="12"/>
  <object id="33" name="item_meat" x="530" y="498" width="14" height="13"/>
 </objectgroup>
 <objectgroup id="6" name="enemies" visible="0">
  <object id="100" name="guard_start" x="416" y="144" width="12" height="12">
   <properties>
    <property name="id" type="int" value="1"/>
    <property name="viewAngle" type="int" value="60"/>
    <property name="viewRadius" type="int" value="120"/>
   </properties>
  </object>
  <object id="101" name="guard_end" x="544" y="144" width="12" height="12">
   <properties>
    <property name="id" type="int" value="1"/>
    <property name="viewAngle" type="int" value="60"/>
    <property name="viewRadius" type="int" value="120"/>
   </properties>
  </object>
  <object id="102" name="guard_start" x="256" y="176" width="12" height="12">
   <properties>
    <property name="id" type="int" value="2"/>
    <property name="viewAngle" type="int" value="60"/>
    <property name="viewRadius" type="int" value="120"/>
   </properties>
  </object>
  <object id="103" name="guard_end" x="352" y="176" width="12" height="12">
   <properties>
    <property name="id" type="int" value="2"/>
    <property name="viewAngle" type="int" value="60"/>
    <property name="viewRadius" type="int" value="120"/>
   </properties>
  </object>
  <object id="104" name="guard_start" x="800" y="176" width="12" height="12">
   <properties>
    <property name="id" type="int" value="3"/>
    <property name="viewAngle" type="int" value="60"/>
    <property name="viewRadius" type="int" value="120"/>
   </properties>
  </object>
  <object id="105" name="guard_end" x="896" y="176" width="12" height="12">
   <properties>
    <property name="id" type="int" value="3"/>
    <property name="viewAngle" type="int" value="60"/>
    <property name="viewRadius" type="int" value="120"/>
   </properties>
  </object>
  <object id="106" name="guard_start" x="224" y="272" width="12" height="12">
   <properties>
    <property name="id" type="int" value="4"/>
    <property name="viewAngle" type="int" value="60"/>
    <property name="viewRadius" type="int" value="120"/>
   </properties>
  </object>
  <object id="107" name="guard_end" x="352" y="272" width="12" height="12">
   <properties>
    <property name="id" type="int" value="4"/>
    <property name="viewAngle" type="int" value="60"/>
    <property name="viewRadius" type="int" value="120"/>
   </properties>
  </object>
  <object id="108" name="guard_start" x="416" y="272" width="12" height="12">
   <properties>
    <property name="id" type="int" value="5"/>
    <property name="viewAngle" type="int" value="60"/>
    <property name="viewRadius" type="int" value="120"/>
   </properties>
  </object>
  <object id="109" name="guard_end" x="544" y="272" width="12" height="12">
   <properties>
    <property name="id" type="int" value="5"/>
    <property name="viewAngle" type="int" value="60"/>
    <property name="viewRadius" type="int" value="120"/>
   </properties>
  </object>
  <object id="110" name="guard_start" x="608" y="272" width="12" height="12">
   <properties>
    <property name="id" type="int" value="6"/>
    <property name="viewAngle" type="int" value="60"/>
    <property name="viewRadius" type="int" value="120"/>
   </properties>
  </object>
  <object id="111" name="guard_end" x="736" y="272" width="12" height="12">
   <properties>
    <property name="id" type="int" value="6"/>
    <property name="viewAngle" type="int" value="60"/>
    <property name="viewRadius" type="int" value="120"/>
   </properties>
  </object>
  <object id="112" name="guard_start" x="800" y="272" width="12" height="12">
   <properties>
    <property name="id" type="int" value="7"/>
    <property name="viewAngle" type="int" value="60"/>
    <property name="viewRadius" type="int" value="120"/>
   </properties>
  </object>
  <object id="113" name="guard_end" x="896" y="272" width="12" height="12">
   <properties>
    <property name="id" type="int" value="7"/>
    <property name="viewAngle" type="int" value="60"/>
    <property name="viewRadius" type="int" value="120"/>
   </properties>
  </object>
  <object id="114" name="guard_start" x="64" y="304" width="12" height="12">
   <properties>
    <property name="id" type="int" value="8"/>
    <property name="viewAngle" type="int" value="60"/>
    <property name="viewRadius" type="int" value="120"/>
   </properties>
  </object>
  <object id="115" name="guard_end" x="160" y="304" width="12" height="12">
   <properties>
    <property name="id" type="int" value="8"/>
    <property name="viewAngle" type="int" value="60"/>
    <property name="viewRadius" type="int" value="120"/>
   </properties>
  </object>
 </objectgroup>
</map>
