<?xml version="1.0" encoding="UTF-8"?>
<map version="1.10" tiledversion="1.12.1" orientation="orthogonal" renderorder="right-down" width="60" height="40" tilewidth="16" tileheight="16" infinite="0" nextlayerid="8" nextobjectid="150">
 <tileset firstgid="1" name="Set 1.0" tilewidth="16" tileheight="16" tilecount="48" columns="12">
  <image source="tilesetAD/map1/Dungeon Gathering Free Version/Set 1.0.png" width="192" height="64"/>
 </tileset>
 <tileset firstgid="49" name="Set 1.2" tilewidth="16" tileheight="16" tilecount="96" columns="16">
  <image source="tilesetAD/map1/Dungeon Gathering Free Version/Set 1.2.png" width="256" height="96"/>
 </tileset>
 <tileset firstgid="145" name="Structure" tilewidth="16" tileheight="16" tilecount="2" columns="1">
  <image source="tilesetAD/map1/Dungeon Gathering Free Version/Structure.png" width="16" height="32"/>
 </tileset>
 <objectgroup id="2" name="collisions" visible="0" offsetx="-3.12373" offsety="1.56186">
  <object id="13" name="wall" x="738.07" y="166.211" width="11.913" height="198.837"/>
  <object id="14" name="wall" x="191.791" y="167.773" width="14.4636" height="310.002"/>
  <object id="16" name="wall" x="836.341" y="82.4432" width="8.56186" height="467.331"/>
  <object id="17" name="wall" x="307.121" y="466.815" width="438.965" height="9.62373"/>
  <object id="99" name="wall" x="307.121" y="466.815" width="438.965" height="9.62373"/>
  <object id="20" name="wall" x="200.081" y="166.864" width="529.805" height="7"/>
  <object id="21" name="wall" x="289.108" y="249.239" width="10.6856" height="162.152"/>
  <object id="22" name="wall" x="741.213" y="448.255" width="6.66667" height="18.2948"/>
  <object id="24" name="wall" x="0" y="1" width="955" height="10"/>
  <object id="25" name="wall" x="953" y="0" width="6.33333" height="630"/>
  <object id="26" name="wall" x="638.634" y="252.502" width="13.8093" height="115.58"/>
  <object id="28" name="wall" x="99.3975" y="94.4644" width="7" height="383.597"/>
  <object id="30" name="wall" x="293.547" y="239.341" width="351.527" height="9.33333"/>
  <object id="31" name="wall" x="3.39575" y="14.2212" width="8" height="609.862"/>
  <object id="32" name="wall" x="102.484" y="81.9432" width="730.034" height="12.1237"/>
  <object id="34" name="wall" x="0" y="624.667" width="962.371" height="13.1427"/>
  <object id="102" name="wall" x="103.083" y="541.967" width="746.571" height="14.0568" visible="0"/>
  <object id="106" name="wall" x="390.466" y="595.07" width="28.1136" height="34.361"/>
 </objectgroup>
 <objectgroup id="5" name="entities" offsetx="15.6186" offsety="9.37119">
  <object id="51" name="player_spawn" x="42.6667" y="584" width="14.6667" height="17.3333"/>
  <object id="52" name="server" x="439.376" y="315.184" width="31.1667" height="33.5"/>
  <object id="131" name="vending_machine" x="-6.28526" y="310.628" width="46.6667" height="52"/>
  <object id="132" x="52.3814" y="287.962"/>
  <object id="133" x="42.3814" y="285.295" width="15.3333" height="15.3333"/>
  <object id="134" name="item_coin" x="42.3814" y="249.295" width="14.6667" height="16"/>
  <object id="135" name="item_meat" x="30.3814" y="408.629" width="13.3333" height="12"/>
  <object id="136" name="item_beer" x="37.0481" y="467.295" width="16.6667" height="18.6667"/>
  <object id="137" name="item_coin" x="120.381" y="149.962" width="18" height="21.3333"/>
  <object id="138" name="item_coin" x="220.381" y="273.962" width="17.3333" height="14"/>
  <object id="139" name="item_coin" x="335.715" y="301.295" width="20" height="16"/>
  <object id="140" name="item_water" x="258.381" y="487.962" width="17.3333" height="16.6667"/>
  <object id="141" name="item_beer" x="514.381" y="360.629" width="20.6667" height="17.3333"/>
  <object id="142" name="item_beer" x="641.715" y="491.962" width="19.3333" height="19.3333"/>
  <object id="143" name="item_beer" x="652.381" y="187.295" width="20.6667" height="23.3333"/>
  <object id="144" name="item_coin" x="883.715" y="283.295" width="23.3333" height="24.6667"/>
  <object id="145" name="item_coin" x="877.715" y="491.962" width="16.6667" height="17.3333"/>
  <object id="146" x="874.381" y="153.962" width="8" height="13.3333"/>
  <object id="147" name="item_coin" x="883.715" y="61.2955" width="14.6667" height="18"/>
  <object id="148" name="item_beer" x="609.048" y="15.9621" width="18" height="20.6667"/>
  <object id="149" x="767.048" y="128.629"/>
 </objectgroup>
 <objectgroup id="6" name="enemies" offsetx="-6.24746" offsety="9.37119">
  <object id="78" name="guard_start" x="638.5" y="590.892" width="14.5" height="15">
   <properties>
    <property name="id" type="int" value="12"/>
    <property name="viewAngle" type="int" value="60"/>
    <property name="viewRadius" type="int" value="120"/>
   </properties>
  </object>
  <object id="79" name="guard_end" x="744.037" y="605.176" width="15" height="14.5">
   <properties>
    <property name="id" type="int" value="12"/>
    <property name="viewAngle" type="int" value="60"/>
    <property name="viewRadius" type="int" value="120"/>
   </properties>
  </object>
  <object id="80" name="guard_end" x="755.633" y="35.8236" width="14" height="13">
   <properties>
    <property name="id" type="int" value="13"/>
    <property name="viewAngle" type="int" value="60"/>
    <property name="viewRadius" type="int" value="120"/>
   </properties>
  </object>
  <object id="81" name="guard_start" x="334.92" y="31.0437" width="13.5" height="14.5">
   <properties>
    <property name="id" type="int" value="13"/>
    <property name="viewAngle" type="int" value="60"/>
    <property name="viewRadius" type="int" value="120"/>
   </properties>
  </object>
  <object id="82" name="guard_start" x="690.059" y="172.258" width="18" height="18.6667">
   <properties>
    <property name="id" type="int" value="14"/>
    <property name="viewAngle" type="int" value="60"/>
    <property name="viewRadius" type="int" value="120"/>
   </properties>
  </object>
  <object id="83" name="guard_end" x="703.436" y="350.564" width="15.3333" height="16.6667">
   <properties>
    <property name="id" type="int" value="14"/>
    <property name="viewAngle" type="int" value="60"/>
    <property name="viewRadius" type="int" value="120"/>
   </properties>
  </object>
  <object id="84" name="guard_end" x="629.236" y="409.862" width="16" height="16.6667">
   <properties>
    <property name="id" type="int" value="15"/>
    <property name="viewAngle" type="int" value="60"/>
    <property name="viewRadius" type="int" value="120"/>
   </properties>
  </object>
  <object id="85" name="guard_start" x="347" y="419.233" width="14" height="16">
   <properties>
    <property name="id" type="int" value="15"/>
    <property name="viewAngle" type="int" value="60"/>
    <property name="viewRadius" type="int" value="120"/>
   </properties>
  </object>
  <object id="86" name="guard_start" x="148.619" y="416.813" width="14" height="15.3333">
   <properties>
    <property name="id" type="int" value="16"/>
    <property name="viewAngle" type="int" value="60"/>
    <property name="viewRadius" type="int" value="120"/>
   </properties>
  </object>
  <object id="87" name="guard_end" x="160.16" y="122.518" width="15.3333" height="14.6667">
   <properties>
    <property name="id" type="int" value="16"/>
    <property name="viewAngle" type="int" value="60"/>
    <property name="viewRadius" type="int" value="120"/>
   </properties>
  </object>
  <object id="88" name="guard_end" x="390.27" y="504.542" width="15.3333" height="18">
   <properties>
    <property name="id" type="int" value="17"/>
    <property name="viewAngle" type="int" value="60"/>
    <property name="viewRadius" type="int" value="120"/>
   </properties>
  </object>
  <object id="89" name="guard_start" x="150.433" y="496.504" width="16" height="14.6667">
   <properties>
    <property name="id" type="int" value="17"/>
    <property name="viewAngle" type="int" value="60"/>
    <property name="viewRadius" type="int" value="120"/>
   </properties>
  </object>
  <object id="90" name="guard_start" x="53.1093" y="32.2" width="16" height="16.6667">
   <properties>
    <property name="id" type="int" value="18"/>
    <property name="viewAngle" type="int" value="60"/>
    <property name="viewRadius" type="int" value="120"/>
   </properties>
  </object>
  <object id="91" name="guard_end" x="57.0432" y="585.649" width="14.6667" height="14.6667">
   <properties>
    <property name="id" type="int" value="18"/>
    <property name="viewAngle" type="int" value="60"/>
    <property name="viewRadius" type="int" value="120"/>
   </properties>
  </object>
  <object id="93" name="guard_start" x="199.744" y="558.23" width="16" height="17">
   <properties>
    <property name="id" type="int" value="19"/>
    <property name="viewAngle" type="int" value="60"/>
    <property name="viewRadius" type="int" value="120"/>
   </properties>
  </object>
  <object id="94" name="guard_end" x="594.56" y="564.416" width="16" height="14.5">
   <properties>
    <property name="id" type="int" value="19"/>
    <property name="viewAngle" type="int" value="60"/>
    <property name="viewRadius" type="int" value="120"/>
   </properties>
  </object>
  <object id="95" name="guard_end" x="901.021" y="598.92" width="17.5" height="17.5">
   <properties>
    <property name="id" type="int" value="20"/>
    <property name="viewAngle" type="int" value="60"/>
    <property name="viewRadius" type="int" value="120"/>
   </properties>
  </object>
  <object id="96" name="guard_start" x="900.186" y="402.625" width="16" height="14.5">
   <properties>
    <property name="id" type="int" value="20"/>
    <property name="viewAngle" type="int" value="60"/>
    <property name="viewRadius" type="int" value="120"/>
   </properties>
  </object>
  <object id="97" name="guard_start" x="892.65" y="167.309" width="15.5" height="18">
   <properties>
    <property name="id" type="int" value="21"/>
    <property name="viewAngle" type="int" value="60"/>
    <property name="viewRadius" type="int" value="120"/>
   </properties>
  </object>
  <object id="98" name="guard_end" x="904.309" y="12.1229" width="14.5" height="16">
   <properties>
    <property name="id" type="int" value="21"/>
    <property name="viewAngle" type="int" value="60"/>
    <property name="viewRadius" type="int" value="120"/>
   </properties>
  </object>
  <object id="109" x="16.2475" y="131.962" width="27.3333" height="22.6667"/>
  <object id="112" name="item_meat" x="48.9141" y="409.295" width="16.6667" height="18.6667"/>
  <object id="113" name="item_coin" x="55.5808" y="251.295" width="16" height="18"/>
  <object id="114" name="item_coin" x="136.247" y="159.962" width="14.6667" height="16"/>
  <object id="115" name="item_coin" x="238.914" y="269.295" width="14.6667" height="12.6667"/>
  <object id="116" name="item_coin" x="362.247" y="305.295" width="12" height="13.3333"/>
  <object id="117" name="item_beer" x="301.581" y="581.295" width="11.3333" height="13.3333"/>
  <object id="118" name="item_beer" x="58.2475" y="473.295" width="17.3333" height="16"/>
  <object id="119" name="item_beer" x="534.247" y="371.295" width="16.6667" height="14.6667"/>
  <object id="120" name="item_beer" x="670.247" y="198.629" width="16" height="15.3333"/>
  <object id="121" name="item_beer" x="620.247" y="17.9621" width="17.3333" height="16"/>
  <object id="122" name="item_coin" x="787.581" y="117.962" width="14.6667" height="15.3333"/>
  <object id="123" name="item_coin" x="902.914" y="79.9621" width="14.6667" height="16"/>
  <object id="124" name="item_coin" x="904.247" y="285.962" width="15.3333" height="18"/>
  <object id="125" name="item_coin" x="906.247" y="497.295" width="18" height="17.3333"/>
  <object id="126" name="item_beer" x="658.914" y="500.629" width="14" height="16"/>
  <object id="127" name="item_water" x="482.247" y="584.629" width="15.3333" height="16.6667"/>
  <object id="128" x="486.914" y="723.295"/>
  <object id="129" name="item_water" x="272.914" y="490.629" width="20.6667" height="20"/>
  <object id="130" x="460.247" y="743.962"/>
 </objectgroup>
 <layer id="7" name="Tile Layer 1" width="60" height="40">
  <data encoding="csv">
2,6,6,6,6,6,6,6,6,6,6,6,6,6,6,6,6,6,6,6,6,6,6,6,6,6,6,6,6,6,6,6,6,6,6,6,6,6,6,6,6,6,6,6,6,6,6,6,6,6,6,6,6,6,6,6,6,6,6,4,
21,90,90,90,90,72,72,72,72,72,72,72,72,90,90,90,90,90,90,90,90,90,90,90,90,90,90,90,90,90,90,90,90,90,90,90,90,90,90,90,90,90,90,90,90,90,90,90,90,90,90,90,90,90,90,90,90,90,90,16,
21,90,90,90,90,90,90,90,90,90,90,90,90,90,90,90,90,90,90,90,90,90,90,90,90,90,90,90,90,90,90,90,90,90,90,90,90,90,90,90,90,90,90,90,90,90,90,90,90,90,90,90,90,90,90,90,90,90,90,16,
21,90,90,90,90,90,90,90,90,90,90,90,90,90,90,90,90,90,90,90,90,90,90,90,90,90,90,90,90,90,90,90,90,90,90,90,90,90,90,90,90,90,90,90,90,90,90,90,90,90,90,90,90,90,90,90,90,90,90,16,
21,90,90,90,90,90,90,90,90,90,90,90,90,90,90,90,90,90,90,90,90,90,90,90,90,90,90,90,90,90,90,90,90,90,90,90,90,90,90,90,90,90,90,90,90,90,90,90,90,90,90,90,90,90,90,90,90,90,90,16,
21,90,90,90,90,90,2,3,3,3,3,3,3,3,3,3,3,3,3,3,3,3,3,3,3,3,3,3,3,3,3,3,3,3,3,3,3,3,3,3,3,3,3,3,3,3,3,3,3,3,3,3,4,90,90,90,90,90,90,16,
21,90,90,90,90,90,14,90,90,90,90,90,90,90,90,90,90,90,90,90,90,90,90,90,90,90,90,90,90,90,90,90,90,90,90,90,90,90,90,90,90,90,90,90,90,90,90,90,90,90,90,90,16,90,90,90,90,90,90,16,
21,90,90,90,90,90,14,90,90,90,90,90,90,90,90,90,90,90,90,90,90,90,90,90,90,90,90,90,90,90,90,90,90,90,90,90,90,90,90,90,90,90,90,90,90,90,90,90,90,90,90,90,16,90,90,90,90,90,90,16,
21,90,90,90,90,90,14,90,90,90,90,90,90,90,90,90,90,90,90,90,90,90,90,90,90,90,90,90,90,90,90,90,90,90,90,90,90,90,90,90,90,90,90,90,90,90,90,90,90,90,90,90,16,90,90,90,90,90,90,16,
21,90,90,90,90,90,14,90,90,90,90,90,90,90,90,90,90,90,90,90,90,90,90,90,90,90,90,90,90,90,90,90,90,90,90,90,90,90,90,90,90,90,90,90,90,90,90,90,90,90,90,90,16,90,90,90,90,90,90,16,
21,90,90,90,90,90,14,90,90,90,90,90,2,3,3,3,3,3,3,3,3,3,3,3,3,3,3,3,3,3,3,3,3,3,3,3,3,3,3,3,3,3,3,3,3,3,4,90,90,90,90,90,16,90,90,90,90,90,90,16,
21,90,90,90,90,90,14,90,90,90,90,90,14,90,90,90,90,90,90,90,90,90,90,90,90,90,90,90,90,90,90,90,90,90,90,90,90,90,90,90,90,90,90,90,90,90,16,90,90,90,90,90,16,90,90,90,90,90,90,16,
21,90,90,90,90,90,14,90,90,90,90,90,14,90,90,90,90,90,90,90,90,90,90,90,90,90,90,90,90,90,90,90,90,90,90,90,90,90,90,90,90,90,90,90,90,90,16,90,90,90,90,90,16,90,90,90,90,90,90,16,
21,90,90,90,90,90,14,90,90,90,90,90,14,90,90,90,90,90,90,90,90,90,90,90,90,90,90,90,90,90,90,90,90,90,90,90,90,90,90,90,90,90,90,90,90,90,16,90,90,90,90,90,16,90,23,90,90,90,90,16,
21,90,90,90,90,90,14,90,90,90,90,90,14,90,90,90,90,90,90,90,90,90,90,90,90,90,90,90,90,90,90,90,90,90,90,90,90,90,90,90,90,90,90,90,90,90,16,90,90,90,90,90,16,90,90,23,23,90,90,16,
21,90,90,90,90,90,14,90,90,90,90,90,14,90,90,90,90,90,2,3,3,3,3,3,3,3,3,3,3,3,3,3,3,3,3,3,3,3,3,3,4,90,90,90,90,90,16,90,90,90,90,90,16,90,90,23,23,90,90,16,
21,90,90,90,90,90,14,90,90,90,90,90,14,90,90,90,90,90,14,90,90,90,90,90,90,90,90,90,90,90,90,90,90,90,90,90,90,90,90,90,16,90,90,90,90,90,16,90,90,90,90,90,16,90,90,90,90,90,90,16,
21,90,90,90,90,90,14,90,90,90,90,90,14,90,90,90,90,90,14,90,90,90,90,90,90,90,90,90,90,90,90,90,90,90,90,90,90,90,90,90,16,90,90,90,90,90,16,90,90,90,90,90,16,90,90,90,90,90,90,16,
21,90,90,90,90,90,14,90,90,90,90,90,14,90,90,90,90,90,14,90,90,90,90,90,90,90,90,90,90,90,90,90,90,90,90,90,90,90,90,90,16,90,90,90,90,90,16,90,90,90,90,90,16,90,90,90,90,90,90,16,
21,90,90,90,90,90,14,90,90,90,90,90,14,90,90,90,90,90,14,90,90,90,90,90,90,90,90,90,90,90,90,90,90,90,90,90,90,90,90,90,16,90,90,90,90,90,16,90,90,90,90,90,16,90,90,90,90,90,90,16,
21,90,90,90,90,90,14,90,90,90,90,90,14,90,90,90,90,90,14,90,90,90,90,90,90,90,90,90,90,90,90,90,90,90,90,90,90,90,90,90,16,90,90,90,90,90,16,90,90,90,90,90,16,90,90,90,90,90,90,16,
21,90,90,90,90,90,14,90,90,90,90,90,14,90,90,90,90,90,14,90,90,90,90,90,90,90,90,90,90,90,90,90,90,90,90,90,90,90,90,90,16,90,90,90,90,90,16,90,90,90,90,90,16,90,90,90,90,90,90,16,
21,90,90,90,90,90,14,90,90,90,90,90,14,90,90,90,90,90,14,90,90,90,90,90,90,90,90,90,90,90,90,90,90,90,90,90,90,90,90,90,16,90,90,90,90,90,16,90,90,90,90,90,16,90,90,90,90,90,90,16,
21,90,90,90,90,90,14,90,90,90,90,90,14,90,90,90,90,90,14,90,90,90,90,90,90,90,90,90,90,90,90,90,90,90,90,90,90,90,90,90,90,90,90,90,90,90,90,90,90,90,90,90,16,90,90,90,90,90,90,16,
21,90,90,90,90,90,14,90,90,90,90,90,14,90,90,90,90,90,14,90,90,90,90,90,90,90,90,90,90,90,90,90,90,90,90,90,90,90,90,90,90,90,90,90,90,90,90,90,90,90,90,90,16,90,90,90,90,90,90,16,
21,90,90,90,90,90,14,90,90,90,90,90,14,90,90,90,90,90,14,90,90,90,90,90,90,90,90,90,90,90,90,90,90,90,90,90,90,90,90,90,90,90,90,90,90,90,90,90,90,90,90,90,16,90,90,90,90,90,90,16,
21,90,90,90,90,90,14,90,90,90,90,90,14,90,90,90,90,90,90,90,90,90,90,90,90,90,90,90,90,90,90,90,90,90,90,90,90,90,90,90,90,90,90,90,90,90,90,90,90,90,90,90,16,90,90,90,90,90,90,16,
21,90,90,90,90,90,14,90,90,90,90,90,14,90,90,90,90,90,90,90,90,90,90,90,90,90,90,90,90,90,90,90,90,90,90,90,90,90,90,90,90,90,90,90,90,90,90,90,90,90,90,90,16,90,90,90,90,90,90,16,
21,90,90,90,90,90,14,90,90,90,90,90,14,90,90,90,90,90,90,90,90,90,90,90,90,90,90,90,90,90,90,90,90,90,90,90,90,90,90,90,90,90,90,90,90,90,16,90,90,90,90,90,16,90,90,90,90,90,90,16,
21,90,90,90,90,90,14,90,90,90,90,90,14,90,90,90,90,90,90,28,28,28,28,28,28,28,28,28,28,28,28,28,28,28,28,28,28,28,28,28,28,28,28,28,28,28,28,90,90,90,90,90,16,90,90,90,90,90,90,16,
21,90,90,90,90,90,90,90,90,90,90,90,90,90,90,90,90,90,90,90,90,90,90,90,90,90,90,90,90,90,90,90,90,90,90,90,90,90,90,90,90,90,90,90,90,90,90,90,90,90,90,90,16,90,90,90,90,90,90,16,
21,90,90,90,90,90,90,90,90,90,90,90,90,90,90,90,90,90,90,90,90,90,90,90,90,90,90,90,90,90,90,90,90,90,90,90,90,90,90,90,90,90,90,90,90,90,90,90,90,90,90,90,16,90,90,90,90,90,90,16,
21,90,90,90,90,90,90,90,90,90,90,90,90,90,90,90,90,90,90,90,90,90,90,90,90,90,90,90,90,90,90,90,90,90,90,90,90,90,90,90,90,90,90,90,90,90,90,90,90,90,90,90,16,90,90,90,90,90,90,16,
21,90,90,90,90,90,90,90,90,90,90,90,90,90,90,90,90,90,90,90,90,90,90,90,90,90,90,90,90,90,90,90,90,90,90,90,90,90,90,90,90,90,90,90,90,90,90,90,90,90,90,90,16,90,90,90,90,90,90,16,
21,90,90,90,90,90,27,46,46,46,46,46,46,46,46,46,46,46,46,46,46,46,46,46,46,46,46,46,46,46,46,46,46,46,46,46,46,46,46,46,46,46,46,46,46,46,46,46,46,46,46,46,46,90,90,90,90,90,90,16,
21,90,90,90,90,90,90,90,90,90,90,90,90,90,90,90,90,90,90,90,90,90,90,90,90,90,90,90,90,90,90,90,90,90,90,90,90,90,90,90,90,90,90,90,90,90,90,90,90,90,90,90,90,90,90,90,90,90,90,16,
21,90,90,90,90,90,90,90,90,90,90,90,90,90,90,90,90,90,90,90,90,90,90,90,90,90,90,90,90,90,90,90,90,90,90,90,90,90,90,90,90,90,90,90,90,90,90,90,90,90,90,90,90,90,90,90,90,90,90,16,
21,90,90,90,90,90,90,90,90,90,90,90,90,90,90,90,90,90,90,90,90,90,90,90,2,4,90,90,90,90,90,90,90,90,90,90,90,90,90,90,90,90,90,90,90,90,90,90,90,90,90,90,90,90,90,90,90,90,90,16,
21,90,90,90,90,90,90,90,90,90,90,90,90,90,90,90,90,90,90,90,90,90,90,90,14,16,90,90,90,90,90,90,90,90,90,90,90,90,90,90,90,90,90,90,90,90,90,90,90,90,90,90,90,90,90,90,90,90,90,16,
45,45,45,45,45,45,45,45,45,45,45,45,45,45,45,45,45,45,45,45,45,45,45,45,45,45,45,45,45,45,45,45,45,45,45,45,45,45,45,45,45,45,45,45,45,45,45,45,45,45,45,45,45,45,45,45,45,45,45,45
</data>
 </layer>
</map>
