<?xml version="1.0" encoding="UTF-8"?>
<map version="1.10" tiledversion="1.12.2" orientation="orthogonal" renderorder="right-down" width="60" height="40" tilewidth="16" tileheight="16" infinite="0" nextlayerid="7" nextobjectid="1012">
 <tileset firstgid="1" name="Set 1.0" tilewidth="16" tileheight="16" tilecount="48" columns="12">
  <image source="tilesetAD/map1/Dungeon Gathering Free Version/Set 1.0.png" width="192" height="64"/>
 </tileset>
 <tileset firstgid="49" name="Set 1.2" tilewidth="16" tileheight="16" tilecount="96" columns="16">
  <image source="tilesetAD/map1/Dungeon Gathering Free Version/Set 1.2.png" width="256" height="96"/>
 </tileset>
 <tileset firstgid="145" name="Structure" tilewidth="16" tileheight="16" tilecount="2" columns="1">
  <image source="tilesetAD/map1/Dungeon Gathering Free Version/Structure.png" width="16" height="32"/>
 </tileset>
 <tileset firstgid="147" name="burninglava1 - Copy (2)" tilewidth="16" tileheight="16" tilecount="28" columns="4">
  <image source="tilesetAD/Top Down Lava Tileset 16x16 Free/Top Down Lava Tileset 16x16 Free/FREE TILESET FILES/Environment ( With Animations )/Burning Lava/burninglava1 - Copy (2).png" width="64" height="112"/>
 </tileset>
 <tileset firstgid="175" name="burninglava1 - Copy (3)" tilewidth="16" tileheight="16" tilecount="28" columns="7">
  <image source="tilesetAD/Top Down Lava Tileset 16x16 Free/Top Down Lava Tileset 16x16 Free/FREE TILESET FILES/Environment ( With Animations )/Burning Lava/burninglava1 - Copy (3).png" width="112" height="64"/>
 </tileset>
 <tileset firstgid="203" name="burninglava1 - Copy" tilewidth="16" tileheight="16" tilecount="28" columns="4">
  <image source="tilesetAD/Top Down Lava Tileset 16x16 Free/Top Down Lava Tileset 16x16 Free/FREE TILESET FILES/Environment ( With Animations )/Burning Lava/burninglava1 - Copy.png" width="64" height="112"/>
 </tileset>
 <tileset firstgid="231" name="freelavatileset-Sheet" tilewidth="16" tileheight="16" tilecount="840" columns="56">
  <image source="tilesetAD/Top Down Lava Tileset 16x16 Free/Top Down Lava Tileset 16x16 Free/FREE TILESET FILES/freelavatileset-Sheet.png" width="896" height="240"/>
 </tileset>
 <tileset firstgid="1071" name="lavaonland1 - Copy (2)" tilewidth="16" tileheight="16" tilecount="70" columns="10">
  <image source="tilesetAD/Top Down Lava Tileset 16x16 Free/Top Down Lava Tileset 16x16 Free/FREE TILESET FILES/Environment ( With Animations )/Land on Lava Tile/lavaonland1 - Copy (2).png" width="160" height="112"/>
 </tileset>
 <tileset firstgid="1141" name="lavaonland1 - Copy (3)" tilewidth="16" tileheight="16" tilecount="70" columns="10">
  <image source="tilesetAD/Top Down Lava Tileset 16x16 Free/Top Down Lava Tileset 16x16 Free/FREE TILESET FILES/Environment ( With Animations )/Land on Lava Tile/lavaonland1 - Copy (3).png" width="160" height="112"/>
 </tileset>
 <tileset firstgid="1211" name="lavaonland1 - Copy" tilewidth="16" tileheight="16" tilecount="70" columns="7">
  <image source="tilesetAD/Top Down Lava Tileset 16x16 Free/Top Down Lava Tileset 16x16 Free/FREE TILESET FILES/Environment ( With Animations )/Land on Lava Tile/lavaonland1 - Copy.png" width="112" height="160"/>
 </tileset>
 <tileset firstgid="1281" name="lavaonland1" tilewidth="16" tileheight="16" tilecount="70" columns="7">
  <image source="tilesetAD/Top Down Lava Tileset 16x16 Free/Top Down Lava Tileset 16x16 Free/FREE TILESET FILES/Environment ( With Animations )/Land on Lava Tile/lavaonland1.png" width="112" height="160"/>
 </tileset>
 <layer id="1" name="Tile Layer 1" width="60" height="40">
  <data encoding="csv">
1333,1333,1333,1333,1333,1333,1333,1333,1333,1333,1333,1333,1333,1333,1333,1333,1333,1333,1333,1333,1333,1333,1333,1333,1333,1333,1333,1333,1333,1333,1333,1333,1333,1333,1333,1333,1333,1333,1333,1333,1333,1333,1333,1333,1333,1333,1333,1333,1333,1333,1333,1333,1333,1333,1333,1333,1333,1333,1333,1333,
1333,1177,1177,1177,1177,1177,1177,1177,1177,1177,1177,1177,1177,1177,1177,1177,1177,1177,1177,1177,1177,1177,1177,1177,1177,1177,1177,1177,1177,1177,1177,1177,1177,1177,1177,1177,1177,1177,1177,1177,1177,1177,1177,1177,1177,1177,1177,1177,1177,1177,1177,1177,1177,1177,1177,1177,1177,1177,1177,1177,
1328,1177,1177,1177,1177,1311,1311,1311,1311,1311,1311,1311,1311,1311,1311,1311,1311,1311,1311,1311,1311,1311,1311,1311,1311,1311,1311,1311,1311,1311,1311,1311,1311,1311,1311,1311,1311,1311,1311,1311,1311,1311,58,58,1311,1311,1311,91,90,91,90,91,90,91,515,91,90,1177,1177,1177,
1177,1177,1177,1177,1311,1311,1311,1311,1311,1311,1311,1311,1311,1311,1311,1311,1311,1311,1311,1311,1311,1311,1311,1311,1311,1311,1311,1311,1311,1311,1311,1311,1311,1311,1311,1311,1311,1311,1311,1311,1311,1311,1311,1311,1311,1311,1311,515,515,515,108,90,91,515,515,515,515,90,1177,1177,
1177,1177,1177,1311,1311,1311,1311,1311,1311,1311,1311,1311,1311,1311,1311,1311,1311,1311,1311,1311,1311,1311,1311,1311,1311,1311,1311,1311,1311,1311,1311,1311,1311,1311,1311,1311,1311,1311,1311,1311,1311,1311,1311,1311,1311,1311,515,515,1311,515,515,515,515,515,515,91,515,91,1177,1177,
1177,1311,1311,1311,1311,1311,1311,1311,1311,1311,1311,1311,1311,1311,1311,1311,1311,1311,1311,1311,1311,1311,1311,1311,1311,1311,1311,1311,1311,1311,1311,1311,1311,1311,1311,515,515,1311,1311,1311,1311,1311,1311,1311,1311,1311,1311,1311,1311,1311,515,515,515,515,1311,90,515,90,1177,1177,
1177,1311,1311,1311,1311,1311,1311,1311,1311,1311,1311,1311,1311,1311,1311,1311,1311,1311,1311,1311,1311,1311,1311,1311,1305,1305,1305,1305,1305,1311,1311,515,515,515,515,515,515,1305,1305,1305,1311,1311,1311,1305,1305,1305,1305,1311,1311,1311,1311,515,1311,91,90,515,515,91,1177,1177,
1177,1311,1311,1311,1311,1311,1311,1311,1311,1311,1311,1311,1311,1305,1305,1305,1305,1305,1305,1305,1305,1305,1305,1305,1305,1305,515,515,515,515,515,515,515,515,515,1305,1305,1305,1305,1305,1305,1305,1311,1311,1311,1311,1311,1311,91,90,91,515,91,90,91,515,515,90,58,1177,
1177,1311,1311,1311,1311,1311,74,75,107,1305,1305,1305,1305,106,74,75,58,58,58,58,58,58,58,58,58,58,515,515,515,515,515,515,1305,1305,1305,1305,1305,58,58,58,58,58,58,58,90,108,90,91,90,91,107,515,90,91,515,515,515,91,58,1177,
1177,1311,1311,1311,1311,1305,75,74,75,74,75,74,75,74,75,74,58,58,58,107,58,58,58,58,58,107,58,515,515,1305,1305,1305,1305,58,58,58,58,107,58,58,58,58,58,58,91,90,91,90,91,90,91,515,515,90,515,515,515,90,58,1177,
1177,1311,1311,1311,1305,1305,1305,75,14,3,3,3,3,3,3,3,3,3,3,3,14,3,3,3,3,3,58,58,1305,1305,1305,58,58,58,3,3,3,3,3,14,3,3,3,3,3,3,3,3,3,3,3,14,515,515,515,515,515,515,58,1177,
1177,1305,1305,1305,1305,1305,1305,74,14,74,75,515,515,74,75,74,58,58,58,58,14,58,58,58,58,58,58,1305,1305,1305,515,515,58,58,58,58,58,58,58,14,58,58,58,58,91,90,91,90,91,90,91,14,91,90,91,515,515,515,58,1177,
1177,1305,1305,1305,1305,1305,1305,58,14,58,515,515,515,515,515,515,515,515,58,58,14,58,58,58,58,58,1305,1305,1305,1305,515,515,58,58,58,58,58,58,58,14,58,58,58,58,58,58,58,58,58,58,58,14,58,58,515,515,515,515,58,1177,
1177,1305,1305,1305,1305,1305,1305,58,14,58,58,515,515,58,515,58,515,515,515,58,14,58,58,58,58,1305,1305,1305,1305,58,515,1305,1305,1305,1305,1305,58,58,58,14,58,58,515,515,515,58,108,58,58,58,58,14,58,515,515,515,515,58,58,1177,
1177,1305,1305,1305,1305,1305,1305,1305,14,58,58,58,515,515,515,515,515,515,515,58,14,58,58,58,1305,1305,1305,1305,1305,1305,515,1305,1305,1305,1305,1305,1305,58,58,14,58,515,515,515,515,515,515,515,58,58,58,14,58,515,515,515,515,58,58,1177,
1177,1305,1305,1305,1305,1305,1305,1305,14,58,1305,58,1305,1305,1305,515,515,515,515,58,14,58,58,58,1305,1305,1305,1305,1305,1305,1305,1305,1305,1305,1305,58,58,58,58,14,58,515,58,515,515,515,515,515,58,58,58,14,58,58,515,515,515,58,58,1177,
1177,1305,1305,1305,1305,1305,1305,1305,14,58,1305,1305,1305,1305,1305,515,515,1305,515,58,58,58,58,58,1305,1305,1305,1305,1305,1305,1305,1305,1305,1305,1305,58,58,58,58,58,515,515,58,515,515,515,515,58,58,58,58,14,58,58,515,515,515,58,58,1177,
1177,1305,1305,1305,1305,1305,1305,1305,14,58,1305,1305,1305,1305,1305,1305,515,515,515,58,58,58,58,58,1305,58,58,58,58,58,1305,1305,1305,1305,58,58,58,58,58,58,515,515,515,515,515,515,515,58,58,58,58,14,58,58,515,515,515,515,58,1177,
1177,1305,1305,1305,1305,1311,1305,1305,14,58,1305,58,1305,1305,1305,1305,1305,515,515,58,3,3,3,3,3,3,3,3,3,3,3,3,3,3,3,3,3,3,3,3,58,58,58,515,1305,515,515,58,58,58,58,14,58,58,58,58,515,515,58,1177,
1177,1311,1305,1305,1311,1311,1311,1311,14,58,58,58,58,1305,1305,1305,1305,515,515,515,58,58,58,58,58,58,58,58,58,58,58,58,58,58,58,58,58,58,58,58,58,58,58,515,1305,1305,58,58,58,58,58,14,58,58,58,58,58,58,515,1177,
1177,1305,1305,1311,3,3,3,3,3,3,3,3,58,58,58,1305,1305,515,105,515,23,58,58,58,58,106,58,58,58,58,58,58,107,58,58,58,58,58,58,14,58,58,58,515,1305,58,73,58,3,3,3,3,3,3,3,3,58,515,515,1177,
1177,1305,1311,1311,1305,1305,1305,1305,14,58,1305,58,58,58,58,1305,1305,515,515,515,14,58,1311,1311,1311,58,1305,1305,1305,1305,1305,1305,1305,1305,58,58,58,58,58,14,58,58,58,515,1305,58,58,58,58,58,58,14,58,58,58,58,58,515,515,1177,
1177,1305,1311,1311,1305,1305,1305,1305,14,58,1305,1305,1305,58,1305,1305,1305,515,515,58,14,58,1311,1311,1311,1311,1305,1305,58,58,1305,1305,1305,1305,58,1305,1305,58,58,14,58,58,58,515,1305,58,58,58,58,58,58,14,58,58,58,58,58,515,515,1177,
1177,1311,1311,1305,1305,1305,1305,1305,14,58,1305,1305,1305,1305,1305,1305,1305,515,515,58,14,58,1311,1311,1311,1311,1311,1305,1305,1305,1305,1305,1305,1305,1305,1305,1305,58,58,14,58,58,58,515,1305,58,58,58,58,58,58,14,58,515,515,515,515,515,515,1177,
1177,1311,1311,1311,1305,1305,1305,1305,14,58,1305,1305,1305,1305,1305,1305,515,515,515,58,14,1311,1311,1311,1311,1311,1311,1305,1305,1305,1305,1305,1305,1305,1305,58,1305,58,58,14,58,58,515,515,1305,58,58,58,58,58,58,14,58,515,515,515,515,515,515,1177,
1177,1311,1311,1305,1305,1305,1305,1305,14,1305,1305,1305,1305,1305,1305,1305,1305,1305,1305,58,14,1311,1311,1311,1311,1311,1311,1305,1305,1305,1305,1305,1305,1305,1305,1305,1305,58,58,14,58,58,58,58,1305,58,58,58,58,58,58,14,58,58,58,515,515,515,515,1177,
1177,1311,1305,1305,1305,1305,1305,1305,14,1305,1305,1305,1305,1305,1305,1305,1305,1305,1305,58,14,1311,1311,1311,1311,1311,1305,1305,58,58,58,1305,1305,1305,1305,1305,58,58,58,14,58,58,58,58,74,75,74,75,74,75,74,14,74,75,74,75,74,515,58,1177,
1177,1311,1305,1305,1311,1305,1305,1305,14,90,91,90,91,107,91,90,58,58,106,58,14,515,515,1311,58,107,58,58,58,58,58,58,108,58,58,58,58,58,58,14,58,58,58,58,75,73,75,74,75,74,108,14,75,74,75,107,75,515,58,1177,
1177,1311,1305,1311,3,3,3,3,3,3,3,3,14,3,3,3,3,3,3,3,18,515,1311,58,3,3,3,3,3,3,3,3,3,3,3,3,3,3,3,3,3,3,3,3,3,3,14,3,3,3,3,3,74,75,74,14,74,515,58,1177,
1177,1311,1305,1311,1311,1311,1311,1311,1311,1311,1311,1311,14,1311,1311,1311,1311,1311,1311,1311,1311,1311,1311,515,515,515,515,515,515,515,515,515,515,515,515,515,515,515,515,515,515,515,515,515,515,515,14,74,23,23,75,74,75,74,75,14,75,515,58,1177,
1177,1311,1311,1305,1305,1305,1311,1311,1311,1311,1311,1311,14,1311,1311,1311,1311,1311,1311,1311,1305,1305,1305,1305,1305,1305,1305,1305,1305,1305,1305,515,515,515,515,515,515,515,515,515,515,515,515,515,515,515,14,75,23,75,74,75,74,75,74,14,74,515,58,1177,
1177,1311,1311,1311,1311,1311,1305,1305,1311,1311,91,90,14,1305,1305,1305,1305,1311,1305,1305,1305,1305,1333,1333,1333,1333,1333,1333,1333,1333,1305,1305,1305,1305,1305,1305,515,515,515,515,515,515,515,515,515,515,14,74,23,572,75,74,75,74,75,14,75,515,58,1177,
1177,1311,1311,1311,1311,1311,1311,1311,1311,1311,1311,1311,14,1305,1305,1305,1311,1311,1311,515,515,1333,1333,1340,1340,1340,1340,1340,1340,1340,1340,1340,1341,1333,1333,1305,1305,1305,1305,1305,515,515,515,515,515,515,14,75,572,105,145,146,106,572,74,14,74,515,58,1177,
1177,1311,1311,1311,1311,1311,1311,1311,1311,1311,1311,1311,14,1305,1305,1305,1311,1311,515,515,1333,1333,1341,797,1348,1348,1348,1348,1348,1348,1348,1338,1341,1333,1333,1305,1305,1305,1305,1305,515,515,515,515,515,515,14,74,23,107,146,145,108,74,75,14,75,515,58,1177,
1177,1311,1311,1311,1311,1311,1311,1311,1311,1311,1311,1311,14,1305,1305,1311,1311,1311,1311,1333,1333,1341,797,853,853,1350,1350,1350,1350,1350,1350,849,793,1341,1333,1305,1305,1305,1305,1305,515,515,515,515,515,515,14,75,23,75,74,75,74,75,74,14,74,515,58,1177,
1177,1177,1177,1311,1311,1311,1311,1311,1311,1311,1311,1311,14,1305,1305,1311,1311,1311,1333,1333,1332,797,853,853,1348,1350,1350,1350,1349,1350,1349,849,849,793,1341,1333,1305,1305,1305,1305,1305,515,515,515,515,515,14,74,572,74,75,74,75,74,75,14,515,515,58,1177,
848,1338,1177,1311,1311,1311,1311,1311,1311,1311,1311,1311,1311,1311,1311,1311,1311,1311,1333,1332,797,853,853,1350,1350,1349,1348,1348,1348,1349,1350,1350,849,849,793,1341,1333,1333,1305,1305,1305,1305,1305,515,515,515,3,3,3,3,3,3,3,3,3,3,515,515,1177,1177,
848,1338,1331,1311,1311,1311,1311,1311,1311,1311,1311,1311,1311,1311,1333,1333,1333,1333,1333,797,853,853,849,1349,1349,1350,1349,1350,1349,1350,1349,1349,1348,849,849,793,1341,1333,1333,1305,1305,1305,1305,1305,515,515,515,515,515,515,515,515,515,515,515,515,515,58,1177,1177,
848,1337,1338,1340,1340,1340,1340,1340,1340,1340,1340,1340,1340,1340,1340,1340,1340,1340,1340,853,853,849,1350,1348,1348,1350,1350,1350,1349,1350,1349,1350,1348,1348,849,849,793,1341,1333,1333,803,803,803,803,803,803,803,803,803,803,803,803,803,803,803,803,803,1177,1177,1177,
848,1350,1350,1347,1347,1347,1347,1347,1347,1347,1347,1347,1347,1347,1347,1347,1347,1347,1347,1347,1347,1350,1350,1350,1348,1348,1348,1350,1350,1350,1350,1350,1350,1350,1350,849,849,1347,1347,1347,1347,1347,1347,1347,1347,1347,1347,1347,1347,1347,1347,1347,1347,1347,1347,1350,1350,1177,1177,1177
</data>
 </layer>
 <objectgroup id="2" name="collisions">
  <object id="1" name="wall" x="0" y="0" width="956" height="26.6667"/>
  <object id="2" name="wall" x="0" y="624" width="960" height="16"/>
  <object id="3" name="wall" x="0" y="0" width="16" height="640"/>
  <object id="4" name="wall" x="944" y="0" width="16" height="640"/>
  <object id="5" name="wall" x="135.667" y="161" width="280.667" height="14.6667"/>
  <object id="6" name="wall" x="545.667" y="159.667" width="277.333" height="17.3333"/>
  <object id="7" name="wall" x="129" y="162.333" width="10" height="289.333"/>
  <object id="8" name="wall" x="817" y="165.667" width="13.3333" height="294"/>
  <object id="10" name="wall" x="385.667" y="449.667" width="445.333" height="12"/>
  <object id="11" name="wall" x="320.333" y="162.333" width="16" height="91.3333"/>
  <object id="12" name="wall" x="320.333" y="335" width="10.6667" height="124"/>
  <object id="13" name="wall" x="625" y="160.333" width="14.6667" height="95.3333"/>
  <object id="14" name="wall" x="625" y="321.667" width="17.3333" height="128"/>
  <object id="15" name="wall" x="321" y="289" width="319.333" height="14.6667"/>
  <object id="16" name="wall" x="66.3333" y="321" width="126" height="15.3333"/>
  <object id="17" name="wall" x="797" y="325" width="70" height="6"/>
  <object id="18" name="wall" x="193.667" y="450.333" width="14.6667" height="122"/>
  <object id="21" name="wall" x="883" y="451" width="10" height="10"/>
  <object id="22" name="wall" x="737" y="451.667" width="17.3333" height="136"/>
  <object id="23" name="wall" x="879.667" y="447.667" width="16.6667" height="142.667"/>
  <object id="24" name="wall" x="738.333" y="575" width="158.667" height="14"/>
  <object id="25" name="wall" x="63.6667" y="449" width="268.667" height="14.6667"/>
  <object id="1000" name="wall" x="352" y="493.333" width="130.667" height="134.667"/>
  <object id="1001" name="wall" x="5.33333" y="8" width="73.3333" height="34.6667"/>
  <object id="1002" name="wall" x="10.6667" y="26.6667" width="38.6667" height="52"/>
  <object id="1003" name="wall" x="38.6667" y="33.3333" width="25.3333" height="29.3333"/>
  <object id="1004" name="wall" x="14.6667" y="558.667" width="33.3333" height="70.6667"/>
  <object id="1005" name="wall" x="38.6667" y="613.333" width="290.667" height="12"/>
  <object id="1009" name="wall" x="346.667" y="516">
   <polygon points="0,0 -36,30.6667 -57.3333,45.3333 -53.3333,72 -122.667,76 -125.333,100 -37.3333,96 237.333,106.667 598.667,105.333 593.333,89.3333 282.667,93.3333 277.333,80 260,77.3333 254.667,58.6667 233.333,58.6667 228,40 213.333,41.3333 210.667,-4 137.333,-5.33333 130.667,-6.66667 130.667,-25.3333 5.33333,-20"/>
  </object>
  <object id="1011" name="wall" x="916" y="24">
   <polygon points="0,0 -2.66667,12 -5.33333,17.3333 17.3333,24 10.6667,77.3333 25.3333,82.6667 25.3333,0"/>
  </object>
 </objectgroup>
 <objectgroup id="5" name="entities">
  <object id="26" name="player_spawn" x="96" y="544" width="14" height="16"/>
  <object id="27" name="server" x="801" y="513" width="30" height="32"/>
  <object id="28" name="server_door" x="826" y="451.333" width="54.6667" height="6"/>
  <object id="29" name="key" x="468.667" y="221.333" width="10" height="12"/>
  <object id="30" name="item_water" x="162" y="130" width="12" height="12"/>
  <object id="31" name="item_meat" x="705" y="481" width="14" height="13"/>
 </objectgroup>
 <objectgroup id="6" name="enemies" visible="0">
  <object id="100" name="guard_start" x="64" y="80" width="12" height="12">
   <properties>
    <property name="id" type="int" value="1"/>
    <property name="viewAngle" type="int" value="60"/>
    <property name="viewRadius" type="int" value="120"/>
   </properties>
  </object>
  <object id="101" name="guard_end" x="256" y="80" width="12" height="12">
   <properties>
    <property name="id" type="int" value="1"/>
    <property name="viewAngle" type="int" value="60"/>
    <property name="viewRadius" type="int" value="120"/>
   </properties>
  </object>
  <object id="102" name="guard_start" x="160" y="80" width="12" height="12">
   <properties>
    <property name="id" type="int" value="2"/>
    <property name="viewAngle" type="int" value="60"/>
    <property name="viewRadius" type="int" value="120"/>
   </properties>
  </object>
  <object id="103" name="guard_end" x="352" y="80" width="12" height="12">
   <properties>
    <property name="id" type="int" value="2"/>
    <property name="viewAngle" type="int" value="60"/>
    <property name="viewRadius" type="int" value="120"/>
   </properties>
  </object>
  <object id="104" name="guard_start" x="256" y="80" width="12" height="12">
   <properties>
    <property name="id" type="int" value="3"/>
    <property name="viewAngle" type="int" value="60"/>
    <property name="viewRadius" type="int" value="120"/>
   </properties>
  </object>
  <object id="105" name="guard_end" x="448" y="80" width="12" height="12">
   <properties>
    <property name="id" type="int" value="3"/>
    <property name="viewAngle" type="int" value="60"/>
    <property name="viewRadius" type="int" value="120"/>
   </properties>
  </object>
  <object id="106" name="guard_start" x="352" y="80" width="12" height="12">
   <properties>
    <property name="id" type="int" value="4"/>
    <property name="viewAngle" type="int" value="60"/>
    <property name="viewRadius" type="int" value="120"/>
   </properties>
  </object>
  <object id="107" name="guard_end" x="544" y="80" width="12" height="12">
   <properties>
    <property name="id" type="int" value="4"/>
    <property name="viewAngle" type="int" value="60"/>
    <property name="viewRadius" type="int" value="120"/>
   </properties>
  </object>
  <object id="108" name="guard_start" x="448" y="80" width="12" height="12">
   <properties>
    <property name="id" type="int" value="5"/>
    <property name="viewAngle" type="int" value="60"/>
    <property name="viewRadius" type="int" value="120"/>
   </properties>
  </object>
  <object id="109" name="guard_end" x="640" y="80" width="12" height="12">
   <properties>
    <property name="id" type="int" value="5"/>
    <property name="viewAngle" type="int" value="60"/>
    <property name="viewRadius" type="int" value="120"/>
   </properties>
  </object>
  <object id="110" name="guard_start" x="544" y="80" width="12" height="12">
   <properties>
    <property name="id" type="int" value="6"/>
    <property name="viewAngle" type="int" value="60"/>
    <property name="viewRadius" type="int" value="120"/>
   </properties>
  </object>
  <object id="111" name="guard_end" x="736" y="80" width="12" height="12">
   <properties>
    <property name="id" type="int" value="6"/>
    <property name="viewAngle" type="int" value="60"/>
    <property name="viewRadius" type="int" value="120"/>
   </properties>
  </object>
  <object id="112" name="guard_start" x="640" y="80" width="12" height="12">
   <properties>
    <property name="id" type="int" value="7"/>
    <property name="viewAngle" type="int" value="60"/>
    <property name="viewRadius" type="int" value="120"/>
   </properties>
  </object>
  <object id="113" name="guard_end" x="832" y="80" width="12" height="12">
   <properties>
    <property name="id" type="int" value="7"/>
    <property name="viewAngle" type="int" value="60"/>
    <property name="viewRadius" type="int" value="120"/>
   </properties>
  </object>
  <object id="114" name="guard_start" x="768" y="80" width="12" height="12">
   <properties>
    <property name="id" type="int" value="8"/>
    <property name="viewAngle" type="int" value="60"/>
    <property name="viewRadius" type="int" value="120"/>
   </properties>
  </object>
  <object id="115" name="guard_end" x="896" y="80" width="12" height="12">
   <properties>
    <property name="id" type="int" value="8"/>
    <property name="viewAngle" type="int" value="60"/>
    <property name="viewRadius" type="int" value="120"/>
   </properties>
  </object>
  <object id="116" name="guard_start" x="160" y="208" width="12" height="12">
   <properties>
    <property name="id" type="int" value="9"/>
    <property name="viewAngle" type="int" value="60"/>
    <property name="viewRadius" type="int" value="120"/>
   </properties>
  </object>
  <object id="117" name="guard_end" x="288" y="208" width="12" height="12">
   <properties>
    <property name="id" type="int" value="9"/>
    <property name="viewAngle" type="int" value="60"/>
    <property name="viewRadius" type="int" value="120"/>
   </properties>
  </object>
 </objectgroup>
</map>
