<?xml version="1.0" encoding="UTF-8"?>
<map version="1.10" tiledversion="1.12.2" orientation="orthogonal" renderorder="right-down" width="60" height="40" tilewidth="16" tileheight="16" infinite="0" nextlayerid="7" nextobjectid="1005">
 <tileset firstgid="1" name="Set 1.0" tilewidth="16" tileheight="16" tilecount="48" columns="12">
  <image source="tilesetAD/map1/Dungeon Gathering Free Version/Set 1.0.png" width="192" height="64"/>
 </tileset>
 <tileset firstgid="49" name="Set 1.2" tilewidth="16" tileheight="16" tilecount="96" columns="16">
  <image source="tilesetAD/map1/Dungeon Gathering Free Version/Set 1.2.png" width="256" height="96"/>
 </tileset>
 <tileset firstgid="145" name="Structure" tilewidth="16" tileheight="16" tilecount="2" columns="1">
  <image source="tilesetAD/map1/Dungeon Gathering Free Version/Structure.png" width="16" height="32"/>
 </tileset>
 <tileset firstgid="147" name="burninglava1 - Copy (2)" tilewidth="16" tileheight="16" tilecount="28" columns="4">
  <image source="tilesetAD/Top Down Lava Tileset 16x16 Free/Top Down Lava Tileset 16x16 Free/FREE TILESET FILES/Environment ( With Animations )/Burning Lava/burninglava1 - Copy (2).png" width="64" height="112"/>
 </tileset>
 <tileset firstgid="175" name="burninglava1 - Copy (3)" tilewidth="16" tileheight="16" tilecount="28" columns="7">
  <image source="tilesetAD/Top Down Lava Tileset 16x16 Free/Top Down Lava Tileset 16x16 Free/FREE TILESET FILES/Environment ( With Animations )/Burning Lava/burninglava1 - Copy (3).png" width="112" height="64"/>
 </tileset>
 <tileset firstgid="203" name="burninglava1 - Copy" tilewidth="16" tileheight="16" tilecount="28" columns="4">
  <image source="tilesetAD/Top Down Lava Tileset 16x16 Free/Top Down Lava Tileset 16x16 Free/FREE TILESET FILES/Environment ( With Animations )/Burning Lava/burninglava1 - Copy.png" width="64" height="112"/>
 </tileset>
 <tileset firstgid="231" name="freelavatileset-Sheet" tilewidth="16" tileheight="16" tilecount="840" columns="56">
  <image source="tilesetAD/Top Down Lava Tileset 16x16 Free/Top Down Lava Tileset 16x16 Free/FREE TILESET FILES/freelavatileset-Sheet.png" width="896" height="240"/>
 </tileset>
 <tileset firstgid="1071" name="lavaonland1 - Copy (2)" tilewidth="16" tileheight="16" tilecount="70" columns="10">
  <image source="tilesetAD/Top Down Lava Tileset 16x16 Free/Top Down Lava Tileset 16x16 Free/FREE TILESET FILES/Environment ( With Animations )/Land on Lava Tile/lavaonland1 - Copy (2).png" width="160" height="112"/>
 </tileset>
 <tileset firstgid="1141" name="lavaonland1 - Copy (3)" tilewidth="16" tileheight="16" tilecount="70" columns="10">
  <image source="tilesetAD/Top Down Lava Tileset 16x16 Free/Top Down Lava Tileset 16x16 Free/FREE TILESET FILES/Environment ( With Animations )/Land on Lava Tile/lavaonland1 - Copy (3).png" width="160" height="112"/>
 </tileset>
 <tileset firstgid="1211" name="lavaonland1 - Copy" tilewidth="16" tileheight="16" tilecount="70" columns="7">
  <image source="tilesetAD/Top Down Lava Tileset 16x16 Free/Top Down Lava Tileset 16x16 Free/FREE TILESET FILES/Environment ( With Animations )/Land on Lava Tile/lavaonland1 - Copy.png" width="112" height="160"/>
 </tileset>
 <tileset firstgid="1281" name="lavaonland1" tilewidth="16" tileheight="16" tilecount="70" columns="7">
  <image source="tilesetAD/Top Down Lava Tileset 16x16 Free/Top Down Lava Tileset 16x16 Free/FREE TILESET FILES/Environment ( With Animations )/Land on Lava Tile/lavaonland1.png" width="112" height="160"/>
 </tileset>
 <tileset firstgid="1351" name="burninglava1 - Copy" tilewidth="16" tileheight="16" tilecount="28" columns="4">
  <image source="tilesetAD/Top Down Lava Tileset 16x16 Free/Top Down Lava Tileset 16x16 Free/FREE TILESET FILES/Environment ( With Animations )/Burning Lava/burninglava1 - Copy.png" width="64" height="112"/>
 </tileset>
 <layer id="1" name="Tile Layer 1" width="60" height="40">
  <data encoding="csv">
1178,1178,1334,1334,1334,1334,1334,1334,1334,1334,1334,1334,1334,1334,1334,1334,1334,1334,1334,1334,1334,1334,1334,1334,1334,1334,1334,1334,1334,1334,1334,1334,1334,1334,1334,1334,1334,1334,1334,1334,1334,1334,1334,1334,1334,1334,1334,1334,1334,1334,1334,1334,1334,1334,1334,1334,1334,1334,1334,1334,
1333,1333,1333,1333,1333,1333,1333,1333,1333,1333,1333,1333,1333,1333,1333,1333,1333,1333,1333,1333,1333,1333,1333,1333,1333,1333,1333,1333,1333,1333,1333,1333,1333,1333,1333,1333,1333,1333,1333,1333,1333,1333,1333,1333,1333,1333,1333,1333,1333,1333,1333,1333,1333,1333,1333,1333,1333,1333,1333,1333,
1178,1178,1333,1333,1175,1175,1175,1175,1175,1175,1175,1175,1175,1175,1175,1175,1175,1175,1175,1175,1175,1175,1175,1175,1175,1175,1175,1175,1175,1175,1175,1175,1175,1175,1175,1175,1175,1175,1175,1175,1175,1175,1175,1175,1175,1175,1175,1175,1175,1175,1175,1175,1175,1175,1175,1175,1175,1333,1333,1102,
1178,1333,1333,1333,1175,1175,1175,1175,1175,1175,1175,1175,1175,1175,1175,1175,1175,1175,1175,1175,1175,1175,1175,1175,1175,1175,1175,1175,1175,14,1175,1175,1175,1175,1175,1175,1175,107,1175,1175,1175,1175,106,1175,1175,1175,1175,1175,1175,1175,1175,1175,89,1175,1175,1175,1175,1175,1333,1333,
1178,1333,1333,1175,1175,1175,1175,1175,1175,1175,1175,1175,1175,1175,1175,1175,1175,1175,1175,1175,1175,1175,1175,1175,1175,1175,1175,1175,1175,14,1175,1175,1175,1175,1175,1175,1175,1175,1175,1175,1175,1175,1175,1175,1175,1175,1175,1175,1175,1175,1175,1175,1175,1175,1175,1175,1175,1175,1175,1333,
1178,1179,1175,1175,1175,1175,1175,1175,1175,1175,1175,1175,1175,1175,1175,1175,1175,1175,1175,1175,1175,1175,1175,1175,1175,1175,1175,1175,1175,14,1175,1175,1175,1175,1175,1175,1175,1175,1175,1175,1175,1175,1175,1175,1175,1175,1175,1175,1175,1175,1175,1175,1175,1175,1175,1175,1175,1175,1175,1102,
1178,1179,1175,1175,1175,1175,1175,1175,1175,1175,1175,1175,2,3,3,3,3,3,3,3,3,3,3,4,1175,1175,1175,1175,1175,14,1175,1175,1175,1175,1175,1175,14,3,3,3,3,3,3,3,3,3,3,14,1175,1175,1175,1175,1175,1175,1175,1175,1175,1175,1175,1102,
1178,1178,1175,1175,1175,1175,1175,1175,1175,1175,1175,1175,14,1175,1175,1175,1175,1175,1175,1175,1175,1175,1175,16,1175,1175,1175,1175,1175,14,1175,1175,1175,1175,1175,1175,14,1175,1175,1175,1175,1175,1175,1175,1175,1175,1175,14,1175,1175,1175,1175,1175,1175,1175,1175,1175,1175,1175,1102,
1178,1178,1175,1175,1175,1175,1175,1175,1175,1175,73,1175,14,1175,1175,108,1175,1175,1175,1175,107,1175,1175,16,1175,1175,1175,1175,1175,14,1175,1175,1175,1175,1175,1175,14,106,1175,1175,1175,1175,1175,1175,1175,1175,1175,14,1175,1175,1175,1175,73,1175,1175,1175,1175,1175,1175,1102,
1178,1178,1175,1175,1175,1175,1175,1175,1175,1175,1175,1175,14,1175,1175,1175,1175,1175,1175,23,1175,1175,1175,16,1175,1175,1175,1175,1175,1175,1175,1175,1175,1175,1175,1175,14,1175,1175,1175,1175,1175,1175,1175,1175,1175,1175,14,1175,1175,1175,1175,1175,1175,1175,1175,1175,1175,1175,1102,
1178,1178,1175,1175,1175,1175,1175,1175,1175,1175,1175,1175,14,1175,1175,1175,1175,23,1175,1175,1175,1175,1175,16,1175,1175,1175,1175,1175,1175,1175,1175,1175,1175,1175,1175,14,1175,1175,1175,1175,1175,1175,1175,1175,1175,1175,14,1175,1175,1175,1175,1175,1175,1175,1175,1175,1175,1175,1102,
1178,1178,1175,1175,1175,1175,1175,1175,1175,1175,1175,1175,14,1175,1175,1175,1175,1175,1175,1175,1175,1175,1175,16,1175,1175,1175,1175,1175,1175,1175,1175,1175,1175,1175,1175,14,1175,1175,1175,1175,1175,1175,1175,1175,1175,1175,14,1175,1175,1175,1175,1175,1175,1175,1175,1175,1175,1175,1102,
1178,1178,1175,1175,1175,1175,1175,1175,1175,1175,1175,1175,14,1175,1175,1175,1175,23,23,1175,1175,1175,1175,16,1175,1175,1175,1175,1175,1175,1175,1175,1175,1175,1175,1175,14,1175,1175,1175,1175,1175,1175,1175,1175,1175,1175,14,1175,1175,1175,1175,1175,1175,1175,1175,1175,1175,1175,1102,
1178,1179,1175,1175,1175,1175,1175,1175,1175,1175,1175,1175,14,1175,1175,1175,1175,1175,1175,1175,1175,1175,1175,16,1175,1175,1175,1175,1175,14,1175,1175,1175,1175,1175,1175,14,1175,1175,1175,1175,1175,1175,1175,1175,1175,1175,14,1175,1175,1175,1175,1175,1175,1175,1175,1175,1175,1175,1102,
1178,1179,1175,1175,1175,1175,1175,1175,1175,1175,1175,1175,1175,1175,1175,1175,1175,1175,1175,1175,1175,1175,1175,1175,1175,1175,1175,1175,1175,14,1175,1175,1175,1175,1175,1175,1175,1175,1175,1175,1175,1175,1175,1175,1175,1175,1175,1175,1175,1175,1175,1175,1175,1175,1175,1175,1175,1175,1175,1102,
1178,1178,1175,1175,1175,1175,1175,107,1175,1175,1175,1175,1175,1175,1175,1175,1175,1175,1175,1175,1175,1175,1175,1175,1175,1175,1175,1175,1175,14,1175,1175,1175,1175,1175,1175,1175,1175,1175,1175,1175,1175,106,1175,1175,1175,1175,1175,1175,1175,1175,1175,89,1175,1175,1175,1175,1175,1175,1102,
1178,1178,1175,1175,1175,1175,1175,1175,1175,1175,1175,1175,1175,1175,1175,1175,1175,1175,1175,1175,1175,1175,1175,1175,1175,1175,1175,1175,1175,14,1175,1175,1175,1175,1175,1175,1175,1175,1175,1175,1175,1175,1175,1175,1175,1175,1175,1175,1175,1175,1175,1175,1175,1175,1175,1175,1175,1175,1175,1102,
1178,1178,1175,1175,1175,1175,1175,1175,1175,1175,1175,1175,2,3,3,3,3,3,3,3,3,3,1175,1175,1175,1175,1175,1175,1175,14,1175,1175,1175,1175,1175,1175,1175,1175,1175,1175,1175,1175,1175,1175,1175,1175,1175,1175,1175,1175,1175,1175,1175,1175,1175,1175,1175,1175,1175,1102,
1178,1178,1175,1175,1175,1175,1175,1175,1175,1175,1175,1175,14,1175,1175,1175,1175,1175,1175,1175,1175,1175,1175,1175,1175,1175,1175,1175,1175,14,1175,1175,1175,1175,1175,1175,3,3,3,3,3,3,3,3,3,3,3,14,3,3,3,3,1175,1175,1175,1175,1175,1175,1175,1102,
1178,1178,1175,1175,1175,1175,1175,1175,1175,1175,1175,1175,14,1175,1175,1175,1175,1175,1175,1175,1175,1175,1175,1175,1175,1175,1175,1175,1175,14,1175,1175,1175,1175,1175,1175,1175,1175,1175,1175,1175,1175,1175,1175,1175,1175,1175,14,1175,1175,1175,1175,1175,1175,1175,1175,1175,1175,1175,1102,
1178,1178,1175,1175,1175,1175,1175,1175,1175,1175,1175,1175,14,1175,1175,1175,1175,1175,1175,1175,1175,1175,1175,1175,1175,1175,1175,1175,1175,1175,1175,1175,1175,1175,1175,1175,1175,106,1175,1175,1175,1175,1175,1175,1175,1175,1175,14,1175,1175,1175,1175,73,1175,1175,1175,1175,1175,1175,1102,
1178,1178,1175,1175,1175,1175,1175,1175,1175,1175,1175,1175,14,1175,1175,1094,1094,1178,1178,1340,1340,1340,1340,1340,1175,1175,1175,1175,1175,1175,1175,1175,1175,1175,1175,1175,1175,1175,1175,1175,1175,1175,1175,1175,1175,1175,1175,14,1175,1175,1175,1175,1175,1175,1175,1175,1175,1175,1175,1102,
1178,1179,1175,1175,1175,1175,1175,1175,1175,1175,1175,1175,14,1175,1175,1094,1178,1178,1178,1199,1347,1347,1347,1122,1340,1094,1175,1175,1175,1175,1175,1175,1175,1175,1175,1175,1175,1175,1175,1175,1175,1175,1175,1175,1175,1175,1175,14,1175,1175,1175,1175,1175,1175,1175,1175,1175,1175,1175,1102,
1178,1178,1175,1175,1175,1175,1175,1175,1175,1175,1175,1175,14,1175,1175,1094,1169,1178,1179,1190,1071,1071,1347,1121,1122,1092,1094,1175,1175,14,1175,1175,1175,1175,1175,1175,1175,1175,1175,1175,1175,1175,1175,1175,1175,1175,1175,14,1175,1175,1175,1175,1175,1175,1175,1175,1175,1175,1175,1102,
1178,1178,1175,1175,1175,1175,1175,1175,1175,1175,1175,1175,14,1175,1094,1094,1169,1199,1071,1209,1071,1347,1347,1347,1101,1092,1094,1175,1175,14,1175,1175,1175,1175,1175,1175,1175,1175,1175,1175,1175,1175,1175,1175,1175,1175,1175,14,1175,1175,1175,1175,1175,1175,1175,1175,1175,1175,1175,1102,
1178,1178,1175,1175,1175,1175,1175,1175,1175,1175,1175,1175,14,1175,1094,1094,1169,1190,1347,1347,1071,1347,1347,1071,1101,1092,1094,1175,1175,14,1175,1175,1175,1175,1175,1175,1175,1175,1175,1175,1175,1175,1175,1175,1175,1175,1175,14,1175,1175,1175,1175,1175,1175,1175,1175,1175,1175,1175,1102,
1178,1179,1175,1175,1175,1175,1175,1175,1175,1175,1175,1175,1175,1175,1175,1094,1094,1190,1215,1215,1215,1215,1215,1215,1082,1092,1175,1175,1175,14,1175,1175,1175,1175,1175,1175,1175,1175,1175,1175,1175,1175,1175,1175,3,3,3,3,1175,1175,1175,3,3,3,3,3,1175,1175,1175,1102,
1178,1178,1175,1175,1175,1175,1175,1175,1175,1175,1175,1175,1175,107,1175,1175,1094,1094,1221,1221,1221,1221,1221,1221,1221,1094,1175,1175,1175,14,1175,1175,1175,1175,1175,1175,1175,1175,1175,1175,1175,1175,1175,1175,14,73,1175,1175,1175,1175,1175,1175,1175,1175,1175,14,1175,1175,1175,1102,
1178,1179,1175,1175,1175,1175,1175,1175,1175,1175,1175,1175,1175,1175,1175,1175,1175,1094,1094,1094,1094,1094,1094,1094,1094,1175,1175,1175,1175,14,1175,1175,1175,1175,1175,1175,1175,1175,1175,1175,1175,1175,1175,1175,14,1175,1175,1175,1175,23,23,23,23,1175,1175,14,1175,1175,1175,1102,
1178,1179,1175,1175,1175,1175,1175,1175,1175,1175,1175,1175,1175,1175,1175,1175,1175,1175,1175,1175,1175,1175,1175,1175,1175,1175,1175,1175,1175,14,1175,1175,1175,1175,1175,1175,1175,1175,1175,1175,1175,1175,1175,1175,14,1175,1175,23,23,23,23,1175,23,1175,1175,14,1175,1175,1175,1102,
1178,1178,1175,1175,2,3,3,3,3,3,3,3,3,3,3,3,4,1175,1175,1175,1175,1175,1175,1175,3,3,3,3,3,3,3,3,1175,1175,1175,1175,3,3,3,3,3,3,3,3,14,1175,23,23,1175,146,145,106,23,1175,1175,14,1175,1175,1175,1102,
1178,1178,1175,1175,14,73,1175,1175,1175,107,1175,1175,1175,1175,1175,1175,16,1175,1175,1175,1175,1175,1175,1175,1175,1175,1175,1175,1175,14,1175,1175,1175,1175,1175,1175,1175,1175,1175,1175,1175,1175,1175,1175,14,107,23,1175,107,145,146,108,23,73,1175,14,1175,1175,1175,1102,
1178,1178,1175,1175,14,1175,1175,1175,1175,1175,1175,1175,1175,1175,1175,1175,16,1175,1175,1175,1175,1175,1175,1175,1175,1175,1175,1175,1175,1175,1175,1175,1175,1175,1175,1175,1175,1175,1175,1175,1175,1175,1175,1175,14,1175,23,23,1175,1175,1175,23,23,1175,1175,14,1175,1175,1175,1102,
1178,1179,1175,1175,14,1175,1175,1175,1175,1175,1175,1175,1175,1175,1175,1175,16,1175,1175,1175,1175,1175,1175,1175,1175,1175,1175,1175,1175,1175,1175,1175,1175,1175,1175,1175,1175,1175,1175,1175,1175,1175,1175,1175,14,1175,1175,23,23,23,23,23,1175,1175,1175,14,1175,1175,1175,1102,
1178,1179,1175,1175,14,1175,1175,1175,1175,1175,1175,1175,1175,1175,1175,1175,16,1175,1175,1175,1175,1175,1175,1175,1175,1175,1175,1175,1175,1175,1175,1175,1175,1175,1175,1175,1175,1175,1175,1175,1175,1175,1175,1175,14,1175,1175,1175,1175,1175,1175,1175,1175,1175,1175,14,1175,1175,1175,1102,
1178,1178,1175,1175,14,1175,1175,1175,1175,1175,1175,1175,1175,1175,1175,1175,16,1175,1175,1175,1175,1175,1175,1175,1175,1175,1175,1175,1175,1175,1175,1175,1175,1175,1175,1175,1175,73,1175,1175,1175,1175,1175,1175,3,3,3,3,3,3,3,3,3,3,3,3,1175,1175,1175,1102,
1178,1179,1175,1175,1175,1175,1175,1175,1175,1175,1175,1175,1175,1175,1175,1175,1175,1175,1175,1175,1175,1175,1333,1333,1333,1333,1175,1175,1175,1175,1175,1333,1333,1333,1175,1175,1175,1175,1175,1175,1175,1175,1175,1175,1175,1175,1175,1175,1175,1175,1175,1175,1175,1175,1175,1175,1175,1175,1175,1102,
1178,1178,1175,1175,1175,1175,1175,1175,1175,1175,1175,1175,1175,1175,1175,1175,1175,1175,1175,1175,1175,1333,1333,1333,1333,1333,1333,1333,1333,1333,1333,1333,1333,1333,1333,1333,1175,1175,1175,1175,1175,1175,1175,1175,1175,1175,1175,1175,1175,1175,1175,1175,1175,1175,1175,1175,1175,1175,1333,1333,
1178,1178,1175,1175,1175,1175,1175,1175,1175,1175,1175,1175,1175,1175,1175,1175,1175,1175,1175,1175,1333,1333,1333,1333,1333,1333,1333,1333,1333,1333,1333,1333,1333,1333,1333,1333,1333,1333,1333,1175,1175,1175,1175,1175,1175,1175,1175,1175,1175,1175,1175,1175,1175,1175,1175,1175,1333,1333,1333,1102,
1178,1178,1221,1221,1221,1221,1221,1221,1221,1221,1221,1221,1221,1221,1221,1221,1221,1221,1221,1221,1221,1333,1221,1221,1221,1221,1221,1221,1221,1221,1221,1221,1221,1221,1221,1221,1221,1221,1333,1221,1221,1221,1221,1221,1221,1221,1221,1221,1221,1221,1221,1221,1221,1221,1221,1221,1333,1221,1221,1221
</data>
 </layer>
 <objectgroup id="2" name="collisions">
  <object id="1" name="wall" x="5.75" y="-0.666667" width="960" height="32"/>
  <object id="2" name="wall" x="0" y="624" width="960" height="16"/>
  <object id="3" name="wall" x="0" y="0.25" width="30.75" height="639.75"/>
  <object id="4" name="wall" x="944" y="0" width="16" height="640"/>
  <object id="5" name="wall" x="194.667" y="97.3333" width="188.667" height="12.6667"/>
  <object id="6" name="wall" x="579" y="95.6667" width="182.667" height="14.6667"/>
  <object id="7" name="wall" x="193" y="98" width="10" height="126"/>
  <object id="8" name="wall" x="370.333" y="111" width="12.3333" height="113.333"/>
  <object id="9" name="wall" x="576.333" y="97" width="11.3333" height="127.667"/>
  <object id="10" name="wall" x="753.333" y="94" width="10.3333" height="130.333"/>
  <object id="11" name="wall" x="465.333" y="47.6667" width="13.6667" height="95.6667"/>
  <object id="12" name="wall" x="464" y="208.333" width="12" height="111.333"/>
  <object id="13" name="wall" x="465.333" y="368" width="9.66667" height="143"/>
  <object id="14" name="wall" x="194" y="273" width="160" height="16"/>
  <object id="15" name="wall" x="577" y="288" width="254" height="14"/>
  <object id="16" name="wall" x="193" y="275.5" width="13.5" height="140"/>
  <object id="17" name="wall" x="754" y="295" width="9" height="142"/>
  <object id="18" name="wall" x="68.5" y="481" width="187.5" height="10.5"/>
  <object id="19" name="wall" x="385" y="480.333" width="126.333" height="14.3333"/>
  <object id="20" name="wall" x="576.667" y="482.333" width="128.667" height="10"/>
  <object id="21" name="wall" x="705" y="421" width="10" height="151"/>
  <object id="22" name="wall" x="879" y="417" width="12" height="153"/>
  <object id="23" name="wall" x="710" y="560" width="186" height="11"/>
  <object id="24" name="wall" x="709" y="421" width="54" height="6"/>
  <object id="25" name="wall" x="816" y="416" width="80" height="11"/>
  <object id="26" name="wall" x="63.5" y="480.5" width="11.5" height="98.5"/>
  <object id="27" name="wall" x="256.5" y="482.5" width="15" height="95"/>
  <object id="1003" name="wall" x="322" y="628">
   <polygon points="0,0 -4,-21 11,-21 11,-36 27,-39 30,-53 88,-54 95,-37 177,-37 175,-51 213,-54 219,-37 258,-40 258,-19 297,-21 300,-7"/>
  </object>
  <object id="1004" name="wall" x="244" y="338">
   <polygon points="0,0 -1,48 0,100 19,99 19,123 152,120 162,112 189,78 184,35 169,18 146,16 140,5"/>
  </object>
 </objectgroup>
 <objectgroup id="5" name="entities" visible="0">
  <object id="28" name="player_spawn" x="163" y="541" width="14" height="16"/>
  <object id="29" name="server" x="785" y="481" width="30" height="32"/>
  <object id="30" name="server_door" x="768" y="416" width="48" height="8"/>
  <object id="31" name="key" x="292" y="164" width="10" height="12"/>
  <object id="32" name="item_water" x="143" y="344" width="12" height="12"/>
  <object id="33" name="item_meat" x="625" y="321" width="14" height="13"/>
 </objectgroup>
 <objectgroup id="6" name="enemies">
  <object id="100" name="guard_start" x="64" y="80" width="12" height="12">
   <properties>
    <property name="id" type="int" value="1"/>
    <property name="viewAngle" type="int" value="60"/>
    <property name="viewRadius" type="int" value="120"/>
   </properties>
  </object>
  <object id="101" name="guard_end" x="160" y="80" width="12" height="12">
   <properties>
    <property name="id" type="int" value="1"/>
    <property name="viewAngle" type="int" value="60"/>
    <property name="viewRadius" type="int" value="120"/>
   </properties>
  </object>
  <object id="102" name="guard_start" x="800" y="80" width="12" height="12">
   <properties>
    <property name="id" type="int" value="2"/>
    <property name="viewAngle" type="int" value="60"/>
    <property name="viewRadius" type="int" value="120"/>
   </properties>
  </object>
  <object id="103" name="guard_end" x="896" y="80" width="12" height="12">
   <properties>
    <property name="id" type="int" value="2"/>
    <property name="viewAngle" type="int" value="60"/>
    <property name="viewRadius" type="int" value="120"/>
   </properties>
  </object>
  <object id="104" name="guard_start" x="224" y="144" width="12" height="12">
   <properties>
    <property name="id" type="int" value="3"/>
    <property name="viewAngle" type="int" value="60"/>
    <property name="viewRadius" type="int" value="120"/>
   </properties>
  </object>
  <object id="105" name="guard_end" x="320" y="144" width="12" height="12">
   <properties>
    <property name="id" type="int" value="3"/>
    <property name="viewAngle" type="int" value="60"/>
    <property name="viewRadius" type="int" value="120"/>
   </properties>
  </object>
  <object id="106" name="guard_start" x="608" y="144" width="12" height="12">
   <properties>
    <property name="id" type="int" value="4"/>
    <property name="viewAngle" type="int" value="60"/>
    <property name="viewRadius" type="int" value="120"/>
   </properties>
  </object>
  <object id="107" name="guard_end" x="704" y="144" width="12" height="12">
   <properties>
    <property name="id" type="int" value="4"/>
    <property name="viewAngle" type="int" value="60"/>
    <property name="viewRadius" type="int" value="120"/>
   </properties>
  </object>
  <object id="108" name="guard_start" x="64" y="176" width="12" height="12">
   <properties>
    <property name="id" type="int" value="5"/>
    <property name="viewAngle" type="int" value="60"/>
    <property name="viewRadius" type="int" value="120"/>
   </properties>
  </object>
  <object id="109" name="guard_end" x="160" y="176" width="12" height="12">
   <properties>
    <property name="id" type="int" value="5"/>
    <property name="viewAngle" type="int" value="60"/>
    <property name="viewRadius" type="int" value="120"/>
   </properties>
  </object>
  <object id="110" name="guard_start" x="416" y="176" width="12" height="12">
   <properties>
    <property name="id" type="int" value="6"/>
    <property name="viewAngle" type="int" value="60"/>
    <property name="viewRadius" type="int" value="120"/>
   </properties>
  </object>
  <object id="111" name="guard_end" x="544" y="176" width="12" height="12">
   <properties>
    <property name="id" type="int" value="6"/>
    <property name="viewAngle" type="int" value="60"/>
    <property name="viewRadius" type="int" value="120"/>
   </properties>
  </object>
  <object id="112" name="guard_start" x="800" y="176" width="12" height="12">
   <properties>
    <property name="id" type="int" value="7"/>
    <property name="viewAngle" type="int" value="60"/>
    <property name="viewRadius" type="int" value="120"/>
   </properties>
  </object>
  <object id="113" name="guard_end" x="896" y="176" width="12" height="12">
   <properties>
    <property name="id" type="int" value="7"/>
    <property name="viewAngle" type="int" value="60"/>
    <property name="viewRadius" type="int" value="120"/>
   </properties>
  </object>
  <object id="114" name="guard_start" x="96" y="240" width="12" height="12">
   <properties>
    <property name="id" type="int" value="8"/>
    <property name="viewAngle" type="int" value="60"/>
    <property name="viewRadius" type="int" value="120"/>
   </properties>
  </object>
  <object id="115" name="guard_end" x="288" y="240" width="12" height="12">
   <properties>
    <property name="id" type="int" value="8"/>
    <property name="viewAngle" type="int" value="60"/>
    <property name="viewRadius" type="int" value="120"/>
   </properties>
  </object>
  <object id="116" name="guard_start" x="192" y="240" width="12" height="12">
   <properties>
    <property name="id" type="int" value="9"/>
    <property name="viewAngle" type="int" value="60"/>
    <property name="viewRadius" type="int" value="120"/>
   </properties>
  </object>
  <object id="117" name="guard_end" x="384" y="240" width="12" height="12">
   <properties>
    <property name="id" type="int" value="9"/>
    <property name="viewAngle" type="int" value="60"/>
    <property name="viewRadius" type="int" value="120"/>
   </properties>
  </object>
 </objectgroup>
</map>
