<?xml version="1.0" encoding="UTF-8"?>
<map version="1.10" tiledversion="1.12.1" orientation="orthogonal" renderorder="right-down" width="60" height="40" tilewidth="16" tileheight="16" infinite="0" nextlayerid="7" nextobjectid="1034">
 <tileset firstgid="1" name="Set 1.0" tilewidth="16" tileheight="16" tilecount="48" columns="12">
  <image source="tilesetAD/map1/Dungeon Gathering Free Version/Set 1.0.png" width="192" height="64"/>
 </tileset>
 <tileset firstgid="49" name="Set 1.2" tilewidth="16" tileheight="16" tilecount="96" columns="16">
  <image source="tilesetAD/map1/Dungeon Gathering Free Version/Set 1.2.png" width="256" height="96"/>
 </tileset>
 <tileset firstgid="145" name="Structure" tilewidth="16" tileheight="16" tilecount="2" columns="1">
  <image source="tilesetAD/map1/Dungeon Gathering Free Version/Structure.png" width="16" height="32"/>
 </tileset>
 <tileset firstgid="147" name="lava1" tilewidth="16" tileheight="16" tilecount="28" columns="7">
  <image source="tilesetAD/Top Down Lava Tileset 16x16 Free/Top Down Lava Tileset 16x16 Free/FREE TILESET FILES/Environment ( With Animations )/Burning Lava/burninglava1.png" width="112" height="64"/>
 </tileset>
 <tileset firstgid="175" name="lavaonland1" tilewidth="16" tileheight="16" tilecount="70" columns="7">
  <image source="tilesetAD/Top Down Lava Tileset 16x16 Free/Top Down Lava Tileset 16x16 Free/FREE TILESET FILES/Environment ( With Animations )/Land on Lava Tile/lavaonland1.png" width="112" height="160"/>
 </tileset>
 <tileset firstgid="245" name="burninglava1 - Copy (2)" tilewidth="16" tileheight="16" tilecount="28" columns="4">
  <image source="tilesetAD/Top Down Lava Tileset 16x16 Free/Top Down Lava Tileset 16x16 Free/FREE TILESET FILES/Environment ( With Animations )/Burning Lava/burninglava1 - Copy (2).png" width="64" height="112"/>
 </tileset>
 <tileset firstgid="273" name="burninglava1 - Copy (3)" tilewidth="16" tileheight="16" tilecount="28" columns="7">
  <image source="tilesetAD/Top Down Lava Tileset 16x16 Free/Top Down Lava Tileset 16x16 Free/FREE TILESET FILES/Environment ( With Animations )/Burning Lava/burninglava1 - Copy (3).png" width="112" height="64"/>
 </tileset>
 <tileset firstgid="301" name="burninglava1 - Copy" tilewidth="16" tileheight="16" tilecount="28" columns="4">
  <image source="tilesetAD/Top Down Lava Tileset 16x16 Free/Top Down Lava Tileset 16x16 Free/FREE TILESET FILES/Environment ( With Animations )/Burning Lava/burninglava1 - Copy.png" width="64" height="112"/>
 </tileset>
 <tileset firstgid="329" name="lavaonland1 - Copy" tilewidth="16" tileheight="16" tilecount="70" columns="7">
  <image source="tilesetAD/Top Down Lava Tileset 16x16 Free/Top Down Lava Tileset 16x16 Free/FREE TILESET FILES/Environment ( With Animations )/Land on Lava Tile/lavaonland1 - Copy.png" width="112" height="160"/>
 </tileset>
 <tileset firstgid="399" name="lavaonland1 - Copy (2)" tilewidth="16" tileheight="16" tilecount="70" columns="10">
  <image source="tilesetAD/Top Down Lava Tileset 16x16 Free/Top Down Lava Tileset 16x16 Free/FREE TILESET FILES/Environment ( With Animations )/Land on Lava Tile/lavaonland1 - Copy (2).png" width="160" height="112"/>
 </tileset>
 <tileset firstgid="469" name="lavaonland1 - Copy (3)" tilewidth="16" tileheight="16" tilecount="70" columns="10">
  <image source="tilesetAD/Top Down Lava Tileset 16x16 Free/Top Down Lava Tileset 16x16 Free/FREE TILESET FILES/Environment ( With Animations )/Land on Lava Tile/lavaonland1 - Copy (3).png" width="160" height="112"/>
 </tileset>
 <layer id="1" name="Tile Layer 1" width="60" height="40">
  <data encoding="csv">
335,335,330,331,331,331,331,331,332,332,332,332,332,332,332,332,332,332,332,332,332,332,332,332,332,332,332,332,332,332,332,332,332,332,332,332,332,332,332,332,332,332,332,332,332,332,332,332,332,332,335,335,335,335,335,335,335,335,335,335,
335,330,337,345,339,339,339,339,339,339,339,339,339,339,339,339,339,339,339,339,339,339,339,339,339,339,339,339,339,339,339,339,339,339,339,339,339,339,339,339,340,340,340,340,340,340,340,340,341,332,332,332,332,332,332,333,333,334,335,335,
336,337,345,345,185,185,185,185,185,185,185,185,192,192,192,192,192,192,192,192,192,192,192,192,192,192,212,212,212,212,212,212,212,212,212,212,212,212,212,212,212,212,347,347,347,347,347,347,340,340,340,340,340,340,340,340,497,487,498,478,
343,218,345,192,192,192,192,192,192,192,192,192,192,192,192,192,192,192,212,212,212,212,212,212,212,212,212,212,212,212,212,212,212,212,212,212,212,212,212,212,212,212,212,212,212,212,212,212,212,212,212,212,212,212,212,212,506,497,498,478,
224,218,192,192,192,192,192,192,192,192,192,192,192,192,192,192,192,192,212,212,192,192,212,212,212,212,212,192,212,212,212,212,212,212,212,212,212,212,212,212,212,212,212,212,212,212,212,212,212,212,212,212,212,212,212,504,504,506,498,478,
224,345,192,192,192,192,192,192,192,212,192,192,212,212,192,212,212,192,192,212,212,212,212,192,192,192,212,212,192,212,212,212,212,212,212,212,212,212,212,212,212,212,212,212,212,212,212,212,212,212,212,212,212,212,212,504,504,506,498,478,
224,345,192,192,192,192,192,192,192,212,212,212,3,3,3,3,3,3,3,3,3,3,3,3,3,212,212,212,212,212,212,212,212,3,3,3,3,3,3,3,3,3,3,3,3,3,3,3,3,212,212,212,212,212,212,504,504,506,498,478,
224,345,192,192,192,192,192,212,212,212,14,212,212,212,212,212,212,212,212,212,212,212,212,212,212,212,212,212,212,192,192,212,212,212,212,212,212,212,212,212,212,212,212,212,212,212,212,212,212,212,16,212,212,212,212,504,212,506,518,478,
224,345,192,192,192,212,212,212,212,212,14,212,212,212,212,212,212,212,212,212,212,212,212,212,212,212,192,212,212,192,212,212,212,212,212,212,212,212,212,212,212,212,212,212,212,212,212,212,212,212,16,212,212,212,504,504,212,506,518,478,
224,218,192,192,212,212,212,212,212,212,14,212,212,212,212,212,212,212,212,212,212,212,212,212,212,212,212,212,212,212,212,212,212,212,212,212,212,212,212,212,212,212,212,212,212,212,212,212,212,212,16,212,212,212,504,212,212,506,518,478,
224,218,192,192,212,212,212,212,212,212,14,212,212,212,212,212,212,212,212,212,212,212,212,212,212,212,212,212,212,212,212,212,212,212,212,212,212,212,212,212,212,212,212,212,212,212,212,212,212,212,16,212,212,504,504,504,504,506,518,538,
224,218,212,212,212,212,212,212,212,212,14,212,212,212,212,212,212,212,212,212,212,212,212,212,212,71,212,212,212,71,212,212,212,71,212,212,212,212,212,212,212,212,212,212,212,212,212,212,212,212,16,212,212,504,212,504,504,507,518,508,
224,218,192,192,192,192,192,192,212,212,14,212,212,212,212,212,212,212,2,3,3,3,3,3,3,3,212,212,212,212,212,212,212,3,3,3,3,3,3,3,3,3,4,212,212,212,212,212,212,212,16,212,212,504,212,504,504,506,507,508,
224,218,192,192,192,192,212,212,212,212,14,212,212,212,212,212,212,212,14,71,212,212,212,212,212,71,71,212,212,212,212,212,75,74,212,74,212,212,212,212,212,212,16,212,212,212,212,212,212,212,16,212,212,504,212,212,212,506,507,508,
224,218,192,192,192,192,192,212,212,212,14,212,212,212,212,212,212,212,14,212,212,212,212,212,212,212,212,212,212,212,58,58,58,58,212,212,212,58,212,212,212,212,16,212,212,212,212,212,212,212,16,212,504,504,212,212,212,507,507,508,
224,218,192,192,192,192,192,192,212,212,14,212,212,212,212,212,212,212,14,212,212,212,212,71,71,212,212,58,58,58,58,107,58,58,58,212,106,58,212,212,212,212,16,212,212,212,212,212,212,212,212,212,504,212,212,212,212,507,527,528,
224,218,351,192,192,192,192,192,212,212,212,212,212,212,212,212,212,212,14,71,212,212,212,71,71,58,58,58,58,58,58,58,58,58,58,58,58,58,58,212,212,212,16,212,212,212,212,212,212,212,212,212,212,212,212,212,212,507,508,478,
244,232,351,351,192,192,192,192,212,212,212,212,212,212,212,212,212,212,212,71,212,212,212,71,71,58,14,3,3,58,58,3,3,3,14,58,58,58,58,212,212,212,212,212,212,212,212,212,212,212,212,212,212,212,212,212,212,507,508,478,
244,238,239,351,192,192,192,192,212,212,212,212,212,212,212,212,212,212,212,192,212,212,212,71,71,58,14,75,74,75,74,75,74,58,14,58,58,58,58,212,212,212,212,212,212,212,212,212,212,212,212,212,212,212,212,212,212,507,508,478,
238,238,224,351,192,192,192,212,212,212,212,212,212,212,212,212,212,212,212,192,212,212,71,71,58,58,14,74,105,145,146,106,106,58,14,58,58,58,58,58,75,212,212,212,212,212,212,212,212,212,212,212,212,212,212,212,212,507,508,478,
238,238,224,351,192,192,192,212,212,212,212,212,212,212,212,212,212,212,71,71,212,212,71,71,58,58,14,75,107,146,145,108,74,58,14,58,105,58,58,58,74,212,212,212,212,212,212,212,212,212,212,212,212,212,212,212,212,507,518,478,
224,224,351,351,206,192,192,212,212,212,212,212,212,212,212,212,212,71,71,212,212,71,71,212,58,58,14,74,89,74,106,74,108,58,14,58,58,58,58,58,75,212,212,212,212,212,212,212,212,212,212,212,212,212,212,212,212,507,518,478,
439,440,351,351,206,192,192,212,212,206,14,212,212,212,212,212,212,71,14,212,212,71,71,212,58,58,14,3,3,3,3,3,3,3,14,58,58,58,58,58,212,212,16,212,212,212,212,212,212,212,16,212,212,212,212,212,212,507,518,478,
439,440,200,206,206,206,212,212,206,212,14,212,212,212,212,212,212,212,14,71,212,212,212,212,212,58,58,58,58,58,58,58,58,58,58,212,58,58,58,58,212,212,16,212,212,212,212,212,212,212,16,212,212,212,212,198,507,517,508,478,
439,440,373,367,367,197,212,212,206,212,14,212,212,212,212,212,212,212,14,212,212,212,212,212,212,58,71,71,71,71,71,71,71,71,71,212,212,58,58,212,212,212,16,212,212,212,212,212,212,212,16,198,212,212,212,198,507,527,528,478,
439,440,373,367,367,197,212,199,212,212,14,212,212,212,212,212,212,212,14,212,212,212,212,212,212,212,106,58,58,71,71,71,71,71,71,58,212,212,212,212,212,212,16,212,212,212,212,212,212,212,16,212,212,212,212,212,507,508,508,478,
439,440,373,367,199,199,199,206,212,212,14,212,212,212,212,212,212,212,26,27,27,27,27,27,27,212,74,75,74,75,71,71,71,71,212,212,27,27,27,27,27,27,28,212,212,212,212,212,212,212,16,212,212,212,212,212,507,508,508,478,
439,440,373,373,199,199,199,206,212,212,14,212,212,212,212,212,212,212,212,212,212,212,212,212,212,212,212,212,212,212,212,212,212,212,212,212,212,212,212,212,212,212,212,212,212,212,212,212,212,212,16,212,212,212,198,212,507,508,508,478,
439,440,204,206,199,199,197,212,212,212,14,212,212,212,212,212,212,212,212,212,212,212,212,212,212,212,212,212,212,212,212,212,212,212,212,212,212,212,212,212,212,212,212,212,212,212,212,212,212,212,16,212,212,192,192,507,507,508,508,478,
439,440,204,206,206,206,197,212,206,212,14,212,212,212,212,212,212,212,212,212,212,212,212,212,212,212,212,212,212,212,212,212,212,212,212,212,212,212,212,212,212,212,212,212,212,212,212,212,212,212,16,212,212,192,192,507,517,518,508,478,
439,440,204,206,206,206,206,206,206,206,14,212,212,212,212,212,212,212,212,212,212,212,212,212,212,212,212,212,212,212,212,212,212,212,212,212,212,212,212,212,212,212,212,212,212,212,212,212,212,212,16,212,212,192,192,507,527,508,508,478,
439,440,206,206,206,206,206,206,206,206,212,212,212,212,212,212,212,212,212,212,212,212,212,212,212,212,212,212,212,212,212,212,212,212,212,212,212,212,212,212,212,212,212,212,212,212,212,212,212,212,212,212,212,212,212,507,508,508,478,478,
439,440,206,207,206,207,206,206,206,206,212,212,27,27,27,27,27,27,27,27,27,27,27,27,212,212,212,212,212,212,212,212,212,212,212,212,212,27,27,27,27,27,27,27,27,27,27,27,27,212,212,212,212,212,207,507,508,508,478,478,
439,440,206,207,207,207,206,206,206,212,212,212,212,212,212,212,212,212,212,212,212,212,212,212,212,212,212,212,212,212,212,212,212,212,212,212,212,212,212,212,212,212,212,212,212,198,212,212,27,212,212,212,212,212,207,507,518,518,478,478,
439,440,206,206,207,207,206,206,206,212,212,212,212,212,212,212,212,212,212,212,212,212,212,212,212,212,212,212,207,207,212,212,212,212,212,212,212,212,212,212,212,212,212,212,212,212,212,212,212,212,212,212,212,212,507,507,508,478,478,478,
439,440,226,206,206,206,207,206,206,212,212,212,212,212,212,212,212,212,212,212,212,212,212,212,212,212,212,212,207,207,212,212,212,212,212,212,212,212,212,212,212,212,212,212,212,212,198,212,212,212,212,212,212,212,507,192,508,478,478,478,
449,162,225,226,207,207,207,207,207,207,207,207,212,212,212,212,212,212,212,212,212,212,212,212,212,212,212,212,212,212,207,207,212,212,212,212,212,212,212,212,212,212,212,212,212,212,198,212,198,212,212,212,212,212,507,527,508,478,478,478,
245,172,266,233,219,219,219,219,219,207,207,207,207,207,207,207,207,207,207,207,207,207,207,207,207,212,212,212,207,207,207,207,207,219,219,219,219,219,219,219,219,219,219,219,219,219,219,219,198,198,198,207,207,212,192,508,478,478,478,478,
245,245,172,450,233,233,233,233,233,233,233,233,233,233,219,219,219,219,219,219,219,219,219,219,219,219,219,219,219,219,219,219,219,219,233,233,233,219,219,219,219,219,219,233,233,233,233,233,233,233,233,233,233,233,527,538,478,478,478,478,
245,245,245,460,240,171,171,171,171,171,171,171,171,171,244,244,244,244,171,171,171,171,171,171,171,171,171,171,171,171,171,171,171,171,171,171,171,171,171,171,171,171,171,171,171,171,171,171,171,171,241,171,171,171,537,538,478,478,478,478
</data>
 </layer>
 <objectgroup id="2" name="collisions" visible="0">
  <object id="1" name="wall" x="0" y="0" width="960" height="16"/>
  <object id="2" name="wall" x="0" y="624" width="960" height="16"/>
  <object id="3" name="wall" x="0" y="0" width="16" height="640"/>
  <object id="4" name="wall" x="944" y="0" width="16" height="640"/>
  <object id="5" name="wall" x="197" y="101" width="198" height="6"/>
  <object id="6" name="wall" x="549" y="101" width="230" height="6"/>
  <object id="7" name="wall" x="197" y="517" width="182" height="6"/>
  <object id="8" name="wall" x="597" y="517" width="182" height="6"/>
  <object id="9" name="wall" x="165" y="125" width="6" height="118"/>
  <object id="10" name="wall" x="165" y="357" width="6" height="134"/>
  <object id="11" name="wall" x="805" y="125" width="6" height="118"/>
  <object id="12" name="wall" x="805" y="357" width="6" height="134"/>
  <object id="13" name="wall" x="317" y="197" width="86" height="6"/>
  <object id="14" name="wall" x="533" y="197" width="118" height="6"/>
  <object id="15" name="wall" x="317" y="421" width="70" height="6"/>
  <object id="16" name="wall" x="589" y="421" width="70" height="6"/>
  <object id="17" name="wall" x="293" y="213" width="6" height="54"/>
  <object id="18" name="wall" x="293" y="357" width="6" height="54"/>
  <object id="19" name="wall" x="677" y="213" width="6" height="54"/>
  <object id="20" name="wall" x="677" y="357" width="6" height="54"/>
  <object id="21" name="wall" x="421" y="277" width="38" height="6"/>
  <object id="22" name="wall" x="501" y="277" width="54" height="6"/>
  <object id="23" name="wall" x="445" y="357" width="86" height="6"/>
  <object id="24" name="wall" x="421" y="293" width="6" height="54"/>
  <object id="25" name="wall" x="549" y="293" width="6" height="54"/>
  <object id="26" name="wall" x="125" y="293" width="70" height="6"/>
  <object id="27" name="wall" x="765" y="293" width="70" height="6"/>
  <object id="1000" x="295" y="197" width="3" height="67"/>
  <object id="1001" name="wall" x="288.667" y="193.333" width="15" height="79"/>
  <object id="1002" name="wall" x="289" y="192" width="127.333" height="13.6667"/>
  <object id="1003" name="wall" x="288.333" y="352" width="16" height="79"/>
  <object id="1004" name="wall" x="289" y="417.667" width="111" height="12.6667"/>
  <object id="1005" name="wall" x="577.333" y="417.333" width="110.333" height="14"/>
  <object id="1006" name="wall" x="672.667" y="352.333" width="14.6667" height="79"/>
  <object id="1008" name="wall" x="673" y="193.667" width="14" height="78"/>
  <object id="1009" name="wall" x="526.333" y="192" width="161" height="16"/>
  <object id="1010" x="677.333" y="776"/>
  <object id="1011" name="wall" x="157" y="98" width="16" height="159"/>
 </objectgroup>
 <objectgroup id="5" name="entities">
  <object id="30" name="player_spawn" x="85" y="542" width="14" height="16"/>
  <object id="31" name="server" x="465" y="305" width="30" height="32"/>
  <object id="32" name="server_door" x="464" y="272" width="32" height="8"/>
  <object id="33" name="key" x="228" y="148" width="10" height="12"/>
  <object id="34" name="item_water" x="354" y="450" width="12" height="12"/>
  <object id="35" name="item_meat" x="641" y="449" width="14" height="13"/>
  <object id="1012" x="364" y="460"/>
  <object id="1013" x="717.333" y="92" width="25.3333" height="20"/>
  <object id="1016" name="vending_machine" x="22" y="353" width="54" height="48"/>
  <object id="1017" name="item_coin" x="89" y="100" width="18" height="27"/>
  <object id="1018" name="item_coin" x="94" y="234" width="15" height="20"/>
  <object id="1019" name="item_coin" x="230" y="370" width="19" height="29"/>
  <object id="1020" name="item_beer" x="90" y="436" width="23" height="21"/>
  <object id="1021" name="item_beer" x="260" y="546" width="18" height="19"/>
  <object id="1022" name="item_meat" x="486" y="498" width="26" height="31"/>
  <object id="1023" name="item_meat" x="463" y="66" width="26" height="25"/>
  <object id="1024" name="item_coin" x="336" y="249" width="22" height="21"/>
  <object id="1025" name="item_water" x="227" y="231" width="19" height="20"/>
  <object id="1026" name="item_beer" x="723" y="189" width="24" height="31"/>
  <object id="1027" name="item_coin" x="645" y="567" width="24" height="25"/>
  <object id="1028" name="item_coin" x="850" y="270" width="19" height="30"/>
  <object id="1029" name="item_coin" x="844" y="460" width="12" height="21"/>
  <object id="1030" name="item_beer" x="727" y="367" width="23" height="32"/>
  <object id="1031" name="item_beer" x="852" y="104" width="25" height="28"/>
  <object id="1032" name="item_beer" x="811" y="556" width="21" height="19"/>
  <object id="1033" name="item_beer" x="417" y="538" width="18" height="31"/>
 </objectgroup>
 <objectgroup id="6" name="enemies" visible="0">
  <object id="100" name="guard_start" x="192" y="144" width="12" height="12">
   <properties>
    <property name="id" type="int" value="1"/>
    <property name="viewAngle" type="int" value="60"/>
    <property name="viewRadius" type="int" value="120"/>
   </properties>
  </object>
  <object id="101" name="guard_end" x="384" y="144" width="12" height="12">
   <properties>
    <property name="id" type="int" value="1"/>
    <property name="viewAngle" type="int" value="60"/>
    <property name="viewRadius" type="int" value="120"/>
   </properties>
  </object>
  <object id="102" name="guard_start" x="288" y="144" width="12" height="12">
   <properties>
    <property name="id" type="int" value="2"/>
    <property name="viewAngle" type="int" value="60"/>
    <property name="viewRadius" type="int" value="120"/>
   </properties>
  </object>
  <object id="103" name="guard_end" x="480" y="144" width="12" height="12">
   <properties>
    <property name="id" type="int" value="2"/>
    <property name="viewAngle" type="int" value="60"/>
    <property name="viewRadius" type="int" value="120"/>
   </properties>
  </object>
  <object id="104" name="guard_start" x="384" y="144" width="12" height="12">
   <properties>
    <property name="id" type="int" value="3"/>
    <property name="viewAngle" type="int" value="60"/>
    <property name="viewRadius" type="int" value="120"/>
   </properties>
  </object>
  <object id="105" name="guard_end" x="576" y="144" width="12" height="12">
   <properties>
    <property name="id" type="int" value="3"/>
    <property name="viewAngle" type="int" value="60"/>
    <property name="viewRadius" type="int" value="120"/>
   </properties>
  </object>
  <object id="106" name="guard_start" x="480" y="144" width="12" height="12">
   <properties>
    <property name="id" type="int" value="4"/>
    <property name="viewAngle" type="int" value="60"/>
    <property name="viewRadius" type="int" value="120"/>
   </properties>
  </object>
  <object id="107" name="guard_end" x="672" y="144" width="12" height="12">
   <properties>
    <property name="id" type="int" value="4"/>
    <property name="viewAngle" type="int" value="60"/>
    <property name="viewRadius" type="int" value="120"/>
   </properties>
  </object>
  <object id="108" name="guard_start" x="576" y="144" width="12" height="12">
   <properties>
    <property name="id" type="int" value="5"/>
    <property name="viewAngle" type="int" value="60"/>
    <property name="viewRadius" type="int" value="120"/>
   </properties>
  </object>
  <object id="109" name="guard_end" x="768" y="144" width="12" height="12">
   <properties>
    <property name="id" type="int" value="5"/>
    <property name="viewAngle" type="int" value="60"/>
    <property name="viewRadius" type="int" value="120"/>
   </properties>
  </object>
  <object id="110" name="guard_start" x="388" y="240.667" width="12" height="12">
   <properties>
    <property name="id" type="int" value="6"/>
    <property name="viewAngle" type="int" value="60"/>
    <property name="viewRadius" type="int" value="120"/>
   </properties>
  </object>
  <object id="111" name="guard_end" x="577.5" y="240.5" width="12" height="12">
   <properties>
    <property name="id" type="int" value="6"/>
    <property name="viewAngle" type="int" value="60"/>
    <property name="viewRadius" type="int" value="120"/>
   </properties>
  </object>
  <object id="112" name="guard_start" x="610" y="466" width="12" height="12">
   <properties>
    <property name="id" type="int" value="7"/>
    <property name="viewAngle" type="int" value="60"/>
    <property name="viewRadius" type="int" value="120"/>
   </properties>
  </object>
  <object id="113" name="guard_end" x="770" y="466" width="12" height="12">
   <properties>
    <property name="id" type="int" value="7"/>
    <property name="viewAngle" type="int" value="60"/>
    <property name="viewRadius" type="int" value="120"/>
   </properties>
  </object>
  <object id="114" name="guard_start" x="256" y="304" width="12" height="12">
   <properties>
    <property name="id" type="int" value="8"/>
    <property name="viewAngle" type="int" value="60"/>
    <property name="viewRadius" type="int" value="120"/>
   </properties>
  </object>
  <object id="115" name="guard_end" x="384" y="304" width="12" height="12">
   <properties>
    <property name="id" type="int" value="8"/>
    <property name="viewAngle" type="int" value="60"/>
    <property name="viewRadius" type="int" value="120"/>
   </properties>
  </object>
  <object id="116" name="guard_start" x="576" y="304" width="12" height="12">
   <properties>
    <property name="id" type="int" value="9"/>
    <property name="viewAngle" type="int" value="60"/>
    <property name="viewRadius" type="int" value="120"/>
   </properties>
  </object>
  <object id="117" name="guard_end" x="704" y="304" width="12" height="12">
   <properties>
    <property name="id" type="int" value="9"/>
    <property name="viewAngle" type="int" value="60"/>
    <property name="viewRadius" type="int" value="120"/>
   </properties>
  </object>
 </objectgroup>
</map>
