<?xml version="1.0" encoding="UTF-8"?>
<map version="1.10" tiledversion="1.12.2" orientation="orthogonal" renderorder="right-down" width="60" height="40" tilewidth="16" tileheight="16" infinite="0" nextlayerid="7" nextobjectid="1005">
 <tileset firstgid="1" source="tilesetAD/map1/Set 1.0.tsx"/>
 <tileset firstgid="49" source="tilesetAD/map1/Set 1.2.tsx"/>
 <tileset firstgid="145" source="tilesetAD/map1/Structure.tsx"/>
 <layer id="1" name="Tile Layer 1" width="60" height="40">
  <data encoding="csv">
2,3,3,3,3,3,3,3,3,3,3,3,3,3,3,3,3,3,3,3,3,3,3,3,3,3,3,3,3,3,3,3,3,3,3,3,3,3,3,3,3,3,3,3,3,3,3,3,3,3,3,3,3,3,3,3,3,3,3,4,
14,91,90,91,90,91,90,91,90,91,90,91,90,91,90,91,90,91,90,91,90,91,90,91,90,91,90,91,90,91,90,91,90,91,90,91,90,91,90,91,90,91,90,91,90,91,90,91,90,91,90,91,90,91,90,91,90,91,90,14,
14,75,74,75,74,75,74,75,74,75,74,75,74,75,74,75,74,75,74,75,74,75,74,75,74,75,74,75,74,75,74,75,74,75,74,75,74,75,74,75,74,75,74,75,74,75,74,75,74,75,74,75,74,75,74,75,74,75,74,14,
14,91,90,91,90,91,90,91,90,91,90,91,90,91,90,91,90,91,90,91,90,91,90,91,90,91,90,91,90,91,14,91,90,91,90,91,90,91,90,91,90,91,90,91,90,91,90,91,90,91,90,91,90,91,90,91,90,91,90,14,
14,75,74,75,74,75,74,75,74,75,74,75,74,75,74,75,74,75,74,75,74,75,74,75,74,75,74,75,74,75,14,75,74,75,74,75,74,75,74,75,74,75,74,75,74,75,74,75,74,75,74,75,74,75,74,75,74,75,74,14,
14,91,90,91,90,91,90,91,90,91,90,91,90,91,14,91,90,91,90,91,90,91,90,91,90,91,90,91,90,91,14,91,90,91,90,91,90,91,90,91,90,91,90,91,90,91,90,91,90,91,90,91,90,91,90,91,90,91,90,14,
14,75,74,75,74,75,74,75,74,75,74,75,74,75,14,75,74,75,74,75,74,75,74,75,74,75,74,75,74,75,14,75,74,75,74,75,89,75,74,75,74,75,74,75,74,14,74,75,74,75,74,75,74,75,74,75,74,75,74,14,
14,91,90,91,90,91,90,91,90,91,90,91,90,91,14,91,90,91,90,91,90,91,90,91,90,91,90,91,90,91,14,91,90,91,90,91,90,91,90,91,90,91,90,91,90,14,90,91,90,91,90,91,90,91,90,91,90,91,90,14,
14,75,74,73,74,75,74,75,74,75,74,75,74,75,14,75,74,75,74,75,74,75,74,75,74,75,74,75,74,75,14,75,74,75,74,75,74,75,74,75,74,75,74,75,74,14,74,75,74,75,74,75,74,75,74,75,74,75,74,14,
14,91,90,91,90,91,90,91,90,91,90,91,90,91,14,91,90,91,90,91,90,91,90,91,90,91,90,91,90,91,14,91,90,91,90,91,90,91,90,91,90,91,90,91,90,14,90,91,90,91,90,91,90,91,90,91,90,91,90,14,
14,75,74,75,74,75,74,75,3,3,3,3,3,3,3,3,3,3,3,3,3,3,3,75,74,75,74,3,3,3,3,3,3,3,3,3,3,3,3,3,3,3,3,75,74,14,74,3,3,3,3,3,3,3,3,3,74,75,74,14,
14,91,90,91,90,91,90,91,90,91,90,91,90,91,14,91,90,91,90,91,90,91,90,91,90,91,90,91,90,91,14,91,90,91,90,91,90,91,90,91,90,91,90,91,90,14,90,91,90,91,90,91,90,91,90,91,90,91,90,14,
14,75,74,75,74,75,74,75,74,75,73,75,74,75,14,75,74,75,74,75,74,75,74,75,74,75,74,75,74,75,14,75,74,75,74,75,89,75,74,75,74,75,74,75,74,14,74,75,74,75,74,75,74,75,74,75,74,75,74,14,
14,91,90,91,90,91,90,91,90,91,90,91,90,91,14,91,90,91,90,91,90,91,90,91,90,91,90,91,90,91,14,91,90,91,90,91,90,91,90,91,90,73,90,91,90,14,90,91,90,91,90,91,90,91,90,91,90,91,90,14,
14,75,74,75,74,75,74,75,74,75,74,75,74,89,14,75,74,75,74,75,74,75,74,75,74,75,74,75,74,75,14,75,74,75,74,75,74,75,74,75,74,75,74,75,74,14,74,75,74,75,74,75,74,75,74,75,74,75,74,14,
14,91,90,91,90,91,90,91,90,91,90,91,90,91,14,91,90,91,90,91,90,91,90,91,90,91,90,89,90,91,14,91,90,91,90,91,90,91,90,91,90,91,90,91,90,91,90,91,90,91,90,91,90,91,90,91,105,91,90,14,
14,75,74,75,74,75,74,75,74,75,74,75,74,75,14,75,74,75,74,75,74,75,74,75,74,75,105,75,74,75,14,75,74,75,74,105,74,75,74,75,74,75,74,75,74,75,74,75,74,75,74,75,74,75,74,75,74,75,74,14,
14,91,90,91,90,91,90,91,90,91,90,91,90,91,14,3,3,3,3,3,3,3,3,3,3,3,3,3,3,3,14,91,90,91,3,3,3,3,3,3,3,3,3,3,3,4,90,91,90,91,90,91,90,91,90,91,90,91,90,14,
14,75,74,75,74,75,74,75,74,75,74,75,74,75,14,75,74,75,74,75,74,75,74,75,74,75,74,75,74,73,14,75,74,75,74,75,74,75,74,75,74,75,74,75,74,16,74,75,74,75,74,75,74,75,74,75,74,75,74,14,
14,91,90,91,90,91,90,91,90,91,90,91,90,91,14,91,90,91,90,91,90,91,90,91,90,91,90,105,90,91,14,91,90,91,90,91,90,91,90,91,90,91,90,91,90,16,90,91,90,91,90,91,90,91,90,91,90,91,90,14,
14,75,74,75,74,75,74,75,74,75,74,75,74,75,14,75,74,75,74,75,74,75,74,75,74,75,74,75,74,75,14,75,74,75,74,75,74,75,74,75,74,75,74,75,74,16,74,75,74,75,74,75,74,75,74,75,74,75,74,14,
14,91,90,91,90,91,90,91,90,91,90,91,90,91,14,91,90,91,90,91,90,91,90,91,90,91,90,91,90,91,14,91,90,91,90,91,90,91,90,91,90,91,90,89,90,16,90,91,90,91,90,91,90,91,90,91,90,91,90,14,
14,75,74,75,74,75,74,75,74,75,74,75,74,75,14,75,74,75,74,75,74,75,74,75,74,75,74,75,74,75,14,75,74,75,74,75,74,75,74,75,74,75,74,75,74,16,74,75,74,75,74,75,74,75,74,75,74,75,74,14,
14,91,90,91,90,91,90,91,90,91,90,91,90,91,14,91,105,91,90,91,90,91,90,91,90,91,90,91,90,91,14,91,90,91,90,91,90,91,90,91,90,91,90,91,90,16,90,91,90,91,90,91,90,91,90,91,90,91,90,14,
14,75,74,75,74,75,74,75,74,75,74,75,74,75,14,75,74,75,74,75,74,75,74,75,74,75,74,75,74,75,14,75,74,75,74,75,74,75,74,75,74,75,74,75,74,16,74,75,74,75,74,75,74,75,74,75,74,75,74,14,
14,91,90,91,90,3,3,3,3,3,3,3,3,3,3,3,3,3,3,91,90,91,90,3,3,3,3,3,3,3,3,3,3,3,3,3,3,3,90,91,90,91,3,3,3,16,3,3,3,3,3,3,3,3,3,3,3,91,90,14,
14,75,74,75,74,75,74,75,14,75,74,75,74,75,74,75,74,75,74,75,74,75,74,75,74,14,74,75,74,75,74,75,74,75,74,75,74,75,74,75,74,75,74,75,74,16,74,75,74,75,74,75,74,75,74,75,74,75,74,14,
14,91,90,91,90,91,90,91,14,91,90,91,90,91,105,91,90,91,90,91,90,91,90,91,90,14,90,91,90,91,90,91,90,91,90,91,90,91,90,91,90,91,90,91,90,16,90,91,90,91,90,91,90,91,90,91,90,91,90,14,
14,75,74,75,74,75,74,75,14,75,74,75,74,75,74,75,74,75,74,75,74,75,74,75,74,14,74,75,74,75,74,75,74,75,74,75,74,75,74,75,74,75,74,75,74,16,74,75,74,75,74,75,74,75,74,75,105,75,74,14,
14,91,90,91,90,91,90,91,14,91,90,91,90,91,90,91,90,91,90,91,90,91,90,91,90,14,90,91,90,91,90,91,90,91,90,91,90,91,90,91,90,91,90,91,90,16,90,91,90,91,90,91,90,91,90,91,90,91,90,14,
14,75,74,75,74,75,74,75,14,75,74,75,74,75,74,75,74,75,74,75,74,75,74,75,74,14,74,75,74,75,74,75,74,75,74,75,74,75,74,75,74,75,74,75,74,16,74,75,74,75,74,75,74,75,74,75,74,75,74,14,
14,91,90,91,90,91,90,91,14,91,90,91,90,91,90,91,90,91,90,91,90,91,90,91,90,14,90,91,90,91,90,91,90,91,90,91,90,91,90,91,90,91,90,91,90,16,90,91,90,91,90,91,90,91,90,91,90,91,90,14,
14,75,74,75,74,75,74,75,14,75,74,75,74,75,74,75,74,75,74,75,74,75,74,75,74,14,74,75,74,75,74,75,74,75,74,75,74,75,74,75,74,75,74,75,74,75,74,75,74,75,74,75,2,3,105,75,74,3,3,14,
14,91,90,91,90,91,90,91,3,3,3,3,3,3,3,3,3,3,3,3,3,3,90,91,23,26,27,27,27,27,27,27,27,27,27,27,27,27,27,27,27,27,23,23,90,91,90,91,90,91,90,91,14,91,90,91,90,91,90,14,
14,75,74,75,74,75,74,75,14,75,74,75,74,75,74,75,74,75,74,75,74,75,74,75,74,75,74,75,74,75,74,75,74,75,74,75,74,75,74,75,74,75,74,75,74,75,74,75,74,75,74,75,14,75,74,75,74,75,74,14,
14,91,90,91,90,91,90,91,14,91,90,91,90,91,90,91,90,91,90,91,90,91,90,91,90,91,90,91,90,91,90,91,90,91,90,91,90,91,90,91,90,91,90,91,90,91,90,91,90,91,90,91,14,91,90,91,90,91,90,14,
14,75,74,75,74,75,74,75,14,75,74,75,74,75,74,75,74,105,74,75,74,75,74,75,74,75,74,75,74,75,74,75,74,75,74,75,74,75,74,75,74,75,74,75,74,75,74,75,74,75,74,75,14,75,74,75,74,75,74,14,
14,91,90,91,90,91,90,91,90,91,90,91,90,91,90,91,90,91,90,91,90,91,90,91,90,91,90,91,90,91,90,91,90,91,90,91,90,91,90,91,90,91,90,91,90,91,90,91,90,91,90,91,14,91,90,91,90,91,90,14,
14,75,74,75,74,75,74,75,74,75,74,75,74,75,74,75,74,75,74,75,74,75,74,75,74,75,74,75,74,75,74,75,74,75,74,75,74,75,74,75,74,75,74,75,74,75,74,75,74,75,74,75,14,75,74,75,74,75,74,14,
3,3,3,3,3,3,3,3,3,3,3,3,3,3,3,3,3,3,3,3,3,3,3,3,3,3,3,3,3,3,3,3,3,3,3,3,3,3,3,3,3,3,3,3,3,3,3,3,3,3,3,3,3,3,3,3,3,3,3,3
</data>
 </layer>
 <objectgroup id="2" name="collisions">
  <object id="1" name="wall" x="0" y="0" width="960" height="16"/>
  <object id="2" name="wall" x="0" y="624" width="960" height="16"/>
  <object id="3" name="wall" x="0" y="0" width="16" height="640"/>
  <object id="4" name="wall" x="944" y="0" width="16" height="640"/>
  <object id="5" name="wall" x="127" y="159.5" width="242" height="15.5"/>
  <object id="6" name="wall" x="434" y="161" width="253.5" height="13"/>
  <object id="7" name="wall" x="752" y="161" width="144" height="15"/>
  <object id="8" name="wall" x="80.5" y="400" width="223" height="16"/>
  <object id="9" name="wall" x="368" y="400" width="242" height="15"/>
  <object id="10" name="wall" x="674.333" y="401" width="230" height="14"/>
  <object id="11" name="wall" x="223.5" y="81" width="11.5" height="82"/>
  <object id="12" name="wall" x="225.5" y="171" width="9.5" height="230"/>
  <object id="13" name="wall" x="480" y="47.5" width="11" height="112"/>
  <object id="14" name="wall" x="482.5" y="169" width="8.5" height="235"/>
  <object id="15" name="wall" x="721" y="97" width="14.5" height="143.5"/>
  <object id="16" name="wall" x="724" y="273.5" width="11.5" height="239"/>
  <object id="17" name="wall" x="232" y="272.5" width="248.5" height="11.5"/>
  <object id="18" name="wall" x="543.5" y="272" width="191" height="13.5"/>
  <object id="19" name="wall" x="129.5" y="411" width="15" height="181.5"/>
  <object id="20" name="wall" x="127.5" y="529" width="222" height="14"/>
  <object id="21" name="wall" x="402.5" y="529" width="270" height="15"/>
  <object id="22" name="wall" x="401.5" y="404" width="12" height="121.5"/>
  <object id="1001" name="wall" x="832.667" y="508" width="17.3333" height="120.667"/>
  <object id="1002" name="wall" x="911.333" y="514.667" width="40.6667" height="12"/>
  <object id="1004" name="wall" x="838" y="512" width="26.6667" height="12"/>
 </objectgroup>
 <objectgroup id="5" name="entities">
  <object id="23" name="player_spawn" x="34" y="594" width="14" height="16"/>
  <object id="24" name="key" x="818" y="98" width="10" height="12"/>
  <object id="25" name="server" x="870" y="559.333" width="30" height="32"/>
  <object id="26" name="server_door" x="864.667" y="518" width="48" height="8"/>
  <object id="27" name="item_water" x="338" y="226" width="12" height="12"/>
  <object id="28" name="item_meat" x="562" y="450" width="14" height="13"/>
 </objectgroup>
 <objectgroup id="6" name="enemies">
  <object id="100" name="guard_start" x="64" y="80" width="12" height="12">
   <properties>
    <property name="id" type="int" value="1"/>
    <property name="viewAngle" type="int" value="60"/>
    <property name="viewRadius" type="int" value="120"/>
   </properties>
  </object>
  <object id="101" name="guard_end" x="192" y="80" width="12" height="12">
   <properties>
    <property name="id" type="int" value="1"/>
    <property name="viewAngle" type="int" value="60"/>
    <property name="viewRadius" type="int" value="120"/>
   </properties>
  </object>
  <object id="102" name="guard_start" x="256" y="80" width="12" height="12">
   <properties>
    <property name="id" type="int" value="2"/>
    <property name="viewAngle" type="int" value="60"/>
    <property name="viewRadius" type="int" value="120"/>
   </properties>
  </object>
  <object id="103" name="guard_end" x="448" y="80" width="12" height="12">
   <properties>
    <property name="id" type="int" value="2"/>
    <property name="viewAngle" type="int" value="60"/>
    <property name="viewRadius" type="int" value="120"/>
   </properties>
  </object>
  <object id="104" name="guard_start" x="512" y="80" width="12" height="12">
   <properties>
    <property name="id" type="int" value="3"/>
    <property name="viewAngle" type="int" value="60"/>
    <property name="viewRadius" type="int" value="120"/>
   </properties>
  </object>
  <object id="105" name="guard_end" x="672" y="80" width="12" height="12">
   <properties>
    <property name="id" type="int" value="3"/>
    <property name="viewAngle" type="int" value="60"/>
    <property name="viewRadius" type="int" value="120"/>
   </properties>
  </object>
  <object id="106" name="guard_start" x="768" y="80" width="12" height="12">
   <properties>
    <property name="id" type="int" value="4"/>
    <property name="viewAngle" type="int" value="60"/>
    <property name="viewRadius" type="int" value="120"/>
   </properties>
  </object>
  <object id="107" name="guard_end" x="896" y="80" width="12" height="12">
   <properties>
    <property name="id" type="int" value="4"/>
    <property name="viewAngle" type="int" value="60"/>
    <property name="viewRadius" type="int" value="120"/>
   </properties>
  </object>
  <object id="108" name="guard_start" x="64" y="208" width="12" height="12">
   <properties>
    <property name="id" type="int" value="5"/>
    <property name="viewAngle" type="int" value="60"/>
    <property name="viewRadius" type="int" value="120"/>
   </properties>
  </object>
  <object id="109" name="guard_end" x="192" y="208" width="12" height="12">
   <properties>
    <property name="id" type="int" value="5"/>
    <property name="viewAngle" type="int" value="60"/>
    <property name="viewRadius" type="int" value="120"/>
   </properties>
  </object>
  <object id="110" name="guard_start" x="256" y="208" width="12" height="12">
   <properties>
    <property name="id" type="int" value="6"/>
    <property name="viewAngle" type="int" value="60"/>
    <property name="viewRadius" type="int" value="120"/>
   </properties>
  </object>
  <object id="111" name="guard_end" x="448" y="208" width="12" height="12">
   <properties>
    <property name="id" type="int" value="6"/>
    <property name="viewAngle" type="int" value="60"/>
    <property name="viewRadius" type="int" value="120"/>
   </properties>
  </object>
  <object id="112" name="guard_start" x="512" y="208" width="12" height="12">
   <properties>
    <property name="id" type="int" value="7"/>
    <property name="viewAngle" type="int" value="60"/>
    <property name="viewRadius" type="int" value="120"/>
   </properties>
  </object>
  <object id="113" name="guard_end" x="672" y="208" width="12" height="12">
   <properties>
    <property name="id" type="int" value="7"/>
    <property name="viewAngle" type="int" value="60"/>
    <property name="viewRadius" type="int" value="120"/>
   </properties>
  </object>
  <object id="114" name="guard_start" x="768" y="208" width="12" height="12">
   <properties>
    <property name="id" type="int" value="8"/>
    <property name="viewAngle" type="int" value="60"/>
    <property name="viewRadius" type="int" value="120"/>
   </properties>
  </object>
  <object id="115" name="guard_end" x="896" y="208" width="12" height="12">
   <properties>
    <property name="id" type="int" value="8"/>
    <property name="viewAngle" type="int" value="60"/>
    <property name="viewRadius" type="int" value="120"/>
   </properties>
  </object>
 </objectgroup>
</map>
