<?xml version="1.0" encoding="UTF-8"?>
<map version="1.10" tiledversion="1.12.2" orientation="orthogonal" renderorder="right-down" width="60" height="40" tilewidth="16" tileheight="16" infinite="0" nextlayerid="7" nextobjectid="1002">
 <tileset firstgid="1" source="tilesetAD/map1/Set 1.2.tsx"/>
 <tileset firstgid="97" source="tilesetAD/map1/Structure.tsx"/>
 <tileset firstgid="99" source="tilesetAD/map1/Set 1.0.tsx"/>
 <layer id="1" name="Tile Layer 1" width="60" height="40">
  <data encoding="csv">
100,101,101,101,101,101,101,101,101,101,101,101,101,101,101,101,101,101,101,101,101,101,101,101,101,101,101,101,101,101,101,101,101,101,101,101,101,101,101,101,101,101,101,101,101,101,101,101,101,101,101,101,101,101,101,101,101,101,101,102,
112,43,42,43,42,43,42,43,42,43,42,43,42,43,42,43,42,43,42,43,42,43,42,43,42,43,42,43,42,43,42,43,42,43,42,43,42,43,42,43,42,43,42,43,42,43,42,43,42,43,42,43,42,43,42,43,42,43,42,114,
112,27,26,27,26,27,26,27,26,27,26,27,26,27,26,27,26,27,26,27,26,27,26,27,26,27,26,27,26,27,26,27,26,27,26,27,26,27,26,27,26,27,26,27,26,27,26,27,26,27,26,27,26,27,26,27,26,27,26,114,
112,43,42,43,42,43,42,43,42,43,42,43,42,43,42,43,42,43,42,43,42,43,42,43,42,43,42,14,42,43,42,43,42,43,42,43,42,43,42,43,57,43,42,43,42,43,42,43,42,43,42,43,42,43,42,43,42,43,42,114,
112,27,26,27,26,27,26,27,26,27,26,27,26,27,26,27,26,27,26,27,26,27,26,27,26,27,26,14,26,27,26,27,26,27,26,27,26,27,26,27,26,27,26,27,26,27,26,27,26,27,26,27,26,27,26,27,26,27,26,114,
112,43,42,43,42,43,42,43,42,43,42,43,42,43,42,43,42,43,42,43,42,43,42,43,42,43,42,112,42,43,42,43,42,43,42,43,42,43,42,43,42,43,42,43,42,57,42,43,42,43,42,43,42,43,42,43,42,43,42,114,
112,27,26,27,26,27,26,27,26,27,26,27,26,27,26,27,26,27,26,27,26,27,26,27,26,27,26,112,26,27,26,27,26,27,26,27,26,27,26,27,26,27,26,27,26,27,26,27,26,27,26,27,26,27,26,27,26,27,26,114,
112,43,42,43,42,43,100,101,101,101,101,101,101,101,101,101,101,101,101,101,101,101,101,101,42,43,42,112,42,43,42,43,42,43,42,100,101,101,101,101,101,101,101,101,101,101,101,101,101,101,101,101,102,43,42,43,42,43,42,114,
112,27,26,27,26,27,112,27,26,27,26,27,26,27,26,27,26,27,26,27,26,27,26,27,26,27,26,112,26,27,26,27,26,27,26,112,26,27,26,27,26,27,26,27,26,27,26,27,26,27,26,27,114,27,26,27,26,27,26,114,
112,43,42,43,42,43,112,43,42,43,42,43,42,43,42,43,42,43,42,43,42,43,42,43,42,43,42,112,42,43,42,43,42,43,42,112,42,43,42,43,42,43,42,43,42,43,42,43,42,43,42,43,114,43,42,43,42,43,42,114,
112,27,26,27,26,27,112,27,26,27,26,27,26,27,26,27,26,27,26,27,26,27,26,27,26,27,26,112,26,27,26,27,26,27,26,112,26,27,26,27,26,27,26,27,26,27,26,27,26,27,26,27,114,27,26,57,26,27,26,114,
112,43,42,43,42,43,112,43,42,43,42,43,42,43,42,43,42,43,42,43,42,43,42,43,42,43,42,112,42,43,42,43,42,43,42,112,42,43,42,43,42,43,42,43,42,43,42,43,42,43,42,43,114,43,42,43,42,43,42,114,
112,27,26,27,26,27,112,27,26,27,26,27,26,41,26,27,26,27,26,27,26,27,26,27,26,27,26,112,26,27,26,27,26,27,26,112,26,27,26,27,26,27,26,27,26,27,26,27,26,27,26,27,114,27,26,27,26,27,26,114,
112,43,42,43,42,43,112,43,42,43,42,43,42,43,42,43,42,43,42,43,42,43,42,43,42,43,42,14,42,43,42,43,42,43,25,112,42,43,42,43,42,43,42,43,42,43,42,43,42,43,42,43,114,43,42,43,42,43,42,114,
112,27,26,27,26,27,112,27,26,27,26,27,26,27,26,27,26,27,26,27,26,27,26,27,26,27,26,14,26,27,26,27,26,27,26,112,26,27,26,27,26,27,26,27,26,27,26,27,26,27,26,27,114,27,26,27,26,27,26,114,
112,43,42,43,42,43,112,43,42,43,101,101,101,101,101,101,101,101,102,43,42,43,42,43,42,43,101,101,101,101,101,101,101,101,101,112,42,43,42,43,42,43,125,125,125,125,125,125,125,125,125,125,126,121,121,121,42,43,42,114,
112,27,26,27,26,27,112,27,26,27,26,27,26,27,26,27,26,27,114,27,26,57,26,27,26,27,26,27,26,27,26,27,26,27,26,112,26,27,26,27,26,27,26,14,26,27,26,27,26,27,26,27,26,27,26,27,26,27,26,114,
112,43,42,43,42,43,112,43,42,43,42,43,42,43,42,43,42,43,114,43,42,43,42,43,42,43,42,43,42,43,42,43,42,43,42,112,42,43,42,43,42,43,42,14,42,43,42,43,42,43,42,43,42,43,42,43,42,43,42,114,
112,27,26,27,26,27,112,27,26,27,26,27,26,27,26,27,26,27,114,27,26,27,26,27,26,27,26,27,26,27,26,27,26,27,26,112,26,27,26,27,26,27,26,14,26,27,26,27,26,27,26,27,26,27,26,27,26,27,26,114,
112,43,42,43,42,43,112,43,42,43,42,43,42,43,42,43,42,43,114,43,42,43,42,43,42,43,42,43,42,43,105,105,105,105,105,105,105,105,105,105,105,105,105,105,42,43,42,43,42,43,42,43,42,43,42,43,42,43,42,114,
112,27,26,27,26,27,14,27,26,27,26,27,26,27,26,27,26,27,114,27,26,27,26,27,26,27,26,27,26,27,14,27,26,27,26,14,26,27,26,27,26,27,26,112,26,27,26,27,26,27,26,27,26,27,26,27,57,27,26,114,
112,43,42,43,42,43,14,43,42,43,42,43,42,43,42,43,42,43,114,43,42,43,42,43,42,43,42,43,42,43,14,43,42,43,42,14,42,43,42,43,42,43,42,112,42,43,42,43,42,43,42,43,42,43,42,43,42,43,42,114,
112,27,26,25,26,27,14,27,26,27,26,27,26,27,26,27,26,27,114,27,26,27,26,27,26,121,121,121,121,121,121,121,121,121,121,14,26,27,26,27,26,27,26,112,26,27,26,27,26,27,26,27,26,27,26,27,26,27,26,114,
112,43,42,43,125,125,125,125,125,125,125,125,125,125,125,125,42,43,114,43,42,43,121,121,121,121,3,121,121,121,121,121,121,121,121,121,121,121,121,121,121,43,42,101,101,101,101,101,101,101,101,101,101,101,101,101,101,101,101,114,
112,27,26,27,26,27,26,27,26,27,26,27,26,27,26,27,26,27,114,27,26,27,26,27,26,27,26,14,26,27,14,27,26,27,121,121,121,121,26,27,26,27,26,14,26,27,26,27,26,27,26,27,14,27,26,27,26,27,26,114,
112,43,42,43,42,43,42,43,42,43,42,43,42,43,42,43,42,43,114,43,42,43,42,43,42,43,42,14,42,43,14,43,42,43,42,43,42,43,42,43,57,43,42,14,42,43,42,43,42,43,42,43,14,43,42,43,42,43,42,114,
112,27,26,27,26,27,26,27,26,27,26,27,26,27,26,27,26,27,114,27,26,27,26,27,26,27,26,14,26,27,14,27,26,27,26,27,26,27,26,27,26,27,26,14,57,27,26,27,26,27,26,27,121,27,26,27,26,27,26,114,
112,43,42,43,42,43,42,43,42,43,42,43,42,43,42,43,42,43,114,43,42,43,42,43,42,43,42,14,42,43,14,43,42,43,42,57,42,43,42,43,42,43,42,14,42,43,42,43,42,43,42,43,121,43,42,43,42,43,42,114,
112,27,26,27,26,27,26,27,26,27,26,27,14,27,26,27,26,27,114,27,26,27,26,27,26,27,26,14,26,27,14,27,26,27,26,27,26,27,26,27,26,27,26,14,26,27,26,27,26,27,26,27,112,27,26,27,26,27,26,114,
112,43,42,43,42,43,42,43,42,43,42,43,112,43,42,43,42,43,114,43,42,43,42,43,42,43,42,14,42,43,14,43,42,43,42,43,42,43,42,25,42,43,42,14,42,43,42,43,42,43,42,43,112,43,42,43,42,43,42,114,
112,27,26,27,26,27,26,27,26,27,26,27,112,27,26,27,26,27,114,27,26,27,26,57,26,27,26,14,26,27,26,27,26,27,26,27,26,27,26,27,26,27,26,14,26,27,26,27,26,27,26,27,112,27,26,27,26,27,26,114,
112,43,42,43,42,43,42,43,42,43,42,43,112,43,42,43,42,43,114,43,42,43,42,43,42,43,42,14,42,43,42,43,42,43,42,43,42,43,42,43,42,43,42,14,42,43,42,43,42,43,42,43,112,43,42,43,42,43,42,114,
112,27,26,27,26,27,26,125,125,125,125,125,125,125,125,125,125,125,125,125,125,125,125,125,125,125,125,125,26,27,26,27,26,27,26,125,125,125,125,125,125,125,125,125,125,125,125,125,125,125,125,125,112,27,26,27,26,27,26,114,
112,43,42,43,42,43,42,43,42,43,42,43,112,43,42,43,42,43,42,43,42,43,42,43,42,43,42,43,42,43,42,43,42,43,42,43,42,43,42,43,42,43,42,43,42,43,42,43,42,43,42,43,112,43,42,43,42,43,42,114,
112,27,26,27,26,27,26,27,26,27,26,27,112,27,26,27,26,27,26,27,26,27,26,27,26,27,26,27,26,27,26,27,26,27,26,27,26,27,26,27,26,27,26,27,26,27,26,27,26,27,26,27,112,27,26,27,26,27,26,114,
112,43,42,43,42,43,42,43,42,43,42,43,112,43,42,43,42,43,42,43,42,43,42,43,42,43,42,43,42,43,42,43,42,43,42,43,42,43,42,43,42,43,42,43,42,43,42,43,42,43,42,43,112,43,42,43,42,43,42,114,
112,27,26,27,26,27,26,27,26,27,26,27,14,27,26,27,26,27,26,27,26,27,26,27,26,27,26,27,26,27,26,27,26,27,41,27,26,27,26,27,26,27,26,27,26,27,26,27,26,27,26,27,112,27,26,27,26,27,26,114,
112,43,42,43,42,43,42,43,42,43,42,43,14,43,42,43,42,43,42,43,42,43,42,43,42,43,42,43,42,43,42,43,42,43,42,43,42,43,42,43,42,43,42,43,42,43,42,43,42,43,42,43,112,43,42,43,42,43,42,114,
112,27,26,27,26,27,26,27,26,27,26,27,26,27,26,27,26,27,26,27,26,27,26,27,26,27,26,27,26,27,26,27,26,27,26,27,26,27,26,27,26,27,26,27,26,27,26,27,26,27,26,27,112,27,26,27,26,27,26,114,
124,125,125,125,125,125,125,125,125,125,125,125,125,125,125,125,125,125,125,125,125,125,125,125,125,125,125,125,125,125,125,125,125,125,125,125,125,125,125,125,125,125,125,125,125,125,125,125,125,125,125,125,125,125,125,125,125,125,125,126
</data>
 </layer>
 <objectgroup id="2" name="collisions">
  <object id="1" name="wall" x="0" y="0" width="960" height="16"/>
  <object id="2" name="wall" x="0" y="624" width="960" height="16"/>
  <object id="3" name="wall" x="0" y="0" width="16" height="640"/>
  <object id="4" name="wall" x="944" y="0" width="16" height="640"/>
  <object id="5" name="wall" x="107" y="112.333" width="272" height="7.33333"/>
  <object id="6" name="wall" x="561.667" y="113" width="286" height="15.3333"/>
  <object id="7" name="wall" x="161.667" y="239" width="144" height="17.3333"/>
  <object id="8" name="wall" x="417.667" y="239" width="142" height="17.3333"/>
  <object id="9" name="wall" x="674.333" y="239" width="175.333" height="14.6667"/>
  <object id="10" name="wall" x="63.6667" y="367.667" width="196.667" height="16"/>
  <object id="12" name="wall" x="690.333" y="369.667" width="256" height="14"/>
  <object id="13" name="wall" x="113.667" y="515" width="334" height="11.3333"/>
  <object id="14" name="wall" x="559.667" y="513" width="272" height="13.3333"/>
  <object id="15" name="wall" x="98.3333" y="111" width="10.6667" height="209.333"/>
  <object id="16" name="wall" x="289.667" y="242.333" width="15.3333" height="277.333"/>
  <object id="17" name="wall" x="437" y="85" width="6" height="118"/>
  <object id="19" name="wall" x="561.667" y="115" width="14" height="206.667"/>
  <object id="21" name="wall" x="835" y="115" width="13.3333" height="130.667"/>
  <object id="22" name="wall" x="834.333" y="448.333" width="14.6667" height="182"/>
  <object id="25" name="wall" x="193.667" y="463.667" width="13.3333" height="114.667"/>
  <object id="1000" name="wall" x="481.333" y="304.667" width="222" height="14.6667"/>
  <object id="1001" name="wall" x="688.667" y="315.333" width="16.6667" height="68"/>
 </objectgroup>
 <objectgroup id="5" name="entities">
  <object id="26" name="player_spawn" x="34" y="594" width="14" height="16"/>
  <object id="27" name="key" x="802" y="66" width="10" height="12"/>
  <object id="28" name="server" x="752.167" y="174.333" width="30" height="32"/>
  <object id="29" name="server_door" x="690.333" y="253.833" width="12.6667" height="48.6667"/>
  <object id="30" name="item_water" x="146" y="162" width="12" height="12"/>
  <object id="31" name="item_meat" x="890.667" y="574" width="14" height="13"/>
 </objectgroup>
 <objectgroup id="6" name="enemies">
  <object id="100" name="guard_start" x="64" y="80" width="12" height="12">
   <properties>
    <property name="id" type="int" value="1"/>
    <property name="viewAngle" type="int" value="60"/>
    <property name="viewRadius" type="int" value="120"/>
   </properties>
  </object>
  <object id="101" name="guard_end" x="256" y="80" width="12" height="12">
   <properties>
    <property name="id" type="int" value="1"/>
    <property name="viewAngle" type="int" value="60"/>
    <property name="viewRadius" type="int" value="120"/>
   </properties>
  </object>
  <object id="102" name="guard_start" x="160" y="80" width="12" height="12">
   <properties>
    <property name="id" type="int" value="2"/>
    <property name="viewAngle" type="int" value="60"/>
    <property name="viewRadius" type="int" value="120"/>
   </properties>
  </object>
  <object id="103" name="guard_end" x="352" y="80" width="12" height="12">
   <properties>
    <property name="id" type="int" value="2"/>
    <property name="viewAngle" type="int" value="60"/>
    <property name="viewRadius" type="int" value="120"/>
   </properties>
  </object>
  <object id="104" name="guard_start" x="480" y="80" width="12" height="12">
   <properties>
    <property name="id" type="int" value="3"/>
    <property name="viewAngle" type="int" value="60"/>
    <property name="viewRadius" type="int" value="120"/>
   </properties>
  </object>
  <object id="105" name="guard_end" x="672" y="80" width="12" height="12">
   <properties>
    <property name="id" type="int" value="3"/>
    <property name="viewAngle" type="int" value="60"/>
    <property name="viewRadius" type="int" value="120"/>
   </properties>
  </object>
  <object id="106" name="guard_start" x="576" y="80" width="12" height="12">
   <properties>
    <property name="id" type="int" value="4"/>
    <property name="viewAngle" type="int" value="60"/>
    <property name="viewRadius" type="int" value="120"/>
   </properties>
  </object>
  <object id="107" name="guard_end" x="768" y="80" width="12" height="12">
   <properties>
    <property name="id" type="int" value="4"/>
    <property name="viewAngle" type="int" value="60"/>
    <property name="viewRadius" type="int" value="120"/>
   </properties>
  </object>
  <object id="108" name="guard_start" x="672" y="80" width="12" height="12">
   <properties>
    <property name="id" type="int" value="5"/>
    <property name="viewAngle" type="int" value="60"/>
    <property name="viewRadius" type="int" value="120"/>
   </properties>
  </object>
  <object id="109" name="guard_end" x="864" y="80" width="12" height="12">
   <properties>
    <property name="id" type="int" value="5"/>
    <property name="viewAngle" type="int" value="60"/>
    <property name="viewRadius" type="int" value="120"/>
   </properties>
  </object>
  <object id="110" name="guard_start" x="256" y="144" width="12" height="12">
   <properties>
    <property name="id" type="int" value="6"/>
    <property name="viewAngle" type="int" value="60"/>
    <property name="viewRadius" type="int" value="120"/>
   </properties>
  </object>
  <object id="111" name="guard_end" x="384" y="144" width="12" height="12">
   <properties>
    <property name="id" type="int" value="6"/>
    <property name="viewAngle" type="int" value="60"/>
    <property name="viewRadius" type="int" value="120"/>
   </properties>
  </object>
  <object id="112" name="guard_start" x="128" y="176" width="12" height="12">
   <properties>
    <property name="id" type="int" value="7"/>
    <property name="viewAngle" type="int" value="60"/>
    <property name="viewRadius" type="int" value="120"/>
   </properties>
  </object>
  <object id="113" name="guard_end" x="320" y="176" width="12" height="12">
   <properties>
    <property name="id" type="int" value="7"/>
    <property name="viewAngle" type="int" value="60"/>
    <property name="viewRadius" type="int" value="120"/>
   </properties>
  </object>
  <object id="114" name="guard_start" x="752" y="300" width="12" height="12">
   <properties>
    <property name="id" type="int" value="8"/>
    <property name="viewAngle" type="int" value="60"/>
    <property name="viewRadius" type="int" value="120"/>
   </properties>
  </object>
  <object id="115" name="guard_end" x="884.667" y="304" width="12" height="12">
   <properties>
    <property name="id" type="int" value="8"/>
    <property name="viewAngle" type="int" value="60"/>
    <property name="viewRadius" type="int" value="120"/>
   </properties>
  </object>
 </objectgroup>
</map>
