<?xml version="1.0" encoding="UTF-8"?>
<map version="1.10" tiledversion="1.12.2" orientation="orthogonal" renderorder="right-down" width="60" height="40" tilewidth="16" tileheight="16" infinite="0" nextlayerid="7" nextobjectid="1003">
 <tileset firstgid="1" name="Set 1.0" tilewidth="16" tileheight="16" tilecount="48" columns="12">
  <image source="tilesetAD/map1/Dungeon Gathering Free Version/Set 1.0.png" width="192" height="64"/>
 </tileset>
 <tileset firstgid="49" name="Set 1.2" tilewidth="16" tileheight="16" tilecount="96" columns="16">
  <image source="tilesetAD/map1/Dungeon Gathering Free Version/Set 1.2.png" width="256" height="96"/>
 </tileset>
 <tileset firstgid="145" name="Structure" tilewidth="16" tileheight="16" tilecount="2" columns="1">
  <image source="tilesetAD/map1/Dungeon Gathering Free Version/Structure.png" width="16" height="32"/>
 </tileset>
 <layer id="1" name="Tile Layer 1" width="60" height="40">
  <data encoding="csv">
2,3,3,3,3,3,3,3,3,3,3,3,3,3,3,3,3,3,3,3,3,3,3,3,3,3,3,3,3,3,3,3,3,3,3,3,3,3,3,3,3,3,3,3,3,3,3,3,3,3,3,3,3,3,3,3,3,3,3,4,
14,91,90,91,90,91,90,91,90,91,90,91,90,91,90,91,90,91,90,91,90,91,90,91,90,91,90,91,90,91,90,91,90,91,90,91,90,91,90,91,90,91,90,91,90,91,90,91,90,91,90,91,90,91,90,91,90,91,90,14,
14,75,74,75,74,75,74,75,74,75,74,75,74,75,74,75,74,75,74,75,74,75,74,75,74,75,74,75,74,75,74,75,74,75,74,75,74,75,74,75,74,75,74,75,74,75,74,75,74,75,74,75,74,75,74,75,74,75,74,14,
14,91,90,91,90,91,90,91,90,91,90,91,90,91,90,91,90,91,90,91,90,91,90,91,90,91,90,91,90,91,90,91,90,91,90,91,90,91,105,91,90,91,90,91,90,91,90,91,90,91,90,91,90,91,90,91,90,91,90,14,
14,75,74,75,2,3,3,3,3,3,14,3,3,3,3,3,3,3,3,3,3,3,3,3,3,3,3,3,3,3,3,3,3,3,3,3,3,3,3,3,3,3,3,3,3,3,3,3,3,3,14,3,3,3,3,3,74,75,74,14,
14,91,90,91,14,91,90,91,90,91,14,91,90,91,90,91,90,91,90,91,105,91,90,91,90,91,90,91,90,91,23,91,90,91,90,91,90,91,90,91,90,91,90,91,90,91,90,91,90,91,14,91,90,91,90,91,90,91,90,14,
14,75,74,75,14,75,74,75,74,75,14,75,74,75,74,75,74,75,74,75,74,75,74,75,74,75,74,75,74,75,23,75,74,75,74,75,74,75,74,75,74,75,74,75,74,75,74,75,74,75,14,75,74,75,74,75,74,75,74,14,
14,91,90,91,14,91,90,91,90,91,14,91,90,91,90,91,90,91,90,91,90,91,90,91,90,91,90,91,90,91,23,91,90,91,90,91,90,91,90,91,90,91,90,91,90,91,90,91,90,91,14,91,90,91,90,91,90,91,90,14,
14,75,74,75,14,75,74,75,74,75,14,75,74,75,74,75,74,75,74,75,74,75,74,75,74,75,74,75,74,75,23,75,74,75,74,75,74,75,74,75,74,75,74,75,74,75,74,75,74,75,14,75,74,75,74,75,74,75,74,14,
14,91,90,91,14,91,90,91,90,91,14,91,90,91,90,91,90,91,90,91,90,91,90,91,90,91,90,91,90,91,23,91,90,91,90,91,90,91,90,91,90,91,90,91,90,91,90,91,90,91,14,91,90,91,90,91,90,91,90,14,
14,75,74,75,14,3,3,3,3,3,14,3,3,3,3,23,23,23,23,75,14,75,74,75,23,3,3,3,3,3,14,3,3,3,3,3,74,75,74,75,74,75,2,3,3,3,3,3,3,3,14,3,3,3,3,3,74,75,74,14,
14,91,90,91,14,91,90,91,90,91,14,91,90,91,90,91,90,91,90,91,14,91,90,91,90,91,90,91,90,91,14,91,90,91,90,91,90,91,90,91,90,91,14,91,90,105,90,91,90,91,14,91,90,91,90,91,90,91,90,14,
14,75,74,75,14,75,74,75,74,75,14,75,74,75,74,75,74,75,74,75,14,75,74,75,74,75,74,75,74,75,14,75,74,75,74,75,74,75,74,75,74,75,14,75,74,75,74,75,74,75,14,75,74,75,74,75,74,75,74,14,
14,91,90,91,14,91,90,91,90,91,14,91,90,91,90,91,90,91,90,91,14,91,90,91,90,91,90,91,90,91,14,91,90,91,90,91,90,91,90,91,90,91,14,91,90,91,90,91,90,91,14,91,90,91,90,91,90,91,90,14,
14,75,74,75,14,75,74,75,74,75,14,75,74,75,74,75,74,75,74,75,14,75,74,75,74,75,74,75,74,75,14,75,74,75,74,75,74,75,74,75,74,75,14,75,74,75,74,75,74,75,14,75,74,75,74,75,74,75,74,14,
14,91,90,91,14,91,90,91,90,91,14,91,90,91,90,91,90,91,90,91,14,91,90,91,90,91,90,91,90,91,14,91,90,91,90,91,90,91,90,91,90,91,14,91,90,91,90,91,90,91,14,91,90,91,90,91,90,91,90,14,
14,75,74,75,14,75,74,75,74,75,14,75,74,75,74,75,74,75,74,75,14,75,74,75,74,75,74,75,74,75,14,75,74,75,74,75,74,75,74,75,74,75,14,75,74,75,74,75,74,75,14,75,74,75,74,75,74,75,74,14,
14,91,90,91,14,91,90,91,90,91,14,91,90,91,90,91,90,91,90,91,14,91,90,91,90,91,90,91,90,91,14,91,90,91,90,91,90,91,90,91,90,91,14,91,90,91,90,91,90,91,14,91,90,91,90,91,90,91,90,14,
14,75,74,75,14,3,3,3,3,3,3,3,3,3,74,75,74,75,74,3,14,3,3,23,23,23,23,3,3,3,3,3,3,3,3,3,3,3,3,3,3,3,14,75,74,75,74,3,3,3,3,3,3,3,3,3,74,75,74,14,
14,91,90,91,14,91,90,91,90,91,90,91,90,91,90,91,90,91,90,91,14,91,90,91,90,91,90,91,90,91,90,91,90,91,90,91,90,91,90,91,90,91,14,91,90,91,90,91,90,91,90,91,90,91,90,91,90,91,90,14,
14,75,74,75,14,75,74,75,74,75,74,75,74,75,73,75,74,75,74,75,14,75,74,75,74,75,74,75,74,75,74,75,74,75,74,75,74,75,74,75,74,75,14,75,74,75,74,75,74,75,74,75,74,75,74,75,74,75,74,14,
14,91,90,91,14,91,90,105,90,91,90,91,90,91,90,91,90,105,90,91,14,91,90,91,90,91,90,91,90,91,90,91,90,91,90,91,90,91,90,91,90,91,14,91,90,91,90,91,90,91,90,91,90,91,90,91,90,91,90,14,
14,75,74,75,3,3,3,3,3,3,4,75,74,75,74,75,74,75,74,75,14,75,74,75,74,75,74,75,74,75,74,75,74,75,74,75,74,75,74,75,74,75,14,75,74,75,74,75,74,75,74,75,74,75,74,75,74,75,74,14,
14,91,90,91,23,91,90,91,90,91,14,105,90,91,90,105,90,91,90,91,14,91,90,91,90,91,90,91,90,91,90,91,90,91,90,91,90,91,90,91,90,91,23,91,90,91,90,91,90,91,14,91,90,91,90,91,90,91,90,14,
14,75,74,75,23,75,74,75,74,75,14,75,74,75,74,75,74,75,74,75,14,75,74,75,74,75,74,75,74,75,14,75,74,75,74,75,74,75,74,75,74,75,23,75,74,75,74,75,74,75,14,75,74,75,74,75,74,75,74,14,
14,91,90,91,23,91,90,91,90,91,14,91,90,91,90,91,90,91,90,91,14,91,90,91,90,91,90,91,90,91,14,91,90,91,90,91,90,91,90,91,89,91,23,91,90,91,90,91,90,105,14,91,90,91,90,91,90,91,90,14,
14,75,74,75,23,23,74,75,74,75,14,75,74,75,74,75,74,75,74,75,14,75,74,75,74,75,74,75,74,75,14,75,74,75,74,75,74,75,74,75,74,75,23,75,74,75,74,75,74,75,14,75,74,75,74,75,74,75,74,14,
14,91,90,91,90,23,23,23,23,23,14,3,3,3,3,3,3,3,3,3,14,3,3,3,3,91,90,91,90,91,14,23,23,23,3,3,3,3,3,3,3,3,3,3,3,3,3,3,3,3,14,3,23,23,23,3,4,91,90,14,
14,75,74,75,74,75,74,75,74,75,14,75,74,75,74,75,74,75,74,75,74,75,74,75,74,75,74,75,74,75,14,75,74,75,74,75,74,75,74,75,74,75,74,75,74,75,74,75,74,75,14,75,74,75,74,75,14,75,74,14,
14,91,90,91,90,91,90,91,90,91,14,91,90,91,90,91,73,91,90,91,90,91,90,91,90,91,90,91,90,91,14,91,90,91,90,91,90,91,90,91,90,91,90,91,90,91,90,91,90,91,14,91,90,91,90,91,14,91,90,14,
14,75,74,75,74,75,74,75,74,75,14,105,74,75,74,75,74,75,74,75,74,75,74,75,74,75,74,75,74,75,14,75,74,75,74,75,74,75,74,75,74,75,74,75,74,75,74,75,74,75,14,75,74,75,74,75,14,75,74,14,
14,91,90,91,90,91,90,91,90,91,14,91,90,91,3,3,3,3,3,3,3,3,3,3,3,3,3,3,3,3,3,91,90,91,105,91,90,3,3,3,3,3,3,3,3,3,3,3,3,3,14,91,90,91,90,91,14,91,90,14,
14,75,74,75,74,75,74,75,74,75,14,75,74,75,74,75,74,75,74,75,74,75,74,75,105,75,74,75,74,75,14,75,74,75,74,75,74,75,74,75,74,75,74,75,74,75,74,75,74,75,14,75,74,75,74,75,14,75,74,14,
14,91,90,91,90,91,90,91,90,91,14,91,90,91,90,91,90,91,90,91,90,91,90,91,90,91,90,91,90,91,14,91,90,91,90,91,90,91,90,91,90,91,90,91,90,91,90,91,105,91,14,91,90,91,90,91,14,91,90,14,
14,75,74,75,74,75,74,75,74,75,14,75,105,75,74,89,74,75,74,75,74,75,74,75,74,75,74,75,74,75,14,75,74,75,74,75,74,75,74,75,74,75,74,75,74,75,74,75,74,75,14,75,74,75,74,75,14,75,74,14,
14,91,90,91,3,3,3,3,3,3,14,3,3,3,3,3,3,3,3,3,3,3,3,3,3,3,3,3,3,3,3,3,3,3,3,3,3,3,3,3,3,3,3,3,3,3,3,3,3,3,14,3,3,3,3,3,14,91,90,14,
14,75,74,75,74,75,74,75,74,75,74,75,74,75,74,75,74,75,74,75,74,75,74,75,74,75,74,75,74,75,74,75,74,75,74,75,74,75,74,75,74,75,74,75,74,75,74,75,74,75,74,75,74,75,74,75,14,75,74,14,
14,91,90,91,90,91,90,91,90,91,90,91,90,91,90,91,90,91,90,91,90,91,90,91,90,91,90,91,90,91,90,91,90,91,90,91,90,91,90,91,90,91,90,91,90,91,90,91,90,91,90,91,90,91,90,91,14,91,90,14,
14,75,74,75,74,75,74,75,74,75,74,75,74,75,74,75,74,75,74,75,74,75,74,75,74,75,74,75,74,75,74,75,74,75,74,75,74,75,74,75,74,75,74,75,74,75,74,75,74,75,74,75,74,75,74,75,14,75,74,14,
3,3,3,3,3,3,3,3,3,3,3,3,3,3,3,3,3,3,3,3,3,3,3,3,3,3,3,3,3,3,3,3,3,3,3,3,3,3,3,3,3,3,3,3,3,3,3,3,3,3,3,3,3,3,3,3,3,3,3,3
</data>
 </layer>
 <objectgroup id="2" name="collisions">
  <object id="1" name="wall" x="0" y="0" width="960" height="16"/>
  <object id="2" name="wall" x="0" y="624" width="960" height="16"/>
  <object id="3" name="wall" x="0" y="0" width="16" height="640"/>
  <object id="4" name="wall" x="944" y="0" width="16" height="640"/>
  <object id="5" name="wall" x="69" y="65" width="826.667" height="12"/>
  <object id="6" name="wall" x="71" y="159" width="168" height="15.3333"/>
  <object id="7" name="wall" x="402" y="160" width="172.5" height="16.5"/>
  <object id="8" name="wall" x="686.333" y="161.667" width="208" height="14"/>
  <object id="9" name="wall" x="78.3333" y="289.667" width="147.333" height="12"/>
  <object id="10" name="wall" x="433" y="288.333" width="250.667" height="13.3333"/>
  <object id="11" name="wall" x="750.333" y="289" width="145.333" height="15.3333"/>
  <object id="12" name="wall" x="161.667" y="433.667" width="240.667" height="11.3333"/>
  <object id="13" name="wall" x="547" y="433" width="285.333" height="10"/>
  <object id="14" name="wall" x="62.3333" y="559.667" width="847.333" height="14"/>
  <object id="15" name="wall" x="160.333" y="65" width="11.3333" height="228.667"/>
  <object id="16" name="wall" x="162.333" y="353.667" width="15.3333" height="215.333"/>
  <object id="17" name="wall" x="319" y="160.333" width="16.6667" height="285.333"/>
  <object id="18" name="wall" x="482.333" y="164.333" width="13.3333" height="137.333"/>
  <object id="19" name="wall" x="482.333" y="385" width="14" height="180"/>
  <object id="20" name="wall" x="673.667" y="160.333" width="12" height="205.333"/>
  <object id="21" name="wall" x="801.667" y="66.3333" width="12" height="226.667"/>
  <object id="22" name="wall" x="798.333" y="369" width="17.3333" height="200.667"/>
  <object id="23" name="wall" x="224.333" y="497" width="271.333" height="12"/>
  <object id="24" name="wall" x="590.333" y="497.667" width="210" height="14"/>
  <object id="25" name="wall" x="901" y="435.667" width="9.33333" height="191.333"/>
  <object id="26" name="wall" x="64.3333" y="67" width="14" height="299.333"/>
  <object id="27" name="wall" x="79" y="353" width="84.6667" height="14"/>
  <object id="1000" name="wall" x="304.667" y="288.667" width="62" height="15.3333"/>
  <object id="1002" name="wall" x="881" y="431" width="29" height="18"/>
 </objectgroup>
 <objectgroup id="5" name="entities">
  <object id="28" name="player_spawn" x="34" y="594" width="14" height="16"/>
  <object id="29" name="key" x="242" y="389.333" width="10" height="12"/>
  <object id="30" name="server" x="843.333" y="502.667" width="30" height="32"/>
  <object id="31" name="server_door" x="831.333" y="436.667" width="48" height="8"/>
  <object id="32" name="item_water" x="578.667" y="238.667" width="12" height="12"/>
  <object id="33" name="item_meat" x="416" y="533.333" width="14" height="13"/>
 </objectgroup>
 <objectgroup id="6" name="enemies">
  <object id="100" name="guard_start" x="192" y="112" width="12" height="12">
   <properties>
    <property name="id" type="int" value="1"/>
    <property name="viewAngle" type="int" value="60"/>
    <property name="viewRadius" type="int" value="120"/>
   </properties>
  </object>
  <object id="101" name="guard_end" x="384" y="112" width="12" height="12">
   <properties>
    <property name="id" type="int" value="1"/>
    <property name="viewAngle" type="int" value="60"/>
    <property name="viewRadius" type="int" value="120"/>
   </properties>
  </object>
  <object id="102" name="guard_start" x="320" y="112" width="12" height="12">
   <properties>
    <property name="id" type="int" value="2"/>
    <property name="viewAngle" type="int" value="60"/>
    <property name="viewRadius" type="int" value="120"/>
   </properties>
  </object>
  <object id="103" name="guard_end" x="448" y="112" width="12" height="12">
   <properties>
    <property name="id" type="int" value="2"/>
    <property name="viewAngle" type="int" value="60"/>
    <property name="viewRadius" type="int" value="120"/>
   </properties>
  </object>
  <object id="104" name="guard_start" x="512" y="112" width="12" height="12">
   <properties>
    <property name="id" type="int" value="3"/>
    <property name="viewAngle" type="int" value="60"/>
    <property name="viewRadius" type="int" value="120"/>
   </properties>
  </object>
  <object id="105" name="guard_end" x="704" y="112" width="12" height="12">
   <properties>
    <property name="id" type="int" value="3"/>
    <property name="viewAngle" type="int" value="60"/>
    <property name="viewRadius" type="int" value="120"/>
   </properties>
  </object>
  <object id="106" name="guard_start" x="640" y="112" width="12" height="12">
   <properties>
    <property name="id" type="int" value="4"/>
    <property name="viewAngle" type="int" value="60"/>
    <property name="viewRadius" type="int" value="120"/>
   </properties>
  </object>
  <object id="107" name="guard_end" x="768" y="112" width="12" height="12">
   <properties>
    <property name="id" type="int" value="4"/>
    <property name="viewAngle" type="int" value="60"/>
    <property name="viewRadius" type="int" value="120"/>
   </properties>
  </object>
  <object id="108" name="guard_start" x="192" y="208" width="12" height="12">
   <properties>
    <property name="id" type="int" value="5"/>
    <property name="viewAngle" type="int" value="60"/>
    <property name="viewRadius" type="int" value="120"/>
   </properties>
  </object>
  <object id="109" name="guard_end" x="288" y="208" width="12" height="12">
   <properties>
    <property name="id" type="int" value="5"/>
    <property name="viewAngle" type="int" value="60"/>
    <property name="viewRadius" type="int" value="120"/>
   </properties>
  </object>
  <object id="110" name="guard_start" x="352" y="208" width="12" height="12">
   <properties>
    <property name="id" type="int" value="6"/>
    <property name="viewAngle" type="int" value="60"/>
    <property name="viewRadius" type="int" value="120"/>
   </properties>
  </object>
  <object id="111" name="guard_end" x="448" y="208" width="12" height="12">
   <properties>
    <property name="id" type="int" value="6"/>
    <property name="viewAngle" type="int" value="60"/>
    <property name="viewRadius" type="int" value="120"/>
   </properties>
  </object>
  <object id="112" name="guard_start" x="512" y="208" width="12" height="12">
   <properties>
    <property name="id" type="int" value="7"/>
    <property name="viewAngle" type="int" value="60"/>
    <property name="viewRadius" type="int" value="120"/>
   </properties>
  </object>
  <object id="113" name="guard_end" x="640" y="208" width="12" height="12">
   <properties>
    <property name="id" type="int" value="7"/>
    <property name="viewAngle" type="int" value="60"/>
    <property name="viewRadius" type="int" value="120"/>
   </properties>
  </object>
  <object id="114" name="guard_start" x="192" y="336" width="12" height="12">
   <properties>
    <property name="id" type="int" value="8"/>
    <property name="viewAngle" type="int" value="60"/>
    <property name="viewRadius" type="int" value="120"/>
   </properties>
  </object>
  <object id="115" name="guard_end" x="288" y="336" width="12" height="12">
   <properties>
    <property name="id" type="int" value="8"/>
    <property name="viewAngle" type="int" value="60"/>
    <property name="viewRadius" type="int" value="120"/>
   </properties>
  </object>
 </objectgroup>
</map>
