<?xml version="1.0" encoding="UTF-8"?>
<map version="1.10" tiledversion="1.12.2" orientation="orthogonal" renderorder="right-down" width="60" height="40" tilewidth="16" tileheight="16" infinite="0" nextlayerid="7" nextobjectid="1015">
 <tileset firstgid="1" source="tilesetAD/map1/Set 1.0.tsx"/>
 <tileset firstgid="49" source="tilesetAD/map1/Set 1.2.tsx"/>
 <layer id="1" name="Tile Layer 1" width="60" height="40">
  <data encoding="csv">
2,3,3,3,3,3,3,3,3,3,3,3,3,3,3,3,3,3,3,3,3,3,3,3,3,3,3,3,3,3,3,3,3,3,3,3,3,3,3,3,3,3,3,3,3,3,3,3,3,3,3,3,3,3,3,3,3,3,3,4,
14,91,90,91,90,91,90,91,90,91,90,91,90,91,90,91,90,91,90,91,90,91,90,91,90,91,90,91,90,91,90,91,90,91,90,91,90,91,90,91,90,91,90,91,90,91,90,91,90,91,90,91,90,91,90,91,90,91,90,14,
14,75,74,75,74,75,74,75,74,75,74,75,74,75,74,75,74,75,74,75,74,75,74,75,74,75,74,75,74,75,74,75,74,75,74,75,74,75,74,75,74,75,74,75,74,75,74,75,74,75,74,75,74,75,74,75,74,75,74,14,
14,91,90,91,90,91,90,91,90,91,90,91,90,91,90,91,90,91,90,91,90,91,90,91,90,91,90,91,90,91,90,91,90,91,90,91,90,91,90,91,14,91,90,91,90,91,90,91,90,91,90,91,90,91,90,91,90,91,90,14,
14,75,74,75,74,75,74,75,74,75,74,75,74,75,74,75,74,75,74,89,74,75,74,75,74,75,74,75,74,75,74,75,74,75,74,75,74,75,74,75,14,75,74,75,74,75,74,75,74,75,74,75,74,75,74,75,74,75,74,14,
14,91,90,91,90,3,3,3,14,3,3,3,3,3,3,3,3,3,3,3,3,3,3,3,14,3,3,3,3,3,3,91,90,91,90,91,3,3,3,3,14,3,3,3,3,3,3,3,3,3,3,3,3,3,3,3,3,91,90,14,
14,75,74,23,23,23,23,23,14,75,74,75,74,75,74,75,74,75,74,75,74,75,74,75,14,75,74,75,74,75,74,75,74,75,74,75,74,75,74,75,14,75,74,75,74,75,74,75,74,75,74,75,74,75,74,75,74,75,74,14,
14,91,90,23,23,23,23,23,14,91,89,91,105,91,90,91,90,91,90,91,90,91,90,91,14,91,90,91,90,91,90,91,90,91,90,91,90,91,90,91,14,91,90,91,90,91,90,91,90,91,90,91,90,91,90,91,90,91,90,14,
14,75,23,23,23,23,23,23,14,75,74,75,74,75,74,75,74,75,74,75,74,75,74,75,14,75,74,75,74,75,74,75,74,75,74,75,74,75,74,75,14,75,74,75,74,75,74,75,74,75,14,75,74,75,74,75,74,75,74,14,
14,91,23,23,23,23,23,23,14,91,90,91,90,91,90,91,90,91,90,91,90,91,90,91,14,91,90,91,90,91,90,91,90,91,90,91,90,91,90,91,14,91,90,91,90,91,90,91,90,91,14,91,90,91,90,91,90,91,90,14,
14,75,23,23,23,23,23,23,14,75,74,75,74,75,74,75,14,75,74,75,74,75,74,75,14,75,74,75,74,75,74,105,14,75,74,75,74,75,74,75,14,75,74,75,74,75,74,75,74,75,14,75,74,75,74,75,74,75,74,14,
14,91,23,23,23,23,23,23,14,91,90,91,90,91,90,91,14,91,90,91,90,91,90,91,14,91,90,91,90,91,90,91,14,91,90,91,90,91,90,91,14,91,90,91,90,91,90,91,90,91,14,91,90,91,90,91,90,91,90,14,
14,75,23,23,23,23,23,23,3,3,3,3,3,3,3,3,14,105,74,75,3,3,3,3,3,3,3,3,3,3,3,3,14,75,74,75,74,75,74,75,3,3,3,3,3,3,3,3,3,3,14,75,74,75,74,75,74,75,74,14,
14,91,23,23,23,23,90,91,14,91,90,91,90,91,90,91,14,91,90,91,90,91,90,91,14,91,90,91,90,91,90,91,14,91,90,91,90,91,90,91,14,91,90,91,90,91,90,91,90,91,14,91,90,91,90,89,90,91,90,14,
14,75,23,23,23,23,74,75,14,75,74,75,74,75,74,75,14,75,74,75,74,75,74,75,14,75,74,75,74,75,74,75,14,75,74,75,74,75,74,75,14,75,74,75,74,75,74,75,74,75,14,75,74,75,74,75,74,75,74,14,
14,91,90,23,23,91,90,91,14,91,90,91,90,91,90,91,14,91,90,91,90,91,90,91,14,91,90,91,90,91,90,91,14,91,90,91,90,91,90,91,14,91,90,91,90,91,90,91,90,91,14,91,90,91,90,91,90,91,90,14,
14,75,74,23,23,75,74,75,14,75,74,75,74,75,74,75,14,75,74,75,74,75,74,75,74,75,74,75,74,75,74,75,14,75,74,75,74,75,74,75,14,75,74,75,74,75,74,75,74,75,14,75,74,75,74,75,74,75,74,14,
14,91,90,91,90,91,90,91,14,91,90,91,90,91,90,91,14,91,90,91,90,91,90,91,90,91,90,91,90,91,90,91,14,91,90,91,90,91,90,91,90,91,90,91,90,91,90,91,90,91,14,91,90,91,90,91,90,91,90,14,
14,7,7,7,7,7,7,7,18,75,74,75,74,75,3,3,3,3,3,3,3,3,3,3,74,75,74,75,74,75,3,3,3,3,3,3,3,3,23,23,74,75,74,75,74,75,74,75,74,75,14,75,74,75,74,75,74,75,74,14,
14,91,90,91,90,91,90,91,90,91,90,91,90,91,90,91,14,91,90,91,90,91,90,91,90,91,90,91,90,91,90,91,14,91,90,91,90,91,90,91,73,91,90,91,90,91,90,91,90,91,14,91,90,91,90,91,90,91,90,14,
14,75,74,75,74,75,74,75,74,75,74,75,74,75,74,75,14,75,74,75,74,75,74,75,74,75,74,75,74,75,74,75,14,75,74,75,74,75,74,75,74,75,74,75,74,75,74,75,74,75,14,75,74,75,74,75,74,75,74,14,
14,91,90,91,90,91,90,91,90,91,90,91,90,91,90,91,14,91,90,91,90,91,90,91,23,91,90,91,90,91,90,91,14,91,90,91,90,91,90,91,90,91,90,91,90,91,90,91,90,91,14,91,90,91,90,91,90,91,90,14,
14,75,74,75,74,75,74,75,74,75,74,75,74,75,74,75,14,75,74,75,74,75,74,75,14,75,74,75,74,75,74,75,14,75,74,75,74,75,74,75,14,75,74,75,74,75,74,75,74,75,14,75,74,75,74,105,74,75,74,14,
14,91,90,91,90,91,90,91,90,91,90,91,90,91,90,91,14,91,90,91,90,91,90,91,14,91,90,91,90,91,90,91,14,91,90,91,90,91,90,91,14,91,90,91,90,91,90,91,90,91,14,91,90,91,90,91,90,91,90,14,
14,75,74,75,74,75,3,3,3,3,3,3,3,3,3,3,3,75,74,75,74,75,74,75,3,3,3,3,3,3,3,3,3,3,3,3,74,75,74,75,14,75,74,3,3,3,3,3,3,3,3,3,3,3,3,3,23,23,74,14,
14,91,90,91,90,91,90,91,90,91,90,91,90,91,90,91,14,91,90,91,90,91,90,91,14,91,90,91,90,91,90,91,14,91,90,91,90,91,90,91,14,91,90,91,90,91,90,91,90,91,14,91,90,91,90,91,90,91,90,14,
14,75,74,75,74,75,74,75,74,75,74,75,74,75,74,75,14,75,74,75,74,75,74,75,14,75,74,75,74,75,74,75,74,75,74,75,74,75,74,75,14,75,74,75,74,75,74,75,74,75,14,75,74,75,74,75,74,75,74,14,
14,91,90,91,90,89,90,91,90,91,90,91,90,91,90,91,14,91,90,91,90,91,90,91,14,91,90,91,90,91,90,91,90,91,90,91,90,91,90,91,14,91,90,91,90,91,90,91,90,91,14,91,90,91,90,91,90,91,90,14,
14,75,74,75,74,75,74,75,74,75,74,75,74,75,74,75,14,105,74,75,74,75,74,75,14,75,74,75,74,75,74,75,74,75,74,75,74,75,74,75,14,75,74,75,74,75,74,75,74,75,14,75,74,75,74,75,74,75,74,14,
14,91,90,91,90,91,90,91,90,91,90,91,90,91,90,91,23,91,90,91,90,91,90,91,14,91,90,91,90,91,90,91,90,91,90,91,90,91,90,91,14,91,90,91,90,91,90,91,90,91,14,91,90,91,90,91,90,91,90,14,
14,75,74,75,74,75,74,75,74,75,74,75,74,75,74,75,74,75,74,75,74,75,74,75,14,75,74,75,74,75,74,75,74,75,74,75,74,75,74,75,14,75,74,75,74,75,74,75,74,75,14,75,74,75,74,75,74,75,74,14,
14,91,23,3,3,3,3,3,3,3,3,3,3,3,3,3,3,3,3,3,3,3,3,3,3,91,90,91,90,91,3,3,3,3,3,3,3,3,3,3,3,3,3,3,3,3,3,3,3,3,3,91,90,91,90,91,90,91,90,14,
14,75,74,75,74,75,74,75,74,75,74,75,74,75,74,75,74,75,74,75,74,75,74,75,14,75,74,75,74,75,74,75,74,75,74,75,74,75,74,75,14,75,74,75,74,75,74,75,74,75,74,75,74,75,74,75,74,75,74,14,
14,91,90,91,90,91,90,91,90,91,90,91,90,91,90,91,90,91,90,91,90,91,90,91,23,91,90,91,90,91,90,91,90,91,90,91,90,91,90,91,14,91,90,89,90,91,90,91,90,91,90,91,90,91,90,91,90,91,90,14,
14,75,74,75,74,75,74,75,74,75,74,75,74,75,74,75,74,75,74,75,74,75,74,75,23,75,74,75,74,75,74,75,74,75,74,75,74,75,74,75,14,75,74,75,74,75,74,75,74,105,74,75,74,75,74,75,74,75,74,14,
14,91,90,91,90,91,90,91,90,91,90,91,90,91,90,91,90,91,90,91,90,91,90,91,90,91,90,91,90,91,90,91,90,91,90,91,90,91,90,91,14,91,90,91,90,91,90,91,90,91,90,91,90,91,90,91,90,91,90,14,
14,75,74,75,74,75,74,75,74,75,3,3,3,3,3,3,3,3,3,3,3,3,3,3,3,3,3,3,3,3,3,3,3,3,3,3,3,3,3,3,14,75,74,75,74,75,74,75,74,75,74,75,74,75,74,75,74,75,74,14,
14,91,90,91,90,91,90,91,90,91,90,91,90,91,90,91,90,91,90,91,90,91,90,91,90,91,90,91,90,91,90,91,90,91,90,91,90,91,90,91,14,91,90,91,90,91,90,91,90,91,90,91,90,91,90,91,90,91,90,14,
14,75,74,75,74,75,74,75,74,75,74,75,74,75,74,75,74,75,74,75,74,75,74,75,74,75,74,75,74,75,74,75,74,75,74,75,74,75,74,75,14,75,74,75,74,75,74,75,74,75,74,75,74,75,74,75,74,75,74,14,
3,3,3,3,3,3,3,3,3,3,3,3,3,3,3,3,3,3,3,3,3,3,3,3,3,3,3,3,3,3,3,3,3,3,3,3,3,3,3,3,27,3,3,3,3,3,3,3,3,3,3,3,3,3,3,3,3,3,3,3
</data>
 </layer>
 <objectgroup id="2" name="collisions">
  <object id="1" name="wall" x="0" y="0" width="960" height="16"/>
  <object id="2" name="wall" x="0" y="624" width="960" height="16"/>
  <object id="3" name="wall" x="0" y="0" width="16" height="640"/>
  <object id="4" name="wall" x="944" y="0" width="16" height="640"/>
  <object id="5" name="wall" x="82.5" y="79" width="415" height="18.5"/>
  <object id="6" name="wall" x="572.5" y="80" width="338.5" height="15"/>
  <object id="8" name="wall" x="258" y="159.5" width="11.5" height="305"/>
  <object id="9" name="wall" x="384.5" y="81.5" width="14.5" height="174"/>
  <object id="10" name="wall" x="384.5" y="352" width="13.5" height="176.5"/>
  <object id="11" name="wall" x="514" y="160.5" width="10.5" height="257.5"/>
  <object id="12" name="wall" x="642" y="49" width="12.5" height="222"/>
  <object id="13" name="wall" x="641" y="352.5" width="14.5" height="282.5"/>
  <object id="14" name="wall" x="799" y="131" width="15" height="375"/>
  <object id="15" name="wall" x="137" y="191.5" width="118" height="15.5"/>
  <object id="16" name="wall" x="319" y="191.5" width="193" height="15"/>
  <object id="17" name="wall" x="640" y="194" width="164" height="10"/>
  <object id="18" name="wall" x="8.5" y="288.5" width="130" height="10"/>
  <object id="19" name="wall" x="223" y="288.5" width="158.5" height="15.5"/>
  <object id="20" name="wall" x="480" y="289.5" width="128.5" height="14"/>
  <object id="21" name="wall" x="96.5" y="384.5" width="174.5" height="13.5"/>
  <object id="22" name="wall" x="387" y="384" width="188.5" height="9.5"/>
  <object id="23" name="wall" x="692" y="386" width="206" height="12"/>
  <object id="24" name="wall" x="49.5" y="495" width="347" height="15.5"/>
  <object id="25" name="wall" x="482" y="497" width="331" height="14"/>
  <object id="26" name="wall" x="160.5" y="576.5" width="494.5" height="13.5"/>
  <object id="1000" x="133.5" y="138" width="0.5"/>
  <object id="1010" name="wall" x="130" y="92.6667" width="6" height="194.667"/>
  <object id="1011" x="-81.3333" y="190" width="1.33333" height="0.666667"/>
 </objectgroup>
 <objectgroup id="5" name="entities">
  <object id="27" name="player_spawn" x="34" y="34" width="14" height="16"/>
  <object id="28" name="key" x="738" y="98" width="10" height="12"/>
  <object id="29" name="server" x="898" y="580" width="30" height="32"/>
  <object id="30" name="server_door" x="898" y="387" width="48" height="16"/>
  <object id="31" name="item_water" x="194" y="338" width="12" height="12"/>
  <object id="32" name="item_meat" x="539" y="341" width="14" height="13"/>
 </objectgroup>
 <objectgroup id="6" name="enemies">
  <object id="100" name="guard_start" x="416" y="112" width="12" height="12">
   <properties>
    <property name="id" type="int" value="1"/>
    <property name="viewAngle" type="int" value="60"/>
    <property name="viewRadius" type="int" value="120"/>
   </properties>
  </object>
  <object id="101" name="guard_end" x="608" y="112" width="12" height="12">
   <properties>
    <property name="id" type="int" value="1"/>
    <property name="viewAngle" type="int" value="60"/>
    <property name="viewRadius" type="int" value="120"/>
   </properties>
  </object>
  <object id="102" name="guard_start" x="672" y="112" width="12" height="12">
   <properties>
    <property name="id" type="int" value="2"/>
    <property name="viewAngle" type="int" value="60"/>
    <property name="viewRadius" type="int" value="120"/>
   </properties>
  </object>
  <object id="103" name="guard_end" x="768" y="112" width="12" height="12">
   <properties>
    <property name="id" type="int" value="2"/>
    <property name="viewAngle" type="int" value="60"/>
    <property name="viewRadius" type="int" value="120"/>
   </properties>
  </object>
  <object id="104" name="guard_start" x="672" y="240" width="12" height="12">
   <properties>
    <property name="id" type="int" value="3"/>
    <property name="viewAngle" type="int" value="60"/>
    <property name="viewRadius" type="int" value="120"/>
   </properties>
  </object>
  <object id="105" name="guard_end" x="768" y="240" width="12" height="12">
   <properties>
    <property name="id" type="int" value="3"/>
    <property name="viewAngle" type="int" value="60"/>
    <property name="viewRadius" type="int" value="120"/>
   </properties>
  </object>
  <object id="106" name="guard_start" x="64" y="336" width="12" height="12">
   <properties>
    <property name="id" type="int" value="4"/>
    <property name="viewAngle" type="int" value="60"/>
    <property name="viewRadius" type="int" value="120"/>
   </properties>
  </object>
  <object id="107" name="guard_end" x="224" y="336" width="12" height="12">
   <properties>
    <property name="id" type="int" value="4"/>
    <property name="viewAngle" type="int" value="60"/>
    <property name="viewRadius" type="int" value="120"/>
   </properties>
  </object>
  <object id="108" name="guard_start" x="672" y="336" width="12" height="12">
   <properties>
    <property name="id" type="int" value="5"/>
    <property name="viewAngle" type="int" value="60"/>
    <property name="viewRadius" type="int" value="120"/>
   </properties>
  </object>
  <object id="109" name="guard_end" x="768" y="336" width="12" height="12">
   <properties>
    <property name="id" type="int" value="5"/>
    <property name="viewAngle" type="int" value="60"/>
    <property name="viewRadius" type="int" value="120"/>
   </properties>
  </object>
  <object id="110" name="guard_start" x="64" y="432" width="12" height="12">
   <properties>
    <property name="id" type="int" value="6"/>
    <property name="viewAngle" type="int" value="60"/>
    <property name="viewRadius" type="int" value="120"/>
   </properties>
  </object>
  <object id="111" name="guard_end" x="224" y="432" width="12" height="12">
   <properties>
    <property name="id" type="int" value="6"/>
    <property name="viewAngle" type="int" value="60"/>
    <property name="viewRadius" type="int" value="120"/>
   </properties>
  </object>
  <object id="112" name="guard_start" x="416" y="432" width="12" height="12">
   <properties>
    <property name="id" type="int" value="7"/>
    <property name="viewAngle" type="int" value="60"/>
    <property name="viewRadius" type="int" value="120"/>
   </properties>
  </object>
  <object id="113" name="guard_end" x="608" y="432" width="12" height="12">
   <properties>
    <property name="id" type="int" value="7"/>
    <property name="viewAngle" type="int" value="60"/>
    <property name="viewRadius" type="int" value="120"/>
   </properties>
  </object>
  <object id="114" name="guard_start" x="672" y="432" width="12" height="12">
   <properties>
    <property name="id" type="int" value="8"/>
    <property name="viewAngle" type="int" value="60"/>
    <property name="viewRadius" type="int" value="120"/>
   </properties>
  </object>
  <object id="115" name="guard_end" x="768" y="432" width="12" height="12">
   <properties>
    <property name="id" type="int" value="8"/>
    <property name="viewAngle" type="int" value="60"/>
    <property name="viewRadius" type="int" value="120"/>
   </properties>
  </object>
 </objectgroup>
</map>
