<?xml version="1.0" encoding="UTF-8"?>
<map version="1.10" tiledversion="1.12.2" orientation="orthogonal" renderorder="right-down" width="60" height="40" tilewidth="16" tileheight="16" infinite="0" nextlayerid="15" nextobjectid="189">
 <tileset firstgid="1" name="Map3" tilewidth="16" tileheight="16" tilecount="112" columns="16">
  <image source="tilesetAD/map4/Pixel Lands Dungeons Demo/Pixel Lands Dungeons Demo/dungeons_demo.png" width="256" height="112"/>
 </tileset>
 <tileset firstgid="113" name="3" tilewidth="16" tileheight="16" tilecount="72" columns="8">
  <image source="tilesetAD/map4/Pixel Lands Dungeons Demo/Pixel Lands Dungeons Demo/dungeons_demo_animated.png" width="128" height="144"/>
 </tileset>
 <tileset firstgid="185" name="farm" tilewidth="16" tileheight="16" tilecount="128" columns="16">
  <image source="tilesetAD/map4/Pixel Lands Farm Demo/Pixel Lands Farm Demo/objects_demo.png" width="256" height="128"/>
 </tileset>
 <tileset firstgid="313" name="farm1" tilewidth="16" tileheight="16" tilecount="128" columns="16">
  <image source="tilesetAD/map4/Pixel Lands Farm Demo/Pixel Lands Farm Demo/terrain_demo.png" width="256" height="128"/>
 </tileset>
 <tileset firstgid="441" source="tilesetAD/Structure.tsx"/>
 <tileset firstgid="443" name="Set 1.0" tilewidth="16" tileheight="16" tilecount="48" columns="12">
  <image source="tilesetAD/map1/Dungeon Gathering Free Version/Set 1.0.png" width="192" height="64"/>
 </tileset>
 <tileset firstgid="491" name="Set 1.0" tilewidth="16" tileheight="16" tilecount="48" columns="12">
  <image source="tilesetAD/map1/Dungeon Gathering Free Version/Set 1.0.png" width="192" height="64"/>
 </tileset>
 <tileset firstgid="539" name="Structure" tilewidth="16" tileheight="16" tilecount="2" columns="1">
  <image source="tilesetAD/map1/Dungeon Gathering Free Version/Structure.png" width="16" height="32"/>
 </tileset>
 <layer id="1" name="Tile Layer 1" width="60" height="40">
  <data encoding="csv">
1,2,2,2,2,2,2,2,2,2,2,2,2,2,2,2,2,2,2,2,2,2,2,2,2,2,2,2,2,2,2,2,2,2,2,2,2,2,2,2,2,2,2,2,2,2,2,2,2,2,2,2,2,2,2,2,2,2,2,3,
17,4,4,4,4,4,4,4,4,4,4,4,4,4,4,4,4,4,4,4,4,4,4,4,4,4,4,4,4,4,4,4,4,4,4,4,4,4,4,4,4,4,4,4,4,4,4,4,4,4,4,4,4,4,4,4,4,4,4,19,
17,4,4,4,4,4,4,4,4,4,4,4,4,4,4,4,4,4,4,4,4,4,4,4,4,4,4,4,4,4,4,4,4,4,4,4,4,4,4,4,4,4,4,4,4,4,4,4,4,4,4,4,4,4,4,4,4,4,4,19,
17,4,4,4,4,4,4,4,4,4,4,4,4,4,4,4,4,4,4,4,4,4,4,4,4,4,4,4,4,4,4,4,4,4,4,4,4,4,4,4,4,4,4,4,4,4,4,4,4,4,4,4,4,4,4,4,4,20,21,19,
17,4,4,4,4,4,4,4,4,18,18,18,18,18,18,18,18,18,18,18,18,18,18,18,18,18,18,18,18,18,18,18,18,18,18,18,18,18,18,18,18,18,18,18,18,18,18,18,18,18,18,18,18,18,18,18,18,37,37,19,
17,4,4,4,4,4,4,4,4,4,4,4,4,4,4,4,4,4,4,4,4,4,4,4,4,4,4,4,4,4,4,4,4,4,4,4,4,4,4,4,4,4,4,4,4,4,4,4,4,4,4,4,4,4,4,4,4,21,20,19,
17,4,4,4,4,4,4,4,4,4,4,4,4,4,4,4,4,4,4,4,4,4,4,4,4,4,4,4,4,4,4,4,4,4,4,4,4,4,4,4,4,4,4,4,4,4,4,4,4,4,4,4,4,4,4,4,4,4,4,19,
17,4,4,4,4,4,4,4,4,4,4,4,4,4,4,4,4,4,4,4,4,4,4,4,4,4,4,4,4,4,4,4,4,4,4,4,4,4,4,4,4,4,4,4,4,4,4,4,4,4,4,4,4,4,4,4,4,4,4,19,
17,4,4,4,4,4,4,4,4,4,4,4,4,4,4,4,4,4,4,4,4,4,4,4,4,4,4,4,4,4,4,4,4,4,4,4,4,4,4,4,4,4,4,4,4,4,4,4,4,4,4,4,4,4,4,4,4,4,4,19,
17,4,4,4,4,4,4,4,4,18,18,18,18,18,18,18,18,18,18,18,18,18,18,18,18,18,18,18,18,18,18,18,18,18,18,18,18,18,18,18,18,18,18,18,18,18,18,18,18,18,18,18,18,18,18,18,18,18,18,19,
17,4,4,4,4,4,4,4,4,4,4,4,4,4,4,4,4,4,4,4,4,4,4,4,4,4,4,4,4,4,4,4,4,4,4,4,4,4,4,4,4,4,4,4,4,4,4,4,4,4,4,4,4,4,4,4,4,4,4,19,
17,4,4,4,4,4,4,4,4,4,4,4,4,4,4,4,4,4,4,4,4,4,4,4,4,4,4,4,4,4,4,4,4,4,4,4,4,4,4,4,4,4,4,4,4,4,4,4,4,4,4,4,4,4,4,4,4,4,4,19,
17,4,4,4,4,4,4,4,4,4,4,4,4,4,4,4,4,4,4,4,4,4,4,4,4,4,4,4,4,4,4,4,4,4,4,4,4,4,4,4,4,4,4,4,4,4,4,4,4,4,4,4,4,4,4,4,4,4,4,19,
17,4,4,4,4,4,4,4,4,4,4,4,4,4,4,4,4,4,4,4,4,4,4,4,4,4,4,4,4,4,4,4,4,4,4,4,4,4,4,4,4,4,4,4,4,4,4,4,4,4,4,4,4,4,4,4,4,4,4,19,
17,4,4,4,4,4,4,4,4,4,4,4,4,4,4,4,4,4,4,4,4,4,4,4,4,4,4,4,4,4,4,4,4,4,4,4,4,4,4,4,4,4,4,4,4,4,4,4,4,4,4,4,4,4,4,4,4,4,4,19,
17,4,4,4,4,4,4,4,4,18,18,18,18,18,18,18,18,18,18,18,18,18,18,18,18,18,18,18,18,18,18,18,18,18,18,18,18,18,18,18,18,18,18,18,18,18,18,18,18,18,18,18,18,18,18,18,18,18,18,19,
17,4,4,4,4,4,4,4,4,4,4,4,4,4,4,4,4,4,4,4,4,4,4,4,4,4,4,4,4,4,4,4,4,4,4,4,4,4,4,4,4,4,4,4,4,4,4,4,4,4,4,4,4,4,4,4,4,4,4,19,
17,4,4,4,4,4,4,4,4,4,4,4,4,4,4,4,4,4,4,4,4,4,4,4,4,4,4,4,4,4,4,4,4,4,4,4,4,4,4,4,4,4,4,4,4,4,4,4,4,4,4,4,4,4,4,4,4,4,4,19,
17,4,4,4,4,4,4,4,4,4,4,4,4,4,4,4,4,4,4,4,4,4,4,4,4,4,4,4,4,4,4,4,4,4,4,4,4,4,4,4,4,4,4,4,4,4,4,4,4,4,4,4,4,4,4,4,4,4,4,19,
17,4,4,4,4,4,4,4,4,4,4,4,4,4,4,4,4,4,4,4,4,4,4,4,4,4,4,4,4,4,4,4,4,4,4,4,4,4,4,4,4,4,4,4,4,4,4,4,4,4,4,4,4,4,4,4,4,4,4,19,
17,4,4,4,4,4,4,4,4,4,4,4,4,4,4,4,4,4,4,4,4,4,4,4,4,4,4,4,4,4,4,4,4,4,4,4,4,4,4,4,4,4,4,4,4,4,4,4,4,4,4,4,4,4,4,4,4,4,4,19,
17,4,4,4,4,4,4,4,4,18,18,18,18,18,18,18,18,18,18,18,18,18,18,18,18,18,18,18,18,18,18,18,18,18,18,18,18,18,18,18,18,18,18,18,18,18,18,18,18,18,18,18,18,18,18,18,18,18,18,19,
17,4,4,4,4,4,4,4,4,4,4,4,4,4,4,4,4,4,4,4,4,4,4,4,4,4,4,4,4,4,4,4,4,4,4,4,4,4,4,4,4,4,4,4,4,4,4,4,4,4,4,4,4,4,4,4,4,4,4,19,
17,4,4,4,4,4,4,4,4,4,4,4,4,4,4,4,4,4,4,4,4,4,4,4,4,4,4,4,4,4,4,4,4,4,4,4,4,4,4,4,4,4,4,4,4,4,4,4,4,4,4,4,4,4,4,4,4,4,4,19,
17,4,4,4,4,4,4,4,4,4,4,4,4,4,4,4,4,4,4,4,4,4,4,4,4,4,4,4,4,4,4,4,4,4,4,4,4,4,4,4,4,4,4,4,4,4,4,4,4,4,4,4,4,4,4,4,4,4,4,19,
17,4,4,4,4,4,4,4,4,4,4,4,4,4,4,4,4,4,4,4,4,4,4,4,4,4,4,4,4,4,4,4,4,4,4,4,4,4,4,4,4,4,4,4,4,4,4,4,4,4,4,4,4,4,4,4,4,4,4,19,
17,4,4,4,4,4,4,4,4,4,4,4,4,4,4,4,4,4,4,4,4,4,4,4,4,4,4,4,4,4,4,4,4,4,4,4,4,4,4,4,4,4,4,4,4,4,4,4,4,4,4,4,4,4,4,4,4,4,4,19,
17,4,4,4,4,4,4,4,4,18,18,18,18,18,18,18,18,18,18,18,18,18,18,18,18,18,18,18,18,18,18,18,18,18,18,18,18,18,18,18,18,18,18,18,18,18,18,18,18,18,18,18,18,18,18,18,18,18,18,19,
17,4,4,4,4,4,4,4,4,4,4,4,4,4,4,4,4,4,4,4,4,4,4,4,4,4,4,4,4,4,4,4,4,4,4,4,4,4,4,4,4,4,4,4,4,4,4,4,4,4,4,4,4,4,4,4,4,4,4,19,
17,4,4,4,4,4,4,4,4,4,4,4,4,4,4,4,4,4,4,4,4,4,4,4,4,4,4,4,4,4,4,4,4,4,4,4,4,4,4,4,4,4,4,4,4,4,4,4,4,4,4,4,4,4,4,4,4,4,4,19,
17,4,4,4,4,4,4,4,4,4,4,4,4,4,4,4,4,4,4,4,4,4,4,4,4,4,4,4,4,4,4,4,4,4,4,4,4,4,4,4,4,4,4,4,4,4,4,4,4,4,4,4,4,4,4,4,4,4,4,19,
17,4,4,4,4,4,4,4,4,4,4,4,4,4,4,4,4,4,4,4,4,4,4,4,4,4,4,4,4,4,4,4,4,4,4,4,4,4,4,4,4,4,4,4,4,4,4,4,4,4,4,4,4,4,4,4,4,4,4,19,
17,4,4,4,4,4,4,4,4,4,4,4,4,4,4,4,4,4,4,4,4,4,4,4,4,4,4,4,4,4,4,4,4,4,4,4,4,4,4,4,4,4,4,4,4,4,4,4,4,4,4,4,4,4,4,4,4,4,4,19,
17,4,4,4,4,4,4,4,4,18,18,18,18,18,18,18,18,18,18,18,18,18,18,18,18,18,18,18,18,18,18,18,18,18,18,18,18,18,18,18,18,18,18,18,18,18,18,18,18,18,18,18,18,18,18,18,18,18,18,19,
17,4,4,4,4,4,4,4,4,4,4,4,4,4,4,4,4,4,4,4,4,4,4,4,4,4,4,4,4,4,4,4,4,4,4,4,4,4,4,4,4,4,4,4,18,4,4,4,4,4,4,4,4,4,4,4,4,4,4,19,
17,4,4,4,4,4,4,4,4,4,4,4,4,4,4,4,4,4,4,4,4,4,4,4,4,4,4,4,4,4,4,4,4,4,4,4,4,4,4,4,4,4,4,4,18,4,4,4,4,4,4,4,4,4,4,4,4,4,4,19,
17,4,4,4,4,4,4,4,4,4,4,4,4,4,4,4,4,4,4,4,4,4,4,4,4,4,4,4,4,4,4,4,4,4,4,4,4,4,4,4,4,4,4,4,18,4,4,4,4,4,4,4,4,4,4,4,4,4,4,19,
17,4,4,4,4,4,4,4,4,4,4,4,4,4,4,4,4,4,4,4,4,4,4,4,4,4,4,4,4,4,4,4,4,4,4,4,4,4,4,4,4,4,4,4,18,4,4,4,4,4,4,4,4,4,4,4,4,4,4,19,
17,4,4,4,4,4,4,4,4,4,4,4,4,4,4,4,4,4,4,4,4,4,4,4,4,4,4,4,4,4,4,4,4,4,4,4,4,4,4,4,4,4,4,4,18,4,4,4,4,4,4,4,4,4,4,4,4,4,4,19,
33,34,34,34,34,34,34,34,34,34,34,34,34,34,34,34,34,34,34,34,34,34,34,34,34,34,34,34,34,34,34,34,34,34,34,34,34,34,34,34,34,34,34,34,34,34,34,34,34,34,34,34,34,34,34,34,34,34,34,35
</data>
 </layer>
 <objectgroup id="5" name="entities">
  <object id="1" name="player_spawn" x="69" y="589"/>
  <object id="88" name="server" x="896" y="112" width="32" height="32"/>
 </objectgroup>
 <layer id="11" name="Tile Layer 2" width="60" height="40">
  <data encoding="csv">
0,0,0,0,0,0,0,0,0,0,0,0,0,0,0,0,0,0,0,0,0,0,0,0,0,0,0,0,0,0,0,0,0,0,0,0,0,0,0,0,0,0,0,0,0,0,0,0,0,0,0,0,0,0,0,0,0,0,0,0,
0,0,0,0,0,0,0,0,0,0,0,0,0,0,0,0,0,0,0,0,0,0,0,0,0,0,0,0,0,0,0,0,0,0,0,0,0,0,0,0,0,0,0,0,0,0,0,0,0,0,0,0,0,0,0,0,0,0,0,74,
0,0,0,0,0,0,0,0,0,0,0,0,0,0,0,0,0,0,0,0,0,0,0,0,0,0,0,0,0,0,0,0,0,0,0,0,0,0,0,0,0,0,0,0,0,0,0,0,0,0,0,0,0,0,0,0,0,0,0,90,
0,0,0,0,0,0,0,0,0,0,0,0,0,0,0,0,0,0,0,0,0,0,0,0,0,0,0,0,0,0,0,0,0,0,0,0,0,0,0,0,0,0,0,0,0,0,0,0,0,0,0,0,0,0,0,0,0,0,0,57,
0,0,0,0,0,0,0,0,0,0,0,0,0,0,0,0,0,0,0,0,0,0,0,0,0,0,0,0,0,0,0,0,0,0,0,0,0,0,0,0,0,0,0,0,0,0,0,0,0,0,0,0,0,0,0,0,0,0,0,73,
0,0,0,0,0,0,0,0,0,0,0,0,0,0,0,0,0,0,0,0,0,0,0,0,0,0,0,0,0,0,0,0,0,0,0,0,0,0,0,0,0,0,0,0,0,0,0,0,0,0,0,0,0,56,0,0,0,0,0,89,
0,0,0,0,0,0,0,0,0,0,0,0,0,0,0,0,0,0,0,0,0,0,0,0,0,0,0,0,0,0,0,0,0,0,0,0,0,0,0,0,0,0,0,0,0,0,0,0,0,0,0,0,0,72,0,0,8,9,0,0,
0,0,0,0,0,0,0,0,0,0,0,0,0,0,0,0,0,0,0,0,0,0,0,0,0,0,0,0,0,0,0,0,0,0,0,0,0,0,0,0,0,0,0,0,0,0,0,0,0,0,0,0,0,72,0,0,24,25,0,57,
0,0,0,0,0,0,0,0,0,0,0,0,0,0,0,0,0,0,0,0,0,0,0,0,0,0,0,0,0,0,0,0,0,0,0,0,0,0,0,0,0,0,0,0,0,0,0,0,0,0,0,0,0,88,0,0,40,41,0,73,
0,0,0,0,0,0,0,0,0,0,0,0,0,0,0,0,0,0,0,0,0,0,0,0,0,0,0,0,0,0,0,0,0,0,0,0,0,0,0,0,0,0,0,0,0,0,0,0,0,0,0,0,0,0,0,0,0,0,0,89,
0,0,0,0,0,0,0,0,0,0,0,0,0,0,0,0,0,0,0,0,0,0,0,0,0,0,0,0,0,0,0,0,0,0,0,0,0,0,0,0,0,0,0,0,0,0,0,0,0,0,0,0,0,0,0,0,0,0,0,74,
0,0,0,0,0,0,0,0,0,0,0,0,0,0,0,0,0,0,0,0,0,0,0,0,0,0,0,0,0,0,0,0,0,0,0,0,0,0,0,0,0,0,0,0,0,0,0,0,0,0,0,0,0,0,0,0,0,0,0,90,
0,0,0,0,0,0,0,0,0,0,0,0,0,0,0,0,0,0,0,0,0,0,0,0,0,0,0,0,0,0,0,0,0,0,0,0,0,0,0,0,0,0,0,0,0,0,0,0,0,0,0,0,0,0,0,0,0,0,0,0,
0,0,0,0,0,0,0,0,0,0,0,0,0,0,0,0,0,0,0,0,0,0,0,0,0,0,0,0,0,0,0,0,0,0,0,0,0,0,0,0,0,0,0,0,0,0,0,0,0,0,0,0,0,0,0,0,0,0,0,74,
0,0,0,0,0,0,0,0,0,0,0,0,0,0,0,0,0,0,0,0,0,0,0,0,0,0,0,0,0,0,0,0,0,0,0,0,0,0,0,0,0,0,0,0,0,0,0,0,0,0,0,0,0,0,0,0,0,0,0,90,
0,0,0,0,0,0,0,0,0,0,0,0,0,0,0,0,0,0,0,0,0,0,0,0,0,0,0,0,0,0,0,0,0,0,0,0,0,0,0,0,0,0,0,0,0,0,0,0,0,0,0,0,0,0,0,0,0,0,0,0,
0,0,0,0,0,0,0,0,0,0,0,0,0,0,59,60,0,0,0,59,60,0,0,0,0,0,59,60,0,0,0,0,0,59,60,0,0,0,0,0,0,59,60,0,0,0,0,0,0,59,60,0,0,0,0,0,0,59,60,74,
0,0,0,0,0,0,0,0,0,0,0,0,0,0,75,76,0,0,0,75,76,0,0,0,0,0,75,76,0,0,0,0,0,75,76,0,0,0,0,0,0,75,76,0,0,0,0,0,0,75,76,0,0,0,0,0,0,75,76,90,
0,0,0,0,0,0,0,0,0,0,0,0,0,0,91,92,0,0,0,91,92,0,0,0,0,0,91,92,0,0,0,0,0,91,92,0,0,0,0,0,0,91,92,0,0,0,0,0,0,91,92,0,0,0,0,0,0,91,92,0,
0,0,0,0,0,0,0,0,0,0,0,0,0,0,0,0,0,0,0,0,0,0,0,0,0,0,0,0,0,0,0,0,0,0,0,0,0,0,0,0,0,0,0,0,0,0,0,0,0,0,0,0,0,0,0,0,0,0,0,74,
0,0,0,0,0,0,0,0,0,0,0,0,0,0,0,0,0,0,0,0,0,0,0,0,0,0,0,0,0,0,0,0,0,0,0,0,0,0,0,0,0,0,0,0,0,0,0,0,0,0,0,0,0,0,0,0,0,0,0,90,
0,0,0,0,0,0,0,0,0,0,0,0,0,0,0,0,0,0,0,0,0,0,0,0,0,0,0,0,0,0,0,0,0,0,0,0,0,0,0,0,0,0,0,0,0,0,0,0,0,0,0,0,0,0,0,0,0,0,0,0,
0,0,0,0,0,0,0,0,0,0,0,0,0,0,0,0,0,0,0,0,0,0,0,0,0,0,0,0,0,0,0,0,0,0,0,0,0,0,0,0,0,0,0,0,0,0,0,0,0,0,0,0,0,0,0,0,0,0,12,74,
0,0,0,0,0,0,0,0,0,0,0,0,0,0,0,0,0,0,0,0,0,0,0,0,0,0,0,0,0,0,0,0,0,0,0,0,0,0,0,0,0,0,0,0,0,0,0,0,0,0,0,0,0,0,0,0,0,0,28,90,
0,0,0,0,0,0,0,0,0,0,0,0,0,0,0,0,0,0,0,0,0,0,0,0,0,0,0,0,0,0,0,0,0,0,0,0,0,0,0,0,0,0,0,0,0,0,0,0,0,0,0,0,0,0,0,0,0,0,0,0,
0,0,0,0,0,0,0,0,0,0,0,0,0,0,0,0,0,0,0,0,0,0,0,0,0,0,0,0,0,0,0,0,0,0,0,0,0,0,0,0,0,0,0,0,0,0,0,0,0,0,0,0,0,0,0,0,0,0,12,74,
0,0,0,0,0,0,0,0,0,0,0,0,0,0,0,0,0,0,0,0,0,0,0,0,0,0,0,0,0,0,0,0,0,0,0,0,0,0,0,0,0,0,0,0,0,0,0,0,0,0,0,0,0,0,0,0,0,0,28,90,
0,0,0,0,0,0,0,0,0,0,0,0,0,0,0,0,0,0,0,0,0,0,0,0,0,0,0,0,0,0,0,0,0,0,0,0,0,0,0,0,0,0,0,0,0,0,0,0,0,0,0,0,0,0,0,0,0,0,0,74,
0,0,0,0,0,0,0,0,0,0,0,0,0,0,0,0,0,0,0,0,0,0,0,0,0,0,0,0,0,0,0,0,0,0,0,0,0,0,0,0,0,0,0,0,0,0,0,0,0,0,0,0,0,0,0,0,0,0,0,90,
0,0,0,0,0,0,0,0,0,0,0,0,0,0,0,0,0,0,0,0,0,0,0,0,0,0,0,0,0,0,0,0,0,0,0,0,0,0,0,0,0,0,0,0,0,0,0,0,0,0,0,0,0,0,0,0,0,0,0,0,
0,0,0,0,0,0,0,0,0,0,0,0,0,0,0,0,0,0,0,0,0,0,0,0,0,0,0,0,0,0,0,0,0,0,0,0,0,0,0,0,0,0,0,0,0,0,0,0,0,0,0,0,0,0,0,0,0,0,0,0,
0,0,0,0,0,0,0,0,0,0,0,0,0,0,0,0,0,0,0,0,0,0,0,0,0,0,0,0,0,0,0,0,0,0,0,0,0,0,0,0,0,0,0,0,0,0,0,0,0,0,0,0,0,0,0,0,0,0,0,74,
0,0,0,0,0,0,0,0,0,0,0,0,0,0,0,0,0,0,0,0,0,0,0,0,0,0,0,0,0,0,0,0,0,0,0,0,0,0,0,0,0,0,0,0,0,0,0,0,0,0,0,0,0,0,0,0,0,0,0,90,
0,0,0,0,0,0,0,0,0,0,0,0,0,0,0,0,0,0,0,0,0,0,0,0,0,0,0,0,0,0,0,0,0,0,0,0,0,0,0,0,0,0,0,0,0,0,0,0,0,0,0,0,0,0,0,0,0,0,0,0,
0,0,0,0,0,0,0,0,0,0,0,0,0,0,0,0,0,0,0,0,0,0,0,0,0,0,0,0,0,0,0,0,0,0,0,0,0,0,0,0,0,0,0,0,0,0,14,15,0,0,0,0,14,15,0,0,0,157,158,74,
0,0,0,0,0,0,0,0,0,0,0,0,0,0,0,0,0,0,0,0,0,0,0,0,0,0,0,0,0,0,0,0,0,0,0,0,0,0,0,0,0,0,0,0,0,0,30,31,0,0,0,0,30,31,0,0,0,165,166,90,
0,0,0,0,0,0,0,0,0,0,0,0,0,0,0,0,0,0,0,0,0,0,0,0,0,0,0,0,0,0,0,0,0,0,0,0,0,0,0,0,0,0,0,0,0,0,0,0,0,0,0,0,0,0,0,0,0,0,0,0,
0,0,0,0,0,0,0,0,0,0,0,0,0,0,0,0,0,0,0,0,0,0,0,0,0,0,0,0,0,0,0,0,0,0,0,0,0,0,0,0,0,0,0,0,0,0,14,15,0,0,0,0,14,15,0,0,0,157,158,74,
0,0,0,0,0,0,0,0,0,0,0,0,0,0,0,0,0,0,0,0,0,0,0,0,0,0,0,0,0,0,0,0,0,0,0,0,0,0,0,0,0,0,0,0,0,0,30,31,0,0,0,0,30,31,0,0,0,165,166,90,
0,0,0,0,0,0,0,0,0,0,0,0,0,0,0,0,0,0,0,0,0,0,0,0,0,0,0,0,0,0,0,0,0,0,0,0,0,0,0,0,0,0,0,0,0,0,0,0,0,0,0,0,0,0,0,0,0,0,0,0
</data>
 </layer>
 <objectgroup id="13" name="collisions">
  <object id="90" name="wall" x="3" y="3" width="13" height="637"/>
  <object id="91" name="wall" x="0" y="0" width="960" height="16"/>
  <object id="93" name="wall" x="944" y="7" width="15" height="633"/>
  <object id="96" name="wall" x="4" y="624" width="956" height="12"/>
  <object id="97" name="wall" x="144" y="527" width="813" height="17"/>
  <object id="98" name="wall" x="704" y="544" width="16" height="80"/>
  <object id="99" name="wall" x="144" y="432" width="816" height="16"/>
  <object id="100" name="wall" x="144" y="336" width="816" height="16"/>
  <object id="101" name="wall" x="144" y="240" width="816" height="16"/>
  <object id="102" name="wall" x="144" y="144" width="816" height="16"/>
  <object id="103" name="wall" x="144" y="64" width="767.25" height="16"/>
  <object id="104" name="wall" x="224" y="256" width="32" height="48"/>
  <object id="105" name="wall" x="304" y="256" width="32" height="48"/>
  <object id="106" name="wall" x="416" y="256" width="32" height="48"/>
  <object id="107" name="wall" x="528" y="256" width="32" height="48"/>
  <object id="108" name="wall" x="656" y="256" width="32" height="48"/>
  <object id="109" name="wall" x="784" y="256" width="32" height="48"/>
  <object id="110" name="wall" x="912" y="256" width="32" height="48"/>
  <object id="188" name="wall" x="848" y="80" width="16" height="64"/>
 </objectgroup>
 <objectgroup id="14" name="enemies">
  <object id="111" name="guard_start" x="32" y="496" width="16" height="16">
   <properties>
    <property name="id" type="int" value="1"/>
   </properties>
  </object>
  <object id="112" name="guard_end" x="128" y="432" width="16" height="16">
   <properties>
    <property name="id" type="int" value="1"/>
   </properties>
  </object>
  <object id="113" name="guard_start" x="112" y="336" width="16" height="16">
   <properties>
    <property name="id" type="int" value="2"/>
   </properties>
  </object>
  <object id="114" name="guard_end" x="48" y="400" width="16" height="16">
   <properties>
    <property name="id" type="int" value="2"/>
   </properties>
  </object>
  <object id="116" name="guard_start" x="48" y="320" width="16" height="16">
   <properties>
    <property name="id" type="int" value="3"/>
   </properties>
  </object>
  <object id="117" name="guard_end" x="112" y="240" width="16" height="16">
   <properties>
    <property name="id" type="int" value="3"/>
   </properties>
  </object>
  <object id="118" name="guard_start" x="48" y="176" width="16" height="16">
   <properties>
    <property name="id" type="int" value="4"/>
   </properties>
  </object>
  <object id="120" name="guard_end" x="128" y="64" width="16" height="16">
   <properties>
    <property name="id" type="int" value="4"/>
   </properties>
  </object>
  <object id="121" name="guard_end" x="48" y="48" width="16" height="16">
   <properties>
    <property name="id" type="int" value="5"/>
   </properties>
  </object>
  <object id="122" name="guard_start" x="112" y="144" width="16" height="16">
   <properties>
    <property name="id" type="int" value="5"/>
   </properties>
  </object>
  <object id="125" name="guard_start" x="48" y="256" width="16" height="16">
   <properties>
    <property name="id" type="int" value="6"/>
   </properties>
  </object>
  <object id="126" name="guard_end" x="128" y="176" width="16" height="16">
   <properties>
    <property name="id" type="int" value="6"/>
   </properties>
  </object>
  <object id="127" name="guard_start" x="80" y="448" width="16" height="16">
   <properties>
    <property name="id" type="int" value="7"/>
   </properties>
  </object>
  <object id="128" name="guard_end" x="128" y="512" width="16" height="16">
   <properties>
    <property name="id" type="int" value="7"/>
   </properties>
  </object>
  <object id="129" name="guard_start" x="224" y="448" width="16" height="16">
   <properties>
    <property name="id" type="int" value="8"/>
   </properties>
  </object>
  <object id="130" name="guard_end" x="336" y="512" width="16" height="16">
   <properties>
    <property name="id" type="int" value="8"/>
   </properties>
  </object>
  <object id="131" name="guard_start" x="496" y="464" width="16" height="16">
   <properties>
    <property name="id" type="int" value="9"/>
   </properties>
  </object>
  <object id="132" name="guard_end" x="224" y="512" width="16" height="16">
   <properties>
    <property name="id" type="int" value="9"/>
   </properties>
  </object>
  <object id="133" name="guard_start" x="736" y="464" width="16" height="16">
   <properties>
    <property name="id" type="int" value="10"/>
   </properties>
  </object>
  <object id="134" name="guard_end" x="448" y="512" width="16" height="16">
   <properties>
    <property name="id" type="int" value="10"/>
   </properties>
  </object>
  <object id="135" name="guard_start" x="336" y="464" width="16" height="16">
   <properties>
    <property name="id" type="int" value="11"/>
   </properties>
  </object>
  <object id="138" name="guard_end" x="624" y="496" width="16" height="16">
   <properties>
    <property name="id" type="int" value="11"/>
   </properties>
  </object>
  <object id="139" name="guard_start" x="896" y="464" width="16" height="16">
   <properties>
    <property name="id" type="int" value="12"/>
   </properties>
  </object>
  <object id="140" name="guard_end" x="784" y="512" width="16" height="16">
   <properties>
    <property name="id" type="int" value="12"/>
   </properties>
  </object>
  <object id="141" name="guard_start" x="226.667" y="369.333" width="13.3333" height="14.6667">
   <properties>
    <property name="id" type="int" value="13"/>
   </properties>
  </object>
  <object id="142" name="guard_end" x="624" y="416" width="16" height="16">
   <properties>
    <property name="id" type="int" value="13"/>
   </properties>
  </object>
  <object id="143" name="guard_start" x="640" y="368" width="16" height="16">
   <properties>
    <property name="id" type="int" value="14"/>
   </properties>
  </object>
  <object id="144" name="guard_end" x="304" y="416" width="16" height="16">
   <properties>
    <property name="id" type="int" value="14"/>
   </properties>
  </object>
  <object id="145" name="guard_start" x="416" y="352" width="16" height="16">
   <properties>
    <property name="id" type="int" value="15"/>
   </properties>
  </object>
  <object id="146" name="guard_end" x="416" y="416" width="16" height="16">
   <properties>
    <property name="id" type="int" value="15"/>
   </properties>
  </object>
  <object id="147" name="guard_start" x="848" y="352" width="16" height="16">
   <properties>
    <property name="id" type="int" value="16"/>
   </properties>
  </object>
  <object id="148" name="guard_end" x="768" y="416" width="16" height="16">
   <properties>
    <property name="id" type="int" value="16"/>
   </properties>
  </object>
  <object id="149" name="guard_start" x="192" y="160" width="16" height="16">
   <properties>
    <property name="id" type="int" value="17"/>
   </properties>
  </object>
  <object id="150" name="guard_end" x="864" y="176" width="16" height="16">
   <properties>
    <property name="id" type="int" value="17"/>
   </properties>
  </object>
  <object id="151" name="guard_start" x="864" y="224" width="16" height="16">
   <properties>
    <property name="id" type="int" value="18"/>
   </properties>
  </object>
  <object id="152" name="guard_end" x="192" y="224" width="16" height="16">
   <properties>
    <property name="id" type="int" value="18"/>
   </properties>
  </object>
  <object id="153" name="guard_start" x="336" y="176" width="16" height="16">
   <properties>
    <property name="id" type="int" value="19"/>
   </properties>
  </object>
  <object id="154" name="guard_end" x="736" y="224" width="16" height="16">
   <properties>
    <property name="id" type="int" value="19"/>
   </properties>
  </object>
  <object id="155" name="guard_start" x="752" y="176" width="16" height="16">
   <properties>
    <property name="id" type="int" value="20"/>
   </properties>
  </object>
  <object id="156" name="guard_end" x="368" y="224" width="16" height="16">
   <properties>
    <property name="id" type="int" value="20"/>
   </properties>
  </object>
  <object id="157" name="guard_start" x="496" y="176" width="16" height="16">
   <properties>
    <property name="id" type="int" value="21"/>
   </properties>
  </object>
  <object id="158" name="guard_end" x="656" y="224" width="16" height="16">
   <properties>
    <property name="id" type="int" value="21"/>
   </properties>
  </object>
  <object id="159" name="guard_start" x="656" y="176" width="16" height="16">
   <properties>
    <property name="id" type="int" value="22"/>
   </properties>
  </object>
  <object id="160" name="guard_end" x="464" y="224" width="16" height="16">
   <properties>
    <property name="id" type="int" value="22"/>
   </properties>
  </object>
  <object id="161" name="guard_start" x="176" y="80" width="16" height="16">
   <properties>
    <property name="id" type="int" value="23"/>
   </properties>
  </object>
  <object id="162" name="guard_end" x="272" y="128" width="16" height="16">
   <properties>
    <property name="id" type="int" value="23"/>
   </properties>
  </object>
  <object id="164" name="guard_start" x="272" y="80" width="16" height="16">
   <properties>
    <property name="id" type="int" value="24"/>
   </properties>
  </object>
  <object id="165" name="guard_end" x="352" y="128" width="16" height="16">
   <properties>
    <property name="id" type="int" value="24"/>
   </properties>
  </object>
  <object id="166" name="guard_start" x="352" y="80" width="16" height="16">
   <properties>
    <property name="id" type="int" value="25"/>
   </properties>
  </object>
  <object id="167" name="guard_end" x="416" y="128" width="16" height="16">
   <properties>
    <property name="id" type="int" value="25"/>
   </properties>
  </object>
  <object id="168" name="guard_start" x="416" y="80" width="16" height="16">
   <properties>
    <property name="id" type="int" value="26"/>
   </properties>
  </object>
  <object id="169" name="guard_end" x="480" y="128" width="16" height="16">
   <properties>
    <property name="id" type="int" value="26"/>
   </properties>
  </object>
  <object id="170" name="guard_start" x="480" y="80" width="16" height="16">
   <properties>
    <property name="id" type="int" value="27"/>
   </properties>
  </object>
  <object id="171" name="guard_end" x="608" y="128" width="16" height="16">
   <properties>
    <property name="id" type="int" value="27"/>
   </properties>
  </object>
  <object id="172" name="guard_start" x="624" y="80" width="16" height="16">
   <properties>
    <property name="id" type="int" value="28"/>
   </properties>
  </object>
  <object id="173" name="guard_end" x="736" y="128" width="16" height="16">
   <properties>
    <property name="id" type="int" value="28"/>
   </properties>
  </object>
  <object id="175" name="guard_start" x="736" y="80" width="16" height="16">
   <properties>
    <property name="id" type="int" value="29"/>
   </properties>
  </object>
  <object id="176" name="guard_end" x="832" y="128" width="16" height="16">
   <properties>
    <property name="id" type="int" value="29"/>
   </properties>
  </object>
  <object id="178" name="guard_start" x="848" y="80" width="16" height="16">
   <properties>
    <property name="id" type="int" value="30"/>
   </properties>
  </object>
  <object id="179" name="guard_end" x="544" y="80" width="16" height="16">
   <properties>
    <property name="id" type="int" value="30"/>
   </properties>
  </object>
  <object id="180" name="guard_start" x="803" y="100.5" width="13" height="11.5">
   <properties>
    <property name="id" type="int" value="31"/>
   </properties>
  </object>
  <object id="181" name="guard_end" x="176" y="112" width="16" height="16">
   <properties>
    <property name="id" type="int" value="31"/>
   </properties>
  </object>
  <object id="182" name="guard_start" x="310" y="129.5" width="10" height="14.5">
   <properties>
    <property name="id" type="int" value="32"/>
   </properties>
  </object>
  <object id="183" name="guard_end" x="224" y="80" width="16" height="16">
   <properties>
    <property name="id" type="int" value="32"/>
   </properties>
  </object>
  <object id="184" name="guard_start" x="448" y="128" width="16" height="16">
   <properties>
    <property name="id" type="int" value="33"/>
   </properties>
  </object>
  <object id="185" name="guard_end" x="384" y="80" width="16" height="16">
   <properties>
    <property name="id" type="int" value="33"/>
   </properties>
  </object>
  <object id="186" name="guard_start" x="565.5" y="130" width="10.5" height="14">
   <properties>
    <property name="id" type="int" value="34"/>
   </properties>
  </object>
  <object id="187" name="guard_end" x="512" y="80" width="16" height="16">
   <properties>
    <property name="id" type="int" value="34"/>
   </properties>
  </object>
 </objectgroup>
 <objectgroup id="10" name="key">
  <object id="89" name="key" x="912" y="192" width="16" height="16"/>
 </objectgroup>
</map>
