<?xml version="1.0" encoding="UTF-8"?>
<map version="1.10" tiledversion="1.12.2" orientation="orthogonal" renderorder="right-down" width="60" height="40" tilewidth="16" tileheight="16" infinite="0" nextlayerid="11" nextobjectid="88">
 <tileset firstgid="1" name="Map3" tilewidth="16" tileheight="16" tilecount="112" columns="16">
  <image source="tilesetAD/map4/Pixel Lands Dungeons Demo/Pixel Lands Dungeons Demo/dungeons_demo.png" width="256" height="112"/>
 </tileset>
 <tileset firstgid="113" name="3" tilewidth="16" tileheight="16" tilecount="72" columns="8">
  <image source="tilesetAD/map4/Pixel Lands Dungeons Demo/Pixel Lands Dungeons Demo/dungeons_demo_animated.png" width="128" height="144"/>
 </tileset>
 <tileset firstgid="185" name="farm" tilewidth="16" tileheight="16" tilecount="128" columns="16">
  <image source="tilesetAD/map4/Pixel Lands Farm Demo/Pixel Lands Farm Demo/objects_demo.png" width="256" height="128"/>
 </tileset>
 <tileset firstgid="313" name="farm1" tilewidth="16" tileheight="16" tilecount="128" columns="16">
  <image source="tilesetAD/map4/Pixel Lands Farm Demo/Pixel Lands Farm Demo/terrain_demo.png" width="256" height="128"/>
 </tileset>
 <tileset firstgid="441" name="Structure" tilewidth="16" tileheight="16" tilecount="2" columns="1">
  <image source="tilesetAD/map1/Dungeon Gathering Free Version/Structure.png" width="16" height="32"/>
 </tileset>
 <tileset firstgid="443" name="Set 1.0" tilewidth="16" tileheight="16" tilecount="48" columns="12">
  <image source="tilesetAD/map1/Dungeon Gathering Free Version/Set 1.0.png" width="192" height="64"/>
 </tileset>
 <tileset firstgid="491" name="Set 1.2" tilewidth="16" tileheight="16" tilecount="96" columns="16">
  <image source="tilesetAD/map1/Dungeon Gathering Free Version/Set 1.2.png" width="256" height="96"/>
 </tileset>
 <layer id="1" name="Tile Layer 1" width="60" height="40">
  <data encoding="csv">
1,2,2,2,2,2,2,2,2,2,2,2,2,2,2,2,2,2,2,2,2,2,2,2,2,2,2,2,2,2,2,2,2,2,2,2,2,2,2,2,2,2,2,2,2,2,2,18,2,2,2,2,2,2,2,2,2,2,2,3,
17,4,4,4,4,4,4,4,4,4,4,4,4,4,4,4,4,4,4,4,4,4,4,4,4,4,4,4,4,4,4,4,4,4,4,4,4,4,4,4,4,4,4,4,4,4,4,18,4,4,4,4,4,4,4,4,4,4,4,19,
17,4,4,4,4,4,4,4,4,4,4,4,4,4,4,4,4,4,4,4,4,4,4,4,4,4,4,4,4,4,4,4,4,4,4,4,4,4,4,4,4,4,4,4,4,4,4,18,4,4,4,4,4,4,4,4,4,4,4,19,
17,4,4,4,4,4,4,4,4,4,4,4,4,4,4,4,4,4,4,4,4,4,4,4,4,4,4,4,4,4,4,4,4,4,4,4,4,4,4,4,4,4,4,4,4,4,4,18,4,4,4,4,4,4,4,4,4,4,4,19,
17,4,4,4,4,4,4,4,4,4,4,4,4,4,4,4,4,4,4,4,4,4,4,4,4,4,4,4,4,4,4,4,4,4,4,4,4,4,4,4,4,4,4,4,4,4,4,18,4,4,4,4,4,4,4,4,4,4,4,19,
17,4,4,4,4,4,4,4,4,4,4,4,4,4,4,4,4,4,4,4,4,4,4,4,4,4,4,4,4,4,4,4,4,4,4,4,4,4,4,4,4,4,4,4,4,4,4,18,4,4,4,4,4,4,4,4,4,4,4,19,
17,4,4,4,4,4,4,4,4,4,4,4,4,4,4,4,4,4,4,4,4,4,4,4,4,4,4,4,4,4,4,4,4,4,4,4,4,4,4,4,4,4,4,4,4,4,4,18,4,4,4,4,18,4,4,4,4,4,4,19,
17,4,4,4,4,18,18,18,18,18,18,18,18,18,18,18,18,18,18,18,18,18,18,18,18,18,18,18,18,18,18,18,18,18,18,18,18,18,18,18,18,4,4,4,4,4,4,18,4,4,4,4,18,4,4,4,4,4,4,19,
17,4,4,4,4,4,4,4,4,4,4,4,4,4,4,4,4,4,4,4,4,4,4,4,4,4,4,4,4,4,4,4,4,4,4,4,4,4,4,4,18,4,4,4,4,4,4,18,4,4,4,4,18,4,4,4,4,4,4,19,
17,4,4,4,4,4,4,4,4,4,4,4,4,4,4,4,4,4,4,4,4,4,4,4,4,4,4,4,4,4,4,4,4,4,4,4,4,4,4,4,18,4,4,4,4,4,4,18,4,4,4,4,18,4,4,4,4,4,4,19,
17,4,4,4,4,4,4,4,4,4,4,4,4,4,4,4,4,4,4,4,4,4,4,4,4,4,4,4,4,4,4,4,4,4,4,4,4,4,4,4,18,4,4,4,4,4,4,18,4,4,4,4,18,4,4,4,4,4,4,19,
17,4,4,4,4,4,4,4,4,4,4,4,4,4,4,4,4,4,4,4,4,4,4,4,4,4,4,4,4,4,4,4,4,4,4,4,4,4,4,4,18,4,4,4,4,4,4,18,4,4,4,4,18,4,4,4,4,4,4,19,
17,4,4,4,4,4,4,4,4,4,4,4,4,4,4,4,4,4,4,4,4,4,4,4,4,4,4,4,4,4,4,4,4,4,4,4,4,4,4,4,18,4,4,4,4,4,4,18,4,4,4,4,18,4,4,4,4,4,4,19,
17,4,4,4,4,4,4,4,4,4,4,4,4,4,4,4,4,4,4,4,4,4,4,4,4,4,4,4,4,4,4,4,4,4,4,4,4,4,4,4,18,4,4,4,4,4,4,18,4,4,4,4,18,4,4,4,4,4,4,19,
17,4,4,4,4,4,4,4,4,4,4,4,4,4,4,4,4,4,4,4,4,4,4,4,4,4,4,4,4,4,4,4,4,4,4,4,4,4,4,4,18,4,4,4,4,4,4,18,4,4,4,4,18,4,4,4,4,4,4,19,
17,4,4,4,4,18,18,18,18,18,18,18,18,18,18,18,18,18,18,18,18,18,18,18,18,18,18,18,18,18,18,18,18,18,18,18,18,18,18,18,18,4,4,4,4,4,4,18,4,4,4,4,18,4,4,4,4,4,4,19,
17,4,4,4,4,4,4,4,4,4,4,4,4,4,4,4,4,4,4,4,4,4,4,4,4,4,4,4,4,4,4,4,4,4,4,4,4,4,4,4,18,4,4,4,4,4,4,18,4,4,4,4,18,4,4,4,4,4,4,19,
17,4,4,4,4,4,4,4,4,4,4,4,4,4,4,4,4,4,4,4,4,4,4,4,4,4,4,4,4,4,4,4,4,4,4,4,4,4,4,4,18,2,2,4,4,2,2,18,4,4,4,4,18,4,4,4,4,4,4,19,
17,4,4,4,4,4,4,4,4,4,4,4,4,4,4,4,4,4,4,4,4,4,4,4,4,4,4,4,4,4,4,4,4,4,4,4,4,4,4,4,18,4,4,4,4,4,4,18,4,4,4,4,18,4,4,4,4,4,4,19,
17,4,4,4,4,4,4,4,4,4,4,4,4,4,4,4,4,4,4,4,4,4,4,4,4,4,4,4,4,4,4,4,4,4,4,4,4,4,4,4,18,4,4,4,4,4,4,18,4,4,4,4,18,4,4,4,4,4,4,19,
17,4,4,4,4,4,4,4,4,4,4,4,4,4,4,4,4,4,4,4,4,4,4,4,4,4,4,4,4,4,4,4,4,4,4,4,4,4,4,4,18,4,4,4,4,4,4,18,4,4,4,4,18,4,4,4,4,4,4,19,
17,18,18,18,18,18,18,18,18,18,18,18,18,18,18,18,18,18,18,18,18,18,18,18,18,18,18,18,18,18,18,18,18,18,18,4,4,4,4,4,18,4,4,4,4,4,4,18,4,4,4,4,18,4,4,4,4,4,4,19,
17,4,4,4,4,4,4,4,4,4,4,4,4,4,4,4,4,4,4,4,4,4,4,4,4,4,4,4,4,4,4,4,4,4,18,4,4,4,4,4,18,4,4,4,4,4,4,18,4,4,4,4,18,4,4,4,4,4,4,19,
17,4,4,4,4,4,4,4,4,4,4,4,4,4,4,4,4,4,4,4,4,4,4,4,4,4,4,4,4,4,4,4,4,4,18,4,4,4,4,4,18,18,18,18,18,18,18,18,4,4,4,4,18,4,4,4,4,4,4,19,
17,4,4,4,4,4,4,4,4,4,4,4,4,4,4,4,4,4,4,4,4,4,4,4,4,4,4,4,4,4,4,4,4,4,18,4,4,4,4,4,4,4,4,4,4,4,4,4,4,4,4,4,18,4,4,4,4,4,4,19,
17,4,4,4,4,4,4,4,4,4,4,4,4,4,4,4,4,4,4,4,4,4,4,4,4,4,4,4,4,4,4,4,4,4,18,4,4,4,4,4,4,4,4,4,4,4,4,4,4,4,4,4,18,4,4,4,4,4,4,19,
17,4,4,4,4,4,4,4,4,4,4,4,4,4,4,4,4,4,4,4,4,4,4,4,4,4,4,4,4,4,4,4,4,4,18,4,4,4,4,4,4,4,4,4,4,4,4,4,4,4,4,4,18,4,4,4,4,4,4,19,
17,4,4,4,4,4,4,4,4,4,4,4,4,4,4,4,4,4,4,4,4,4,4,4,4,4,4,4,4,4,4,4,4,4,18,4,4,4,4,4,4,4,4,4,4,4,4,4,4,4,4,4,18,4,4,4,4,4,4,19,
17,4,4,4,4,4,4,4,4,4,4,4,4,4,4,4,4,4,4,4,4,4,4,4,4,4,4,4,4,4,4,4,4,4,18,4,4,4,4,4,4,4,4,4,4,4,4,4,4,4,4,4,18,4,4,4,4,4,4,19,
17,4,4,4,4,4,4,4,4,4,4,4,4,4,4,4,4,4,4,4,4,4,4,4,4,4,4,4,4,4,4,4,4,4,18,4,4,4,4,4,4,4,4,4,4,4,4,4,4,4,4,4,18,4,4,4,4,4,4,19,
17,4,4,4,4,4,4,4,18,18,18,18,18,18,18,18,18,18,18,18,18,18,18,18,18,18,18,18,4,4,4,4,4,4,18,18,18,18,18,18,18,18,18,18,18,18,18,18,18,18,18,18,18,4,4,4,4,4,4,19,
17,4,4,4,4,4,4,4,18,4,4,4,4,4,4,4,4,4,4,4,4,4,4,4,4,4,4,18,4,4,4,4,4,4,4,4,4,4,4,4,4,4,4,4,4,4,4,4,4,4,4,4,4,4,4,4,4,4,4,19,
17,4,4,4,4,4,4,4,18,4,4,4,4,4,4,4,4,4,4,4,4,4,4,4,4,4,4,18,4,4,4,4,4,4,4,4,4,4,4,4,4,4,4,4,4,4,4,4,4,4,4,4,4,4,4,4,4,4,4,19,
17,4,4,4,4,4,4,4,18,4,4,4,4,4,4,4,4,4,4,4,4,4,4,4,4,4,4,18,4,4,4,4,4,4,4,4,4,4,4,4,4,4,4,4,4,4,4,4,4,4,4,4,4,4,4,4,4,4,4,19,
17,4,4,4,4,4,4,4,18,4,4,4,4,4,4,4,4,4,4,4,4,4,4,4,4,4,4,18,4,4,4,4,4,4,4,4,4,4,4,4,4,4,4,4,4,4,4,4,4,4,4,4,4,4,4,4,4,4,4,19,
17,4,4,4,4,4,4,4,18,4,4,4,4,4,4,4,4,4,4,4,4,4,4,4,4,4,4,18,4,4,4,4,4,4,4,4,4,4,4,4,4,4,4,4,4,4,4,4,4,4,4,4,4,4,4,4,4,4,4,19,
17,4,4,4,4,4,4,4,18,4,4,34,34,34,34,34,34,34,34,34,34,34,34,34,34,34,34,35,4,4,4,4,4,4,4,4,4,4,4,4,4,4,4,4,4,4,4,4,4,4,4,4,4,4,4,4,4,4,4,19,
17,4,4,4,4,4,4,4,18,4,4,4,4,4,4,4,4,4,4,4,4,4,4,4,4,4,4,4,4,4,4,4,4,4,4,4,4,4,4,4,4,4,4,4,4,4,4,4,4,4,4,4,4,4,4,4,4,4,4,19,
17,4,4,4,4,4,4,4,18,4,4,4,4,4,4,4,4,4,4,4,4,4,4,4,4,4,4,4,4,4,4,4,4,4,4,4,4,4,4,4,4,4,4,4,4,4,4,4,4,4,4,4,4,4,4,4,4,4,4,19,
33,34,34,34,34,34,34,34,34,34,34,34,34,34,34,34,34,34,34,34,34,34,34,34,34,34,34,34,34,34,34,34,34,34,34,34,34,34,34,34,34,34,34,34,34,34,34,34,34,34,34,34,34,34,34,34,34,34,34,35
</data>
 </layer>
 <layer id="8" name="Tile Layer 2" width="60" height="40" locked="1">
  <data encoding="csv">
0,0,0,0,0,0,0,0,0,0,0,0,0,0,0,0,0,0,0,0,0,0,0,0,0,0,0,0,0,0,0,0,0,0,0,0,0,0,0,0,0,0,0,0,0,0,0,0,0,0,0,0,0,0,0,0,0,0,0,0,
0,0,0,0,0,0,0,0,0,0,0,0,0,0,0,0,0,0,0,0,0,0,0,0,0,0,0,0,0,0,0,0,0,0,0,0,0,0,0,0,0,0,0,0,0,0,0,0,0,0,0,0,0,0,0,0,0,0,0,0,
0,0,0,0,0,0,0,0,0,0,0,0,0,0,0,0,0,0,0,0,0,0,0,0,0,0,0,0,0,0,0,0,0,0,0,0,0,0,0,0,0,0,0,0,0,0,0,0,0,0,0,0,0,0,0,0,0,0,0,0,
0,0,0,0,0,0,0,0,0,0,0,0,0,0,0,0,0,0,0,0,0,0,0,0,0,0,0,0,0,0,0,0,0,0,0,0,0,0,0,0,0,0,0,0,0,0,0,0,0,0,0,0,0,0,0,0,0,0,0,0,
0,0,0,0,0,0,0,0,0,0,0,0,0,0,0,0,0,0,0,0,0,0,0,0,0,0,0,0,0,0,0,0,0,0,0,0,0,0,0,0,0,0,0,0,0,0,0,0,0,0,0,0,0,0,0,0,0,0,0,0,
0,0,0,0,0,0,0,0,0,0,0,0,0,0,0,0,0,0,0,0,0,0,0,0,0,0,0,0,0,0,0,0,0,0,0,0,0,0,0,0,0,0,0,0,0,0,0,0,0,0,0,0,0,0,0,0,0,0,0,0,
0,0,0,0,0,0,0,0,0,0,0,0,0,0,0,0,0,0,0,0,0,0,0,0,0,0,0,0,0,0,0,0,0,0,0,0,0,0,0,0,0,0,0,0,0,0,0,0,0,0,0,0,0,0,0,0,0,0,0,0,
0,0,0,0,0,0,0,0,0,0,0,0,0,0,0,0,0,0,0,0,0,0,0,0,0,0,0,0,0,0,0,0,0,0,0,0,0,0,0,0,0,0,0,0,0,0,0,0,0,0,0,0,0,0,0,0,0,0,0,0,
0,0,0,0,0,0,0,0,0,0,0,0,0,0,0,0,0,0,0,0,0,0,0,0,0,0,0,0,0,0,0,0,0,0,0,0,0,0,0,0,0,0,0,0,0,0,0,0,0,0,0,0,0,0,0,0,0,0,0,0,
0,0,0,0,0,0,0,0,0,0,0,0,0,0,0,0,0,0,0,0,0,0,0,0,0,0,0,0,0,0,0,0,0,0,0,0,0,0,0,0,0,0,0,0,0,0,0,0,0,0,0,0,0,0,0,0,0,0,0,0,
0,0,0,0,0,0,0,0,0,0,0,0,0,0,0,0,0,0,0,0,0,0,0,0,0,0,0,0,0,0,0,0,0,0,0,0,0,0,0,0,0,0,0,0,0,0,0,0,0,0,0,0,0,0,0,0,0,0,0,0,
0,0,0,0,0,0,0,0,0,0,0,0,0,0,0,0,0,0,0,0,0,0,0,0,0,0,0,0,0,0,0,0,0,0,0,0,0,0,0,0,0,0,0,0,0,0,0,0,0,0,0,0,0,0,0,0,0,0,0,0,
0,0,0,0,0,0,0,0,0,0,0,0,0,0,0,0,0,0,0,0,0,0,0,0,0,0,0,0,0,0,0,0,0,0,0,0,0,0,0,0,0,0,0,0,0,0,0,0,0,0,0,0,0,0,0,0,0,0,0,0,
0,0,0,0,0,0,0,0,0,0,0,0,0,0,0,0,0,0,0,0,0,0,0,0,0,0,0,0,0,0,0,0,0,0,0,0,0,0,0,0,0,0,0,0,0,0,0,0,0,0,0,0,0,0,0,0,0,0,0,0,
0,0,0,0,0,0,0,0,0,0,0,0,0,0,0,0,0,0,0,0,0,0,0,0,0,0,0,0,0,0,0,0,0,0,0,0,0,0,0,0,0,0,0,0,0,0,0,0,0,0,0,0,0,0,0,0,0,0,0,0,
0,0,0,0,0,0,0,0,0,0,0,0,0,0,0,0,0,0,0,0,0,0,0,0,0,0,0,0,0,0,0,0,0,0,0,0,0,0,0,0,0,0,0,0,0,0,0,0,0,0,0,0,0,0,0,0,0,0,0,0,
0,0,0,0,0,0,0,0,0,0,0,0,0,0,0,0,0,0,0,0,0,0,0,0,0,0,0,0,0,0,0,0,0,0,0,0,0,0,0,0,74,0,0,0,0,0,0,74,0,0,0,0,0,0,0,0,0,0,0,0,
0,0,0,0,0,0,0,0,0,0,0,0,0,0,0,0,0,0,0,0,0,0,0,0,0,0,0,0,0,0,0,0,0,0,0,0,0,0,0,0,90,0,0,0,0,0,0,90,0,0,0,0,0,0,0,0,0,0,0,0,
0,0,0,0,0,0,0,0,0,0,0,0,0,0,0,0,0,0,0,0,0,0,0,0,0,0,0,0,0,0,0,0,0,0,0,0,0,0,0,0,0,0,0,0,0,0,0,0,0,0,0,0,0,0,0,0,0,0,0,0,
0,0,0,0,0,0,0,0,0,0,0,0,0,0,0,0,0,0,0,0,0,0,0,0,0,0,0,0,0,0,0,0,0,0,0,0,0,0,0,0,0,0,0,0,0,0,0,0,0,0,0,0,0,0,0,0,0,0,0,0,
0,0,0,0,0,0,0,0,0,0,0,0,0,0,0,0,0,0,0,0,0,0,0,0,0,0,0,0,0,0,0,0,0,0,0,0,0,0,0,0,74,56,0,8,9,0,56,74,0,0,0,0,0,0,0,0,0,0,0,0,
0,0,0,0,0,0,0,0,0,0,0,0,0,0,0,0,0,0,0,0,0,0,0,0,0,0,0,0,0,0,0,0,0,0,0,0,0,0,0,0,90,72,0,24,25,0,72,90,0,0,0,0,0,0,0,0,0,0,0,0,
0,0,0,0,0,0,0,0,0,0,0,0,0,0,0,0,0,0,0,0,0,0,0,0,0,0,0,0,0,0,0,0,0,0,0,0,0,0,0,0,0,88,0,40,41,0,88,0,0,0,0,0,0,0,0,0,0,0,0,0,
0,0,0,0,0,0,0,0,0,0,0,0,0,0,0,0,0,0,0,0,0,0,0,0,0,0,0,0,0,0,0,0,0,0,0,0,0,0,0,0,0,0,0,0,0,0,0,0,0,0,0,0,0,0,0,0,0,0,0,0,
0,0,0,0,0,0,0,0,0,0,0,0,0,0,0,0,0,0,0,0,0,0,0,0,0,0,0,0,0,0,0,0,0,0,0,0,0,0,0,0,0,0,0,0,0,0,0,0,0,0,0,0,0,0,0,0,0,0,0,0,
0,0,0,0,0,0,0,0,0,0,0,0,0,0,0,0,0,0,0,0,0,0,0,0,0,0,0,0,0,0,0,0,0,0,0,0,0,0,0,0,0,0,0,0,0,0,0,0,0,0,0,0,0,0,0,0,0,0,0,0,
0,0,0,0,0,0,0,0,0,0,0,0,0,0,0,0,0,0,0,0,0,0,0,0,0,0,0,0,0,0,0,0,0,0,0,0,0,0,0,0,0,0,0,0,0,0,0,0,0,0,0,0,0,0,0,0,0,0,0,0,
0,0,0,0,0,0,0,0,0,0,0,0,0,0,0,0,0,0,0,0,0,0,0,0,0,0,0,0,0,0,0,0,0,0,0,0,0,0,0,0,0,0,0,0,0,0,0,0,0,0,0,0,0,0,0,0,0,0,0,0,
0,0,0,0,0,0,0,0,0,0,0,0,0,0,0,0,0,0,0,0,0,0,0,0,0,0,0,0,0,0,0,0,0,0,0,0,0,0,0,0,0,0,0,0,0,0,0,0,0,0,0,0,0,0,0,0,0,0,0,0,
0,0,0,0,0,0,0,0,0,0,0,0,0,0,0,0,0,0,0,0,0,0,0,0,0,0,0,0,0,0,0,0,0,0,0,0,0,0,0,0,0,0,0,0,0,0,0,0,0,0,0,0,0,0,0,0,0,0,0,0,
0,0,0,0,0,0,0,0,0,0,0,0,0,0,0,0,0,0,0,0,0,0,0,0,0,0,0,0,0,0,0,0,0,0,0,0,0,0,0,0,0,0,0,0,0,0,0,0,0,0,0,0,0,0,0,0,0,0,0,0,
0,0,0,0,0,0,0,0,0,0,0,0,0,0,0,0,0,0,0,0,0,0,0,0,0,0,0,0,0,0,0,0,0,0,0,0,0,0,0,0,0,0,0,0,0,0,0,0,0,0,0,0,0,0,0,0,0,0,0,0,
0,0,0,0,0,0,0,0,0,0,0,0,0,0,0,0,0,0,0,0,0,0,0,0,0,0,0,0,0,0,0,0,0,0,0,0,0,0,0,0,0,0,0,0,0,0,0,0,0,0,0,0,0,0,0,0,0,0,0,0,
0,0,0,0,0,0,0,0,0,0,0,0,0,0,0,0,0,0,0,0,0,0,0,0,0,0,0,0,0,0,0,0,0,0,0,0,0,0,0,0,0,0,0,0,0,0,0,0,0,0,0,0,0,0,0,0,0,0,0,0,
0,0,0,0,0,0,0,0,0,0,0,0,0,0,0,0,0,0,0,0,0,0,0,0,0,0,0,0,0,0,0,0,0,0,0,0,0,0,0,0,0,0,0,0,0,0,0,0,0,0,0,0,0,0,0,0,0,0,0,0,
0,0,0,0,0,0,0,0,0,0,0,0,0,0,0,0,0,0,0,0,0,0,0,0,0,0,0,0,0,0,0,0,0,0,0,0,0,0,0,0,0,0,0,0,0,0,0,0,0,0,0,0,0,0,0,0,0,0,0,0,
0,0,0,0,0,0,0,0,0,0,0,0,0,0,0,0,0,0,0,0,0,0,0,0,0,0,0,0,0,0,0,0,0,0,0,0,0,0,0,0,0,0,0,0,0,0,0,0,0,0,0,0,0,0,0,0,0,0,0,0,
0,0,0,0,0,0,0,0,0,0,0,0,0,0,0,0,0,0,0,0,0,0,0,0,0,0,0,0,0,0,0,0,0,0,0,0,0,0,0,0,0,0,0,0,0,0,0,0,0,0,0,0,0,0,0,0,0,0,0,0,
0,0,0,0,0,0,0,0,0,0,0,0,0,0,0,0,0,0,0,0,0,0,0,0,0,0,0,0,0,0,0,0,0,0,0,0,0,0,0,0,0,0,0,0,0,0,0,0,0,0,0,0,0,0,0,0,0,0,0,0,
0,0,0,0,0,0,0,0,0,0,0,0,0,0,0,0,0,0,0,0,0,0,0,0,0,0,0,0,0,0,0,0,0,0,0,0,0,0,0,0,0,0,0,0,0,0,0,0,0,0,0,0,0,0,0,0,0,0,0,0
</data>
 </layer>
 <layer id="9" name="Tile Layer 3" width="60" height="40" locked="1">
  <data encoding="csv">
0,0,0,0,0,0,0,0,0,0,0,0,0,0,0,0,0,0,0,0,0,0,0,0,0,0,0,0,0,0,0,0,0,0,0,0,0,0,0,0,0,0,0,0,0,0,0,0,0,0,0,0,0,0,0,0,0,0,0,0,
0,0,0,0,0,0,0,0,0,0,0,0,0,0,0,0,0,0,0,0,0,0,0,0,0,0,0,0,0,0,0,0,0,0,0,0,0,0,0,0,0,0,0,0,0,0,0,0,0,0,0,0,0,0,0,0,0,0,0,0,
0,0,0,0,0,0,0,0,0,0,0,0,0,0,0,0,0,0,0,0,0,0,0,0,0,0,0,0,0,0,0,0,0,0,0,0,0,0,0,0,0,0,0,0,0,0,0,0,0,0,0,0,0,0,0,0,0,0,0,0,
0,0,0,0,0,0,0,0,0,0,0,0,0,0,0,0,0,0,0,0,0,0,0,0,0,0,0,0,0,0,0,0,0,0,0,0,0,0,0,0,0,0,0,0,0,0,0,0,0,0,0,0,0,0,0,0,0,0,0,0,
0,0,0,0,0,0,0,0,0,0,0,0,0,0,0,0,0,0,0,0,0,0,0,0,0,0,0,0,0,0,0,0,0,0,0,0,0,0,0,0,0,0,0,0,0,0,0,0,0,0,0,0,0,0,0,0,0,0,0,0,
0,0,0,0,0,0,0,0,0,0,0,0,0,0,0,0,0,0,0,0,0,0,0,0,0,0,0,0,0,0,0,0,0,0,0,0,0,0,0,0,0,0,0,0,0,0,0,0,0,0,0,0,0,0,0,0,0,0,0,0,
0,0,0,0,0,0,0,0,0,0,0,0,0,0,0,0,0,0,0,0,0,0,0,0,0,0,0,0,0,0,0,0,0,0,0,0,0,0,0,0,0,0,0,0,0,0,0,0,0,0,0,0,0,0,0,0,0,0,0,0,
0,0,0,0,0,0,0,0,0,0,0,0,0,0,0,0,0,0,0,0,0,0,0,0,0,0,0,0,0,0,0,0,0,0,0,0,0,0,0,0,0,0,0,0,0,0,0,0,0,0,0,0,0,0,0,0,0,0,0,0,
0,0,0,0,0,0,0,0,0,0,0,0,0,0,0,0,0,0,0,0,0,0,0,0,0,0,0,0,0,0,0,0,0,59,60,0,0,0,59,60,0,0,0,0,0,0,0,0,0,0,0,0,0,0,0,0,0,0,0,0,
0,0,0,0,0,0,0,0,0,0,0,0,0,0,0,0,0,0,0,0,0,0,0,0,0,0,0,0,0,0,0,0,0,75,76,0,0,0,75,76,0,0,0,0,0,0,0,0,0,0,0,0,0,0,0,0,0,0,0,0,
0,0,0,0,0,0,0,0,0,0,0,0,0,0,0,0,0,0,0,0,0,0,0,0,0,0,0,0,0,0,0,0,0,91,92,0,0,0,91,92,0,0,0,0,0,0,0,0,0,0,0,0,0,0,0,0,0,0,0,0,
0,0,0,0,0,0,0,0,0,0,0,0,0,0,0,0,0,0,0,0,0,0,0,0,0,0,0,0,0,0,0,0,0,0,0,0,0,0,0,0,0,0,0,0,0,0,0,0,0,0,0,0,0,0,0,0,0,0,0,0,
0,0,0,0,0,0,0,0,0,0,0,0,0,0,0,0,0,0,0,0,0,0,0,0,0,0,0,0,0,0,0,0,0,59,60,0,0,0,59,60,0,0,0,0,0,0,0,0,0,0,0,0,0,0,0,0,0,0,0,0,
0,0,0,0,0,0,0,0,0,0,0,0,0,0,0,0,0,0,0,0,0,0,0,0,0,0,0,0,0,0,0,0,0,75,76,0,0,0,75,76,0,0,0,0,0,0,0,0,0,0,0,0,0,0,0,0,0,0,0,0,
0,0,0,0,0,0,0,0,0,0,0,0,0,0,0,0,0,0,0,0,0,0,0,0,0,0,0,0,0,0,0,0,0,91,92,0,0,0,91,92,0,0,0,0,0,0,0,0,0,0,0,0,0,0,0,0,0,0,0,0,
0,0,0,0,0,0,0,0,0,0,0,0,0,0,0,0,0,0,0,0,0,0,0,0,0,0,0,0,0,0,0,0,0,0,0,0,0,0,0,0,0,0,0,0,0,0,0,0,0,0,0,0,0,0,0,0,0,0,0,0,
0,0,0,0,0,0,0,0,0,0,0,0,0,0,0,0,0,0,0,0,0,0,0,0,0,0,0,0,0,0,0,0,0,0,0,0,0,0,0,0,0,0,0,0,0,0,0,0,0,0,0,0,0,0,0,0,0,0,0,0,
0,0,0,0,0,0,0,0,0,0,0,0,0,0,0,0,0,0,0,0,0,0,0,0,0,0,0,0,0,0,0,0,0,0,0,0,0,0,0,0,0,0,0,0,0,0,0,0,0,0,0,0,0,0,0,0,0,0,0,0,
0,0,0,0,0,0,0,0,0,0,0,0,0,0,0,0,0,0,0,0,0,0,0,0,0,0,0,0,0,0,0,0,0,0,0,0,0,0,0,0,0,0,0,0,0,0,0,0,0,0,0,0,0,0,0,0,0,0,0,0,
0,0,0,0,0,0,0,0,0,0,0,0,0,0,0,0,0,0,0,0,0,0,0,0,0,0,0,0,0,0,0,0,0,0,0,0,0,0,0,0,0,74,0,0,0,0,74,0,0,0,0,0,0,0,0,0,0,0,0,0,
0,0,0,0,0,0,0,0,0,0,0,0,0,0,0,0,0,0,0,0,0,0,0,0,0,0,0,0,0,0,0,0,0,0,0,0,0,0,0,0,0,90,0,0,0,0,90,0,0,0,0,0,0,0,0,0,0,0,0,0,
0,0,0,0,0,0,0,0,0,0,0,0,0,0,0,0,0,0,0,0,0,0,0,0,0,0,0,0,0,0,0,0,0,0,0,0,0,0,0,0,0,0,0,0,0,0,0,0,0,0,0,0,0,0,0,0,0,0,0,0,
0,0,0,0,0,0,0,0,0,0,0,0,0,0,0,0,0,0,0,0,0,0,0,0,0,0,0,0,0,0,0,0,0,0,0,0,0,0,0,0,0,0,0,0,0,0,0,0,0,0,0,0,0,0,0,0,0,0,0,0,
0,0,0,0,0,0,0,0,0,0,0,0,0,0,0,0,0,0,0,0,0,0,0,0,0,0,0,0,0,0,0,0,0,0,0,0,0,0,0,0,0,0,0,0,0,0,0,0,0,0,0,0,0,0,0,0,0,0,0,0,
0,0,0,0,0,0,0,0,0,0,0,0,0,0,0,0,0,0,0,0,0,0,0,0,0,0,0,0,0,0,0,0,0,0,0,0,0,0,0,0,0,0,0,0,0,0,0,0,0,0,0,0,0,0,0,0,0,0,0,0,
0,0,0,0,0,0,0,0,0,0,0,0,0,0,0,0,0,0,0,0,0,0,0,0,0,0,0,0,0,0,0,0,0,0,0,0,0,0,0,0,0,0,0,0,0,0,0,0,0,0,0,0,0,0,0,0,0,0,0,0,
0,0,0,0,0,0,0,0,0,0,0,0,0,0,0,0,0,0,0,0,0,0,0,0,0,0,0,0,0,0,0,0,0,0,0,0,0,0,0,0,0,0,0,0,0,0,0,0,0,0,0,0,0,0,0,0,0,0,0,0,
0,0,0,0,0,0,0,0,0,0,0,0,0,0,0,0,0,0,0,0,0,0,0,0,0,0,0,0,0,0,0,0,0,0,0,0,0,0,0,0,0,0,0,0,0,0,0,0,0,0,0,0,0,0,0,0,0,0,0,0,
0,0,0,0,0,0,0,0,0,0,0,0,0,0,0,0,0,0,0,0,0,0,0,0,0,0,0,0,0,0,0,0,0,0,0,0,0,0,0,0,0,0,0,0,0,0,0,0,0,0,0,0,0,0,0,0,0,0,0,0,
0,0,0,0,0,0,0,0,0,0,0,0,0,0,0,0,0,0,0,0,0,0,0,0,0,0,0,0,0,0,0,0,0,0,0,0,0,0,0,0,0,0,0,0,0,0,0,0,0,0,0,0,0,0,0,0,0,0,0,0,
0,0,0,0,0,0,0,0,0,0,0,0,0,0,0,0,0,0,0,0,0,0,0,0,0,0,0,0,0,0,0,0,0,0,0,0,0,0,0,0,0,0,0,0,0,0,0,0,0,0,0,0,0,0,0,0,0,0,0,0,
0,0,0,0,0,0,0,0,0,56,59,60,59,60,59,60,59,60,59,60,59,60,59,60,59,60,56,0,0,0,0,0,0,0,0,0,0,0,0,0,0,0,0,0,0,0,0,0,0,0,0,0,0,0,0,0,0,0,0,0,
0,0,0,0,0,0,0,0,0,72,75,76,75,76,75,76,75,76,75,76,75,76,75,76,75,76,72,0,0,0,0,0,0,0,0,0,0,0,0,0,0,0,0,0,0,0,0,0,0,0,0,0,0,0,0,0,0,0,0,0,
0,0,0,0,0,0,0,0,0,88,91,92,91,92,91,92,91,92,91,92,91,92,91,92,91,92,88,0,0,0,0,0,0,0,0,0,0,0,0,0,0,0,0,0,0,0,0,0,0,0,0,0,0,0,0,0,0,0,0,0,
0,0,0,0,0,0,0,0,0,6,7,14,15,14,15,14,15,14,15,14,15,14,15,14,15,14,15,0,0,0,0,0,0,0,0,0,0,0,0,0,0,0,0,0,0,0,0,0,0,0,0,0,0,0,0,0,0,0,0,0,
0,0,0,0,0,0,0,0,0,22,23,30,31,30,31,30,31,30,31,30,31,30,31,30,31,30,31,0,0,0,0,0,0,0,0,0,0,0,0,0,0,0,0,0,0,0,0,0,0,0,0,0,0,0,0,0,0,0,0,0,
0,0,0,0,0,0,0,0,0,38,39,0,0,0,0,0,0,0,0,0,0,0,0,0,0,0,0,0,0,0,0,0,0,0,0,0,0,0,0,0,0,0,0,0,0,0,0,0,0,0,0,0,0,0,0,0,0,0,0,0,
0,0,0,0,0,0,0,0,0,10,0,0,0,0,0,0,0,0,0,0,0,0,0,0,0,0,0,0,0,0,0,0,0,0,0,0,0,0,0,0,0,0,0,0,0,0,0,0,0,0,0,0,0,0,0,0,0,0,0,0,
0,0,0,0,0,0,0,0,0,26,0,0,0,0,0,0,0,0,0,0,0,0,0,0,0,0,0,0,0,0,0,0,0,0,0,0,0,0,0,0,0,0,0,0,0,0,0,0,0,0,0,0,0,0,0,0,0,0,0,0,
0,0,0,0,0,0,0,0,0,0,0,0,0,0,0,0,0,0,0,0,0,0,0,0,0,0,0,0,0,0,0,0,0,0,0,0,0,0,0,0,0,0,0,0,0,0,0,0,0,0,0,0,0,0,0,0,0,0,0,0
</data>
 </layer>
 <objectgroup id="7" name="enemies" visible="0" locked="1">
  <object id="28" name="guard_start" x="49" y="383" width="15" height="17">
   <properties>
    <property name="id" type="int" value="1"/>
   </properties>
  </object>
  <object id="29" name="guard_end" x="63" y="464" width="17" height="16">
   <properties>
    <property name="id" type="int" value="1"/>
   </properties>
  </object>
  <object id="30" name="guard_start" x="400" y="368" width="16" height="16">
   <properties>
    <property name="id" type="int" value="2"/>
   </properties>
  </object>
  <object id="31" name="guard_end" x="400" y="448" width="16" height="16">
   <properties>
    <property name="id" type="int" value="2"/>
   </properties>
  </object>
  <object id="35" name="guard_start" x="544" y="512" width="16" height="16">
   <properties>
    <property name="id" type="int" value="4"/>
   </properties>
  </object>
  <object id="36" name="guard_end" x="544" y="592" width="16" height="16">
   <properties>
    <property name="id" type="int" value="4"/>
   </properties>
  </object>
  <object id="37" name="guard_start" x="736" y="560" width="16" height="16">
   <properties>
    <property name="id" type="int" value="5"/>
   </properties>
  </object>
  <object id="39" name="guard_end" x="896" y="560" width="16" height="16">
   <properties>
    <property name="id" type="int" value="5"/>
   </properties>
  </object>
  <object id="40" name="guard_start" x="896" y="272" width="16" height="16">
   <properties>
    <property name="id" type="int" value="6"/>
   </properties>
  </object>
  <object id="41" name="guard_end" x="880" y="272" width="16" height="16">
   <properties>
    <property name="id" type="int" value="6"/>
   </properties>
  </object>
  <object id="42" name="guard_start" x="896" y="48" width="16" height="16">
   <properties>
    <property name="id" type="int" value="7"/>
   </properties>
  </object>
  <object id="43" name="guard_end" x="800" y="48" width="16" height="16">
   <properties>
    <property name="id" type="int" value="7"/>
   </properties>
  </object>
  <object id="44" name="guard_start" x="800" y="272" width="16" height="16">
   <properties>
    <property name="id" type="int" value="8"/>
   </properties>
  </object>
  <object id="45" name="guard_end" x="784" y="320" width="16" height="16">
   <properties>
    <property name="id" type="int" value="8"/>
   </properties>
  </object>
  <object id="47" name="guard_start" x="752" y="432" width="16" height="16">
   <properties>
    <property name="id" type="int" value="9"/>
   </properties>
  </object>
  <object id="49" name="guard_end" x="624" y="432" width="16" height="16">
   <properties>
    <property name="id" type="int" value="9"/>
   </properties>
  </object>
  <object id="50" name="guard_start" x="368" y="288" width="16" height="16">
   <properties>
    <property name="id" type="int" value="10"/>
   </properties>
  </object>
  <object id="51" name="guard_end" x="320" y="288" width="16" height="16">
   <properties>
    <property name="id" type="int" value="10"/>
   </properties>
  </object>
  <object id="53" name="guard_start" x="32" y="208" width="16" height="16">
   <properties>
    <property name="id" type="int" value="11"/>
   </properties>
  </object>
  <object id="54" name="guard_end" x="32" y="144" width="16" height="16">
   <properties>
    <property name="id" type="int" value="11"/>
   </properties>
  </object>
  <object id="55" name="guard_start" x="112" y="64" width="16" height="16">
   <properties>
    <property name="id" type="int" value="12"/>
   </properties>
  </object>
  <object id="56" name="guard_end" x="192" y="64" width="16" height="16">
   <properties>
    <property name="id" type="int" value="12"/>
   </properties>
  </object>
  <object id="57" name="guard_start" x="320" y="32" width="16" height="16">
   <properties>
    <property name="id" type="int" value="13"/>
   </properties>
  </object>
  <object id="59" name="guard_end" x="320" y="80" width="16" height="16">
   <properties>
    <property name="id" type="int" value="13"/>
   </properties>
  </object>
  <object id="61" name="guard_start" x="688" y="64" width="16" height="16">
   <properties>
    <property name="id" type="int" value="14"/>
   </properties>
  </object>
  <object id="62" name="guard_end" x="704" y="96" width="16" height="16">
   <properties>
    <property name="id" type="int" value="14"/>
   </properties>
  </object>
  <object id="63" name="guard_start" x="464" y="32" width="16" height="16">
   <properties>
    <property name="id" type="int" value="15"/>
   </properties>
  </object>
  <object id="64" name="guard_end" x="416" y="32" width="16" height="16">
   <properties>
    <property name="id" type="int" value="15"/>
   </properties>
  </object>
  <object id="65" name="guard_start" x="672" y="160" width="16" height="16">
   <properties>
    <property name="id" type="int" value="16"/>
   </properties>
  </object>
  <object id="66" name="guard_end" x="704" y="160" width="16" height="16">
   <properties>
    <property name="id" type="int" value="17"/>
   </properties>
  </object>
  <object id="67" name="guard_start" x="672" y="208" width="16" height="16">
   <properties>
    <property name="id" type="int" value="17"/>
   </properties>
  </object>
  <object id="68" name="guard_end" x="704" y="208" width="16" height="16">
   <properties>
    <property name="id" type="int" value="16"/>
   </properties>
  </object>
  <object id="84" name="guard_start" x="176" y="144" width="16" height="16">
   <properties>
    <property name="id" type="int" value="18"/>
   </properties>
  </object>
  <object id="85" name="guard_end" x="368" y="208" width="16" height="16">
   <properties>
    <property name="id" type="int" value="18"/>
   </properties>
  </object>
  <object id="86" name="guard_start" x="176" y="208" width="16" height="16">
   <properties>
    <property name="id" type="int" value="19"/>
   </properties>
  </object>
  <object id="87" name="guard_end" x="448" y="144" width="16" height="16">
   <properties>
    <property name="id" type="int" value="19"/>
   </properties>
  </object>
 </objectgroup>
 <objectgroup id="5" name="entities" visible="0" locked="1">
  <object id="1" name="player_spawn" x="69" y="589"/>
  <object id="81" name="server" x="688" y="336" width="32" height="32"/>
 </objectgroup>
 <objectgroup id="10" name="key" visible="0" locked="1">
  <object id="83" name="key" x="576" y="176" width="16" height="16"/>
 </objectgroup>
 <objectgroup id="6" name="collisions" visible="0" locked="1">
  <object id="10" name="wall" x="0.333333" y="-0.666667" width="15.6667" height="640.333"/>
  <object id="11" name="wall" x="0.5" y="-0.75" width="959.75" height="15.5"/>
  <object id="12" name="wall" x="944.25" y="0.25" width="15.75" height="639.75"/>
  <object id="13" name="wall" x="0.363636" y="624.545" width="959.091" height="14.7273"/>
  <object id="14" name="wall" x="751.909" y="15.8182" width="15.9091" height="361.091"/>
  <object id="15" name="wall" x="831.957" y="95.9565" width="16.0435" height="400.043"/>
  <object id="16" name="wall" x="80.25" y="112.25" width="575.75" height="15.75"/>
  <object id="20" name="wall" x="640" y="112.25" width="15.25" height="271.75"/>
  <object id="21" name="wall" x="641" y="368.125" width="127" height="15.875"/>
  <object id="22" name="wall" x="128.182" y="480" width="15.8182" height="143.909"/>
  <object id="23" name="wall" x="132.391" y="480" width="315.609" height="15.913"/>
  <object id="24" name="wall" x="544" y="479.818" width="294.364" height="16.1818"/>
  <object id="25" name="wall" x="12.375" y="335.875" width="547.625" height="16.125"/>
  <object id="26" name="wall" x="544" y="342.938" width="16" height="153.063"/>
  <object id="27" name="wall" x="80" y="239.957" width="560" height="16.0435"/>
  <object id="69" name="wall" x="432" y="496" width="16" height="80"/>
  <object id="73" name="wall" x="144.333" y="576" width="303.667" height="16"/>
  <object id="75" name="wall" x="528" y="159.333" width="32" height="13"/>
  <object id="76" name="wall" x="528.667" y="222.667" width="31.3333" height="17.3333"/>
  <object id="77" name="wall" x="607.333" y="127.333" width="32.6667" height="48.6667"/>
  <object id="78" name="wall" x="608" y="192" width="32" height="48"/>
  <object id="79" name="wall" x="655.333" y="319.667" width="16.6667" height="48.3333"/>
  <object id="80" name="wall" x="736" y="319.667" width="16" height="48.3333"/>
 </objectgroup>
</map>
