<?xml version="1.0" encoding="UTF-8"?>
<map version="1.10" tiledversion="1.12.2" orientation="orthogonal" renderorder="right-down" width="60" height="40" tilewidth="16" tileheight="16" infinite="0" nextlayerid="17" nextobjectid="147">
 <tileset firstgid="1" name="Map3" tilewidth="16" tileheight="16" tilecount="112" columns="16">
  <image source="tilesetAD/map4/Pixel Lands Dungeons Demo/Pixel Lands Dungeons Demo/dungeons_demo.png" width="256" height="112"/>
 </tileset>
 <tileset firstgid="113" name="3" tilewidth="16" tileheight="16" tilecount="72" columns="8">
  <image source="tilesetAD/map4/Pixel Lands Dungeons Demo/Pixel Lands Dungeons Demo/dungeons_demo_animated.png" width="128" height="144"/>
 </tileset>
 <tileset firstgid="185" name="farm" tilewidth="16" tileheight="16" tilecount="128" columns="16">
  <image source="tilesetAD/map4/Pixel Lands Farm Demo/Pixel Lands Farm Demo/objects_demo.png" width="256" height="128"/>
 </tileset>
 <tileset firstgid="313" name="farm1" tilewidth="16" tileheight="16" tilecount="128" columns="16">
  <image source="tilesetAD/map4/Pixel Lands Farm Demo/Pixel Lands Farm Demo/terrain_demo.png" width="256" height="128"/>
 </tileset>
 <tileset firstgid="441" source="tilesetAD/map1/Structure.tsx"/>
 <layer id="1" name="Tile Layer 1" width="60" height="40">
  <data encoding="csv">
1,2,2,2,2,2,2,2,2,2,2,2,2,2,2,2,2,2,2,2,2,2,2,2,2,2,2,2,2,2,2,2,2,2,2,2,2,2,2,2,2,2,2,2,2,2,2,34,2,2,2,2,2,2,2,2,2,2,2,3,
17,4,4,4,4,4,4,4,4,4,4,4,4,4,4,4,4,4,4,4,18,4,4,4,4,4,4,4,4,18,4,4,4,4,4,4,4,4,4,18,4,4,4,4,4,4,4,4,4,4,4,4,4,4,4,4,4,4,4,19,
17,4,4,4,4,4,4,4,4,4,4,4,4,4,4,4,4,4,4,4,18,4,4,4,4,4,4,4,4,18,4,4,4,4,4,4,4,4,4,18,4,4,4,4,4,4,4,4,4,4,4,4,4,4,4,4,4,4,4,19,
17,4,4,4,4,4,4,4,4,4,4,4,4,4,4,4,4,4,4,4,18,4,4,4,4,4,4,4,4,18,4,4,4,4,4,4,4,4,4,18,4,4,4,4,4,4,4,4,4,4,4,4,4,4,4,4,4,4,4,19,
17,4,4,4,4,4,4,4,4,4,4,4,4,4,4,4,4,4,4,4,18,4,4,4,4,4,4,4,4,18,4,4,4,4,4,4,4,4,4,18,4,4,4,4,4,4,4,4,4,4,4,4,4,4,4,4,4,4,4,19,
17,4,4,4,4,4,4,4,4,4,4,4,4,4,4,4,4,4,4,4,18,4,4,4,4,4,4,4,4,18,4,4,4,4,4,4,4,4,4,18,4,4,4,4,4,4,4,4,4,4,4,4,4,4,4,4,4,4,4,19,
17,4,4,4,4,18,4,4,4,4,4,4,18,4,4,4,4,4,4,4,18,4,4,4,4,4,4,4,4,18,4,4,4,4,4,4,4,4,4,18,4,4,4,4,4,4,4,4,4,4,4,4,4,4,4,4,4,4,4,19,
17,4,4,4,4,18,4,4,4,4,4,4,18,4,4,4,4,4,4,4,18,4,4,4,4,4,4,4,4,18,4,4,4,4,4,4,4,4,4,18,4,4,4,4,4,4,4,4,4,4,4,4,4,4,4,4,4,4,4,19,
17,4,4,4,4,18,4,4,4,4,4,4,18,4,4,4,4,4,4,4,18,4,4,4,4,4,4,4,4,18,4,4,4,4,4,4,4,4,4,18,4,4,4,4,4,4,4,4,4,4,4,4,4,4,4,4,4,4,4,19,
17,4,4,4,4,18,4,4,4,4,4,4,18,4,4,4,4,4,4,4,18,4,4,4,4,4,4,4,4,18,4,4,4,4,4,4,4,4,4,18,4,4,4,4,4,4,4,4,4,4,4,4,4,4,4,4,4,4,4,19,
17,4,4,4,4,18,4,4,4,4,4,4,18,4,4,4,4,4,4,4,18,4,4,4,4,4,4,4,4,18,4,4,4,4,4,4,4,4,4,18,4,4,4,4,4,4,4,4,4,4,4,4,4,4,4,4,4,4,4,19,
17,4,4,4,4,18,4,4,4,4,4,4,18,4,4,4,4,4,4,4,18,4,4,4,4,4,4,4,4,18,4,4,4,4,4,4,4,4,4,18,4,4,4,4,4,4,4,4,4,4,4,4,4,4,4,4,4,4,4,19,
17,4,4,4,4,18,4,4,4,4,4,4,18,4,4,4,4,4,4,4,18,4,4,4,4,4,4,4,4,18,4,4,4,4,4,4,4,4,4,18,4,4,4,4,4,4,4,4,4,4,4,4,4,4,4,4,4,4,4,19,
17,4,4,4,4,18,4,4,4,4,4,4,18,4,4,4,4,4,4,4,18,4,4,4,4,4,4,4,4,18,4,4,4,4,4,4,4,4,4,18,4,4,4,4,4,4,4,4,4,4,4,4,4,4,4,4,4,4,4,19,
17,4,4,4,4,18,4,4,4,4,4,4,18,4,4,4,4,4,4,4,18,4,4,4,4,4,4,4,4,18,4,4,4,4,4,4,4,4,4,18,4,4,18,18,18,18,18,18,18,18,18,18,18,18,18,18,18,18,18,19,
17,4,4,4,4,18,4,4,4,4,4,4,18,4,4,4,4,4,4,4,18,4,4,4,4,4,4,4,4,18,4,4,4,4,4,4,4,4,4,4,4,4,4,4,4,4,4,4,4,4,4,4,4,4,4,4,4,4,4,19,
17,4,4,4,4,18,4,4,4,4,4,4,18,4,4,4,4,4,4,4,18,4,4,4,4,4,4,4,4,18,4,4,4,4,4,4,4,4,4,4,4,4,4,4,4,4,4,4,4,4,4,4,4,4,4,4,4,4,4,19,
17,4,4,4,4,18,4,4,4,4,4,4,18,4,4,4,4,4,4,4,18,4,4,4,4,4,4,4,4,18,4,4,4,4,4,4,4,4,4,4,4,4,4,4,4,4,4,4,4,4,4,4,4,4,4,4,4,4,4,19,
17,4,4,4,4,18,4,4,4,4,4,4,18,4,4,4,4,4,4,4,18,4,4,4,4,4,4,4,4,18,4,4,4,4,4,4,4,4,4,4,4,4,4,4,4,4,4,4,4,4,4,4,4,4,4,4,4,4,4,19,
17,4,4,4,4,18,4,4,4,4,4,4,18,4,4,4,4,4,4,4,18,4,4,4,4,4,4,4,4,18,4,4,4,4,4,4,4,4,4,4,4,4,4,4,4,4,4,4,4,4,4,4,4,4,4,4,4,4,4,19,
17,4,4,4,4,18,4,4,4,4,4,4,18,4,4,4,4,4,4,4,18,4,4,4,4,4,4,4,4,18,4,4,4,4,4,4,4,4,4,4,4,4,4,4,4,4,4,4,4,4,4,4,4,4,4,4,4,4,4,19,
17,4,4,4,4,18,4,4,4,4,4,4,18,4,4,4,4,4,4,4,18,4,4,4,4,4,4,4,4,18,4,4,4,4,4,4,4,4,4,4,4,4,4,4,4,4,4,4,4,4,4,4,4,4,4,4,4,4,4,19,
17,4,4,4,4,18,18,18,18,18,18,18,18,4,4,4,4,4,4,4,18,4,4,4,4,4,4,4,4,18,4,4,4,4,4,4,4,4,4,4,4,4,4,4,4,4,4,4,4,4,4,4,4,4,4,4,4,4,4,19,
17,4,4,4,4,4,4,4,4,4,4,4,4,4,4,4,4,4,4,4,4,4,4,4,4,4,4,4,4,18,4,4,4,4,4,4,4,18,18,18,18,18,18,18,18,18,18,18,18,18,18,18,18,18,18,18,18,18,18,19,
17,4,4,4,4,4,4,4,4,4,4,4,4,4,4,4,4,4,4,4,4,4,4,4,4,4,4,4,4,4,4,4,4,4,4,4,4,4,4,4,4,4,4,4,4,4,4,4,4,4,4,4,4,4,4,4,4,4,4,19,
17,4,4,4,4,4,4,4,4,4,4,4,4,4,4,4,4,4,4,4,4,4,4,4,4,4,4,4,4,4,4,4,4,4,4,4,4,4,4,4,4,4,4,4,4,4,4,4,4,4,4,4,4,4,4,4,4,4,4,19,
17,4,4,4,4,4,4,4,4,4,4,4,4,4,4,4,4,4,4,4,4,4,4,4,4,4,4,4,4,4,4,4,4,4,4,4,4,4,4,4,4,4,4,4,4,4,4,4,4,4,4,4,4,4,4,4,4,4,4,19,
17,4,4,4,4,4,4,4,4,4,4,4,4,4,4,4,4,4,4,4,4,4,4,4,4,4,4,4,4,4,4,4,4,4,4,4,4,4,4,4,4,4,4,4,4,4,4,4,4,4,4,4,4,4,4,4,4,4,4,19,
17,4,4,4,4,4,4,4,4,4,4,4,4,4,4,4,4,4,4,4,4,4,4,4,4,4,4,4,4,4,4,4,4,4,4,4,4,4,4,4,4,4,4,4,4,4,4,4,4,4,4,4,4,4,4,4,4,4,4,19,
17,4,4,4,4,4,4,4,4,4,4,4,4,4,4,4,4,4,4,4,4,4,4,4,4,4,4,4,4,4,4,4,4,4,4,4,4,4,4,4,4,4,4,4,4,4,4,4,4,4,4,4,4,4,4,4,4,4,4,19,
17,18,18,18,18,18,18,18,18,18,18,18,18,18,18,18,18,18,18,18,18,18,18,18,18,18,18,18,18,18,4,4,4,4,4,4,4,18,4,4,4,4,4,4,4,4,4,4,4,4,4,4,4,4,4,4,4,4,4,19,
17,4,4,4,4,4,4,4,4,4,4,4,4,4,4,4,4,4,4,4,4,4,4,4,4,4,4,4,4,4,4,4,4,4,4,4,4,18,4,4,4,4,4,4,4,4,4,4,4,4,4,4,4,4,4,4,4,4,4,19,
17,4,4,4,4,4,4,4,4,4,4,4,4,4,4,4,4,4,4,4,4,4,4,4,4,4,4,4,4,4,4,4,4,4,4,4,4,18,4,4,4,4,4,4,4,4,4,4,4,4,4,4,4,4,4,4,4,4,4,19,
17,4,4,4,4,4,4,4,4,4,4,4,4,4,4,4,4,4,4,4,4,4,4,4,4,4,4,4,4,4,4,4,4,4,4,4,4,18,4,4,4,4,4,4,4,4,4,4,4,4,4,4,4,4,4,4,4,4,4,19,
17,4,4,4,4,4,4,4,4,4,4,4,4,4,4,4,4,4,4,4,4,4,4,4,4,4,4,4,4,4,4,4,4,4,4,4,4,18,4,4,4,4,4,4,4,4,4,4,4,4,4,4,4,4,4,4,4,4,4,19,
17,4,4,4,4,4,4,4,4,4,4,4,4,4,4,4,4,4,4,4,4,4,4,4,4,4,4,4,4,4,4,4,4,4,4,4,4,18,4,4,4,4,4,4,4,4,4,4,4,4,4,4,4,4,4,4,4,4,4,19,
17,4,4,4,4,4,4,4,4,4,4,4,4,4,4,4,4,4,4,4,4,4,4,4,4,4,4,4,4,4,4,4,4,4,4,4,4,18,4,4,4,4,4,4,4,4,4,4,4,4,4,4,4,4,4,4,4,4,4,19,
17,4,4,4,4,4,4,4,4,4,4,4,4,4,4,4,4,4,4,4,4,4,4,4,4,4,4,4,4,4,4,4,4,4,4,4,4,18,4,4,4,4,4,4,4,4,4,4,4,4,4,20,21,4,4,4,4,4,4,19,
17,4,4,4,4,4,4,4,4,4,4,4,4,4,4,4,4,4,4,4,4,4,4,4,4,4,4,4,4,4,4,4,4,4,4,4,4,18,4,4,4,4,4,4,4,4,4,4,4,4,20,21,4,4,4,4,4,4,4,19,
33,34,34,34,34,34,34,34,34,34,34,34,34,34,34,34,34,34,34,34,34,34,34,34,34,34,34,34,34,34,34,34,34,34,34,34,34,34,34,34,34,34,34,34,34,34,34,34,34,34,34,34,34,34,34,34,34,34,34,34
</data>
 </layer>
 <layer id="11" name="Tile Layer 2" width="60" height="40" locked="1">
  <data encoding="csv">
0,0,0,0,0,0,0,0,0,0,0,0,0,0,0,0,0,0,0,0,0,0,0,0,0,0,0,0,0,0,0,0,0,0,0,0,0,0,0,45,45,45,45,45,45,45,45,45,45,45,45,45,45,45,45,45,45,45,45,45,
0,0,0,0,0,0,0,0,0,0,0,0,0,0,0,0,0,0,0,0,0,0,0,0,0,0,0,0,0,0,59,60,0,0,0,0,0,59,60,45,14,15,14,15,14,15,14,15,14,15,14,15,14,15,14,15,14,15,0,45,
0,0,0,0,0,0,0,0,0,0,0,0,0,0,0,0,0,0,0,0,0,0,0,0,0,0,0,0,0,0,75,76,0,0,0,0,0,75,76,45,30,31,30,31,30,31,30,31,30,31,30,31,30,31,30,31,30,31,0,45,
0,0,0,0,0,0,0,0,0,0,0,0,0,0,0,0,0,0,0,0,0,0,0,0,0,0,0,0,0,0,91,92,0,0,0,0,0,91,92,45,0,0,0,0,0,0,0,0,0,0,0,0,0,0,0,0,0,0,0,45,
0,0,0,0,0,0,0,0,0,0,0,0,0,0,0,0,0,0,0,0,0,0,0,0,0,0,0,0,0,0,0,0,0,0,0,0,0,0,0,45,14,15,14,15,14,15,14,15,14,15,14,15,14,15,14,15,14,15,0,45,
0,0,0,0,0,0,0,0,0,0,0,0,0,0,0,0,0,0,0,0,0,0,0,0,0,0,0,0,0,0,0,0,0,0,0,0,0,0,0,45,30,31,30,31,30,31,30,31,30,31,30,31,30,31,30,31,30,31,0,45,
0,0,0,0,0,0,0,0,0,0,0,0,0,0,0,0,0,0,0,0,0,0,0,0,0,0,0,0,0,0,0,0,0,0,0,0,0,0,0,45,59,60,93,93,93,93,93,93,93,93,93,93,93,93,93,93,93,93,93,45,
0,0,0,0,0,0,0,0,0,0,0,0,0,0,0,0,0,0,0,0,0,0,0,0,0,0,0,0,0,0,0,0,0,0,0,0,0,0,0,45,75,76,93,93,93,93,93,93,93,93,93,28,28,93,93,93,93,93,93,45,
0,0,0,0,0,0,0,0,0,0,0,0,0,0,0,0,0,0,0,0,0,0,0,0,0,0,0,0,0,0,0,0,0,0,0,0,0,0,0,45,91,92,93,93,93,93,93,93,93,93,28,28,28,28,93,93,93,93,93,45,
0,0,0,0,0,0,0,0,0,0,0,0,0,0,0,0,0,0,0,0,0,0,0,0,0,0,0,0,0,0,0,0,0,0,0,0,0,0,0,45,59,60,93,93,93,93,93,93,93,28,28,28,28,28,28,93,93,93,93,93,
0,0,0,0,0,0,0,0,0,0,0,0,0,0,0,0,0,0,0,0,0,0,0,0,0,0,0,0,0,0,0,0,0,0,0,0,0,0,0,45,75,76,93,93,93,93,93,93,28,28,28,28,28,28,28,28,93,93,93,45,
0,0,0,0,0,0,0,0,0,0,0,0,0,0,0,0,0,0,0,0,0,0,0,0,0,0,0,0,0,0,0,0,0,0,0,0,0,0,0,45,91,92,93,93,93,93,93,28,28,28,28,28,28,28,28,28,28,93,93,45,
0,0,0,0,0,0,0,0,0,0,0,0,0,0,0,0,0,0,0,0,0,0,0,0,0,0,0,0,0,0,0,0,0,0,0,0,0,0,0,45,6,7,93,93,93,93,28,28,28,28,28,28,28,28,28,28,28,28,93,45,
0,0,0,0,0,0,0,0,0,0,0,0,0,0,0,0,0,0,0,0,0,0,0,0,0,0,0,0,0,0,0,0,0,0,0,0,0,0,0,45,22,23,93,93,93,28,28,28,28,28,28,28,28,28,28,28,28,28,28,45,
0,0,0,0,0,0,0,0,0,0,0,0,0,0,0,0,0,0,0,0,0,0,0,0,0,0,0,0,0,0,0,0,0,0,0,0,0,0,0,45,38,39,45,45,45,45,45,45,45,45,45,45,45,45,45,45,45,45,45,45,
0,0,0,0,0,0,0,0,0,0,0,0,0,0,0,0,0,0,0,0,0,0,0,0,0,0,0,0,0,0,0,0,0,0,0,0,0,0,0,0,0,0,0,0,0,0,0,0,0,0,0,0,0,0,0,0,0,0,0,0,
0,0,0,0,0,0,0,0,0,0,0,0,0,0,0,0,0,0,0,0,0,0,0,0,0,0,0,0,0,0,0,0,0,0,0,0,0,0,0,0,0,0,0,0,0,0,0,0,0,0,0,0,0,0,0,0,0,0,0,0,
0,0,0,0,0,0,0,0,0,0,0,0,0,0,0,0,0,0,0,0,0,0,0,0,0,0,0,0,0,0,0,0,0,0,0,0,0,0,0,0,0,0,0,0,0,0,0,0,0,0,0,0,0,0,0,0,0,0,0,0,
0,0,0,0,0,0,0,0,0,0,0,0,0,0,0,0,0,0,0,0,0,0,0,0,0,0,0,0,0,0,0,0,0,0,0,0,0,0,0,0,0,0,0,0,0,0,0,0,0,0,0,0,0,0,0,0,0,0,0,0,
0,0,0,0,0,57,56,0,0,0,0,56,57,0,0,0,0,0,0,0,0,0,0,0,0,0,0,0,0,0,0,0,0,0,0,0,0,0,0,0,0,0,0,0,0,0,0,0,0,0,0,0,0,0,0,0,0,0,0,0,
0,0,0,0,0,73,72,0,0,0,0,72,73,0,0,0,0,0,0,0,0,0,0,0,0,0,0,0,0,0,0,0,0,0,0,0,0,0,0,0,0,0,0,0,0,0,0,0,0,0,0,0,0,0,0,0,0,0,0,0,
0,0,0,0,0,89,88,0,0,0,0,88,89,0,0,0,0,0,0,0,0,0,0,0,0,0,0,0,0,0,0,0,0,0,0,0,0,0,0,0,0,0,0,0,0,0,0,0,0,0,0,0,0,0,0,0,0,0,0,0,
0,0,0,0,0,0,0,0,0,0,0,0,0,0,0,0,0,0,0,0,0,0,0,0,0,0,0,0,0,0,0,0,0,0,0,0,0,0,0,0,0,0,0,0,0,0,0,0,0,0,0,0,0,0,0,0,0,0,0,0,
0,0,0,0,0,0,0,0,0,0,0,0,0,0,0,0,0,0,0,0,0,0,0,0,0,0,0,0,0,0,0,0,0,0,0,0,0,0,0,0,0,0,0,0,0,0,0,0,0,0,0,0,0,0,0,0,0,0,0,0,
0,0,0,0,0,0,0,0,0,0,0,0,0,0,0,0,0,0,0,0,0,0,0,0,0,0,0,0,0,0,0,0,0,0,0,0,0,0,0,0,0,0,0,0,0,0,0,0,0,0,0,0,0,0,0,0,0,0,0,0,
0,0,0,0,0,0,0,0,0,0,0,0,0,0,0,0,0,0,0,0,0,0,0,0,0,0,0,0,0,0,0,0,0,0,0,0,0,0,0,0,0,0,0,0,0,0,0,0,0,0,0,0,0,0,0,0,0,0,0,0,
0,0,0,0,0,0,0,0,0,0,0,0,0,0,0,0,0,0,0,0,0,0,0,0,0,0,0,0,0,0,0,0,0,0,0,0,0,0,0,0,0,0,0,0,0,0,0,0,0,0,0,0,0,0,0,0,0,0,0,0,
0,0,0,0,0,0,0,0,0,0,0,0,0,0,0,0,0,0,0,0,0,0,0,0,0,0,0,0,0,0,0,0,0,0,0,0,0,0,0,0,0,0,0,0,0,0,0,0,0,0,0,0,0,0,0,0,0,0,0,0,
0,0,0,0,0,0,0,0,0,0,0,0,0,0,0,0,0,0,0,0,0,0,0,0,0,0,0,0,0,0,0,0,0,0,0,0,0,0,0,0,0,0,0,0,0,0,0,0,0,0,0,0,0,0,0,0,0,0,0,0,
0,0,0,0,0,0,0,0,0,0,0,0,0,0,0,0,0,0,0,0,0,0,0,0,0,0,0,0,0,0,0,0,0,0,0,0,0,0,0,0,0,0,0,0,0,0,0,0,0,0,0,0,0,0,0,0,0,0,0,0,
0,0,0,0,0,0,0,0,0,0,0,0,0,0,0,0,0,0,0,0,0,0,0,0,0,0,0,0,0,0,0,0,0,0,0,0,0,0,0,0,0,0,0,0,0,0,0,0,0,0,0,0,0,0,0,0,0,0,0,0,
0,0,0,0,0,0,0,0,0,0,0,0,0,0,0,0,0,0,0,0,0,0,0,0,0,0,0,0,0,0,0,0,0,0,0,0,0,0,0,0,0,0,0,0,0,0,0,0,0,0,0,0,0,0,0,0,0,0,0,0,
0,0,0,0,0,0,0,0,0,0,0,0,0,0,0,0,0,0,0,0,0,0,0,0,0,0,0,0,0,0,0,0,0,0,0,0,0,0,0,0,0,0,0,0,0,0,0,0,0,0,0,0,0,0,0,0,0,0,0,0,
0,0,0,0,0,0,0,0,0,0,0,0,0,0,0,0,0,0,0,0,0,0,0,0,0,0,0,0,0,0,0,0,0,0,0,0,0,0,0,0,0,0,0,0,0,0,0,0,0,0,0,0,0,0,0,0,0,0,0,0,
0,0,0,0,0,0,0,0,0,0,0,0,0,0,0,0,0,0,0,0,0,0,0,0,0,0,0,0,0,0,0,0,0,0,0,0,0,0,0,0,0,0,0,0,0,0,0,0,0,0,0,0,0,0,0,0,0,0,0,0,
0,0,0,0,0,0,0,0,0,0,0,0,0,0,0,0,0,0,0,0,0,0,0,0,0,0,0,0,0,0,0,0,0,0,0,0,0,0,0,0,0,0,0,0,0,0,0,0,0,0,0,0,0,0,0,0,0,0,0,0,
0,0,0,0,0,0,0,0,0,0,0,0,0,0,0,0,0,0,0,0,0,0,0,0,0,0,0,0,0,0,0,0,0,0,0,0,0,57,56,0,0,0,0,0,0,0,0,0,8,9,0,0,0,0,0,0,0,0,56,57,
0,0,0,0,0,0,0,0,0,0,0,0,0,0,0,0,0,0,0,0,0,0,0,0,0,0,0,0,0,0,0,0,0,0,0,0,0,73,72,0,0,0,0,0,0,0,0,0,24,25,0,0,0,0,0,0,0,0,72,73,
0,0,0,0,0,0,0,0,0,0,0,0,0,0,0,0,0,0,0,0,0,0,0,0,0,0,0,0,0,0,0,0,0,0,0,0,0,89,88,0,0,0,0,0,0,0,0,0,40,41,0,0,0,0,0,0,0,0,88,89,
0,0,0,0,0,0,0,0,0,0,0,0,0,0,0,0,0,0,0,0,0,0,0,0,0,0,0,0,0,0,0,0,0,0,0,0,0,0,0,0,0,0,0,0,0,0,0,0,0,0,0,0,0,0,0,0,0,0,0,0
</data>
 </layer>
 <objectgroup id="5" name="entities" locked="1">
  <object id="1" name="player_spawn" x="69" y="589"/>
  <object id="88" name="server" x="768" y="592" width="32" height="32"/>
 </objectgroup>
 <objectgroup id="12" name="key" visible="0">
  <object id="89" name="key" x="144" y="320" width="16" height="16"/>
 </objectgroup>
 <objectgroup id="13" name="collisions">
  <object id="90" name="wall" x="0" y="16" width="16" height="624"/>
  <object id="91" name="wall" x="0" y="0" width="960" height="16"/>
  <object id="92" name="wall" x="944" y="0" width="16" height="640"/>
  <object id="93" name="wall" x="0" y="624" width="960" height="16"/>
  <object id="94" name="wall" x="16" y="480" width="464" height="16"/>
  <object id="95" name="wall" x="592" y="480" width="16" height="144"/>
  <object id="96" name="wall" x="592" y="368" width="352" height="16"/>
  <object id="97" name="wall" x="624" y="16" width="16" height="224"/>
  <object id="98" name="wall" x="720" y="224" width="224" height="16"/>
  <object id="99" name="wall" x="320" y="0" width="16" height="368"/>
  <object id="100" name="wall" x="464" y="16" width="16" height="368"/>
  <object id="101" name="wall" x="80" y="96" width="16" height="272"/>
  <object id="103" name="wall" x="192" y="96" width="16" height="272"/>
  <object id="104" name="wall" x="80" y="352" width="112" height="16"/>
  <object id="105" name="wall" x="640" y="224" width="80" height="16"/>
 </objectgroup>
 <objectgroup id="14" name="enemies">
  <object id="106" name="guard_start" x="160" y="528" width="16" height="16">
   <properties>
    <property name="id" type="int" value="1"/>
   </properties>
  </object>
  <object id="107" name="guard_end" x="544" y="528" width="16" height="16">
   <properties>
    <property name="id" type="int" value="1"/>
   </properties>
  </object>
  <object id="108" name="guard_start" x="544" y="32" width="16" height="16">
   <properties>
    <property name="id" type="int" value="2"/>
   </properties>
  </object>
  <object id="109" name="guard_end" x="544" y="448" width="16" height="16">
   <properties>
    <property name="id" type="int" value="2"/>
   </properties>
  </object>
  <object id="110" name="guard_start" x="48" y="432" width="16" height="16">
   <properties>
    <property name="id" type="int" value="3"/>
   </properties>
  </object>
  <object id="111" name="guard_end" x="896" y="432" width="16" height="16">
   <properties>
    <property name="id" type="int" value="3"/>
   </properties>
  </object>
  <object id="112" name="guard_start" x="640" y="432" width="16" height="16">
   <properties>
    <property name="id" type="int" value="4"/>
   </properties>
  </object>
  <object id="113" name="guard_end" x="656" y="592" width="16" height="16">
   <properties>
    <property name="id" type="int" value="4"/>
   </properties>
  </object>
  <object id="114" name="guard_start" x="896" y="592" width="16" height="16">
   <properties>
    <property name="id" type="int" value="5"/>
   </properties>
  </object>
  <object id="115" name="guard_end" x="752" y="448" width="16" height="16">
   <properties>
    <property name="id" type="int" value="5"/>
   </properties>
  </object>
  <object id="116" name="guard_start" x="912" y="256" width="16" height="16">
   <properties>
    <property name="id" type="int" value="6"/>
   </properties>
  </object>
  <object id="117" name="guard_end" x="672" y="352" width="16" height="16">
   <properties>
    <property name="id" type="int" value="6"/>
   </properties>
  </object>
  <object id="118" name="guard_start" x="672" y="256" width="16" height="16">
   <properties>
    <property name="id" type="int" value="7"/>
   </properties>
  </object>
  <object id="119" name="guard_end" x="896" y="336" width="16" height="16">
   <properties>
    <property name="id" type="int" value="7"/>
   </properties>
  </object>
  <object id="120" name="guard_start" x="784" y="256" width="16" height="16">
   <properties>
    <property name="id" type="int" value="8"/>
   </properties>
  </object>
  <object id="122" name="guard_end" x="784" y="352" width="16" height="16">
   <properties>
    <property name="id" type="int" value="8"/>
   </properties>
  </object>
  <object id="123" name="guard_start" x="496" y="128" width="16" height="16">
   <properties>
    <property name="id" type="int" value="9"/>
   </properties>
  </object>
  <object id="124" name="guard_end" x="512" y="352" width="16" height="16">
   <properties>
    <property name="id" type="int" value="9"/>
   </properties>
  </object>
  <object id="125" name="guard_start" x="592" y="128" width="16" height="16">
   <properties>
    <property name="id" type="int" value="10"/>
   </properties>
  </object>
  <object id="126" name="guard_end" x="560" y="352" width="16" height="16">
   <properties>
    <property name="id" type="int" value="10"/>
   </properties>
  </object>
  <object id="127" name="guard_start" x="368" y="48" width="16" height="16">
   <properties>
    <property name="id" type="int" value="11"/>
   </properties>
  </object>
  <object id="128" name="guard_end" x="368" y="336" width="16" height="16">
   <properties>
    <property name="id" type="int" value="11"/>
   </properties>
  </object>
  <object id="129" name="guard_start" x="432" y="48" width="16" height="16">
   <properties>
    <property name="id" type="int" value="12"/>
   </properties>
  </object>
  <object id="130" name="guard_end" x="416" y="336" width="16" height="16">
   <properties>
    <property name="id" type="int" value="12"/>
   </properties>
  </object>
  <object id="131" name="guard_start" x="368" y="448" width="16" height="16">
   <properties>
    <property name="id" type="int" value="13"/>
   </properties>
  </object>
  <object id="132" name="guard_end" x="432" y="384" width="16" height="16">
   <properties>
    <property name="id" type="int" value="13"/>
   </properties>
  </object>
  <object id="133" name="guard_start" x="368" y="384" width="16" height="16">
   <properties>
    <property name="id" type="int" value="14"/>
   </properties>
  </object>
  <object id="134" name="guard_end" x="432" y="448" width="16" height="16">
   <properties>
    <property name="id" type="int" value="14"/>
   </properties>
  </object>
  <object id="135" name="guard_start" x="224" y="48" width="16" height="16">
   <properties>
    <property name="id" type="int" value="15"/>
   </properties>
  </object>
  <object id="136" name="guard_end" x="224" y="384" width="16" height="16">
   <properties>
    <property name="id" type="int" value="15"/>
   </properties>
  </object>
  <object id="137" name="guard_start" x="288" y="48" width="16" height="16">
   <properties>
    <property name="id" type="int" value="16"/>
   </properties>
  </object>
  <object id="138" name="guard_end" x="288" y="384" width="16" height="16">
   <properties>
    <property name="id" type="int" value="16"/>
   </properties>
  </object>
  <object id="139" name="guard_end" x="48" y="48" width="16" height="16">
   <properties>
    <property name="id" type="int" value="17"/>
   </properties>
  </object>
  <object id="140" name="guard_start" x="48" y="384" width="16" height="16">
   <properties>
    <property name="id" type="int" value="17"/>
   </properties>
  </object>
  <object id="141" name="guard_start" x="224" y="192" width="16" height="16">
   <properties>
    <property name="id" type="int" value="18"/>
   </properties>
  </object>
  <object id="142" name="guard_end" x="288" y="192" width="16" height="16">
   <properties>
    <property name="id" type="int" value="18"/>
   </properties>
  </object>
  <object id="143" name="guard_start" x="128" y="256" width="16" height="16">
   <properties>
    <property name="id" type="int" value="19"/>
   </properties>
  </object>
  <object id="144" name="guard_end" x="128" y="48" width="16" height="16">
   <properties>
    <property name="id" type="int" value="19"/>
   </properties>
  </object>
  <object id="145" name="guard_start" x="544" y="592" width="16" height="16">
   <properties>
    <property name="id" type="int" value="20"/>
   </properties>
  </object>
  <object id="146" name="guard_end" x="160" y="592" width="16" height="16">
   <properties>
    <property name="id" type="int" value="20"/>
   </properties>
  </object>
 </objectgroup>
 <layer id="15" name="Tile Layer 3" width="60" height="40">
  <data encoding="csv">
0,0,0,0,0,0,0,0,0,0,0,0,0,0,0,0,0,0,0,0,0,0,0,0,0,0,0,0,0,0,0,0,0,0,0,0,0,0,0,0,0,0,0,0,0,0,0,0,0,0,0,0,0,0,0,0,0,0,0,0,
0,0,0,0,0,0,0,0,0,0,0,0,0,0,0,0,0,0,0,0,0,0,0,0,0,0,0,0,0,0,0,0,0,0,0,0,0,0,0,0,0,0,0,0,0,0,0,0,0,0,0,0,0,0,0,0,0,0,0,0,
0,0,0,0,0,0,0,0,0,0,0,0,0,0,0,0,0,0,0,0,0,0,0,0,0,0,0,0,0,0,0,0,0,0,0,0,0,0,0,0,0,0,0,0,0,0,0,0,0,0,0,0,0,0,0,0,0,0,0,0,
0,0,0,0,0,0,0,0,0,0,0,0,0,0,0,0,0,0,0,0,0,0,0,0,0,0,0,0,0,0,0,0,0,0,0,0,0,0,0,0,0,0,0,0,0,0,0,0,0,0,0,0,0,0,0,0,0,0,0,0,
0,0,0,0,0,0,0,0,0,0,0,0,0,0,0,0,0,0,0,0,0,0,0,0,0,0,0,0,0,0,0,0,0,0,0,0,0,0,0,0,0,0,0,0,0,0,0,0,0,0,0,0,0,0,0,0,0,0,0,0,
0,0,0,0,0,0,0,0,0,0,0,0,0,0,0,0,0,0,0,0,0,0,0,0,0,0,0,0,0,0,0,0,0,0,0,0,0,0,0,0,0,0,0,0,0,0,0,0,0,0,0,0,0,0,0,0,0,0,0,0,
0,0,0,0,0,0,0,0,0,0,0,0,0,0,0,0,0,0,0,0,0,0,0,0,0,0,0,0,0,0,0,0,0,0,0,0,0,0,0,0,0,0,0,0,0,0,0,0,0,0,0,0,0,0,0,0,0,0,0,0,
0,0,0,0,0,0,0,0,0,0,0,0,0,0,0,0,0,0,0,0,0,0,0,0,0,0,0,0,0,0,0,0,0,0,0,0,0,0,0,0,0,0,0,0,0,0,0,0,0,0,0,0,0,0,0,0,0,0,0,0,
0,0,0,0,0,0,0,0,0,0,0,0,0,0,0,0,0,0,0,0,0,0,0,0,0,0,0,0,0,0,0,0,0,0,0,0,0,0,0,0,0,0,0,0,0,0,0,0,0,0,0,0,0,0,0,0,0,0,0,0,
0,0,0,0,0,0,0,0,0,0,0,0,0,0,0,0,0,0,0,0,0,0,0,0,0,0,0,0,0,0,0,0,0,0,0,0,0,0,0,0,0,0,0,0,0,0,0,0,0,0,0,0,0,0,0,0,0,0,0,0,
0,0,0,0,0,0,0,0,0,0,0,0,0,0,0,0,0,0,0,0,0,0,0,0,0,0,0,0,0,0,0,0,0,0,0,0,0,0,0,0,0,0,0,0,0,0,0,0,0,0,0,0,0,0,0,0,0,0,0,0,
0,0,0,0,0,0,0,0,0,0,0,0,0,0,0,0,0,0,0,0,0,0,0,0,0,0,0,0,0,0,0,0,0,0,0,0,0,0,0,0,0,0,0,0,0,0,0,0,0,0,0,0,0,0,0,0,0,0,0,0,
0,0,0,0,0,0,0,0,0,0,0,0,0,0,0,0,0,0,0,0,0,0,0,0,0,0,0,0,0,0,0,0,0,0,0,0,0,0,0,0,0,0,0,0,0,0,0,0,0,0,0,0,0,0,0,0,0,0,0,0,
0,0,0,0,0,0,0,0,0,0,0,0,0,0,0,0,0,0,0,0,0,0,0,0,0,0,0,0,0,0,0,0,0,0,0,0,0,0,0,0,0,0,0,0,0,0,0,0,0,0,0,0,0,0,0,0,0,0,0,0,
0,0,0,0,0,0,0,0,0,0,0,0,0,0,0,0,0,0,0,0,0,0,0,0,0,0,0,0,0,0,0,0,0,0,0,0,0,0,0,0,0,0,0,0,0,0,0,0,0,0,0,0,0,0,0,0,0,0,0,0,
0,0,0,0,0,0,0,0,0,0,0,0,0,0,0,0,0,0,0,0,0,0,0,0,0,0,0,0,0,0,0,0,0,0,0,0,0,0,0,0,0,0,0,0,0,0,0,0,0,0,0,0,0,0,0,0,0,0,0,0,
0,0,0,0,0,0,0,0,0,0,0,0,0,0,0,0,0,0,0,0,0,0,0,0,0,0,0,0,0,0,0,0,0,0,0,0,0,0,0,0,0,0,0,0,0,0,0,0,0,0,0,0,0,0,0,0,0,0,0,0,
0,0,0,0,0,0,0,0,0,0,0,0,0,0,0,0,0,0,0,0,0,0,0,0,0,0,0,0,0,0,0,0,0,0,0,0,0,0,0,0,0,0,0,0,0,0,0,0,0,0,0,0,0,0,0,0,0,0,0,0,
0,0,0,0,0,0,74,0,0,0,0,74,0,0,0,0,0,0,0,0,0,0,0,0,0,0,0,0,0,0,0,0,0,0,0,0,0,0,0,0,0,0,0,0,0,0,0,0,0,0,0,0,0,0,0,0,0,0,0,0,
0,0,0,0,0,0,90,0,0,0,0,90,0,0,0,0,0,0,0,0,0,0,0,0,0,0,0,0,0,0,0,0,0,0,0,0,0,0,0,0,0,0,0,0,0,0,0,0,0,0,0,0,0,0,0,0,0,0,0,0,
0,0,0,0,0,0,0,0,0,0,0,0,0,0,0,0,0,0,0,0,0,0,0,0,0,0,0,0,0,0,0,0,0,0,0,0,0,0,0,0,0,0,0,0,0,0,0,0,0,0,0,0,0,0,0,0,0,0,0,0,
0,0,0,0,0,0,0,0,0,0,0,0,0,0,0,0,0,0,0,0,0,0,0,0,0,0,0,0,0,0,0,0,0,0,0,0,0,0,0,0,0,0,0,0,0,0,0,0,0,0,0,0,0,0,0,0,0,0,0,0,
0,0,0,0,0,0,0,0,0,0,0,0,0,0,0,0,0,0,0,0,0,0,0,0,0,0,0,0,0,0,0,0,0,0,0,0,0,0,0,0,0,0,0,0,0,0,0,0,0,0,0,0,0,0,0,0,0,0,0,0,
0,0,0,0,0,0,0,0,0,0,0,0,0,0,0,0,0,0,0,0,0,0,0,0,0,0,0,0,0,0,0,0,0,0,0,0,0,0,0,0,0,0,0,0,0,0,0,0,0,0,0,0,0,0,0,0,0,0,0,0,
0,0,0,0,0,0,0,0,0,0,0,0,0,0,0,0,0,0,0,0,0,0,0,0,0,0,0,0,0,0,0,0,0,0,0,0,0,0,0,0,0,0,0,0,0,0,0,0,0,0,0,0,0,0,0,0,0,0,0,0,
0,0,0,0,0,0,0,0,0,0,0,0,0,0,0,0,0,0,0,0,0,0,0,0,0,0,0,0,0,0,0,0,0,0,0,0,0,0,0,0,0,0,0,0,0,0,0,0,0,0,0,0,0,0,0,0,0,0,0,0,
0,0,0,0,0,0,0,0,0,0,0,0,0,0,0,0,0,0,0,0,0,0,0,0,0,0,0,0,0,0,0,0,0,0,0,0,0,0,0,0,0,0,0,0,0,0,0,0,0,0,0,0,0,0,0,0,0,0,0,0,
0,0,0,0,0,0,0,0,0,0,0,0,0,0,0,0,0,0,0,0,0,0,0,0,0,0,0,0,0,0,0,0,0,0,0,0,0,0,0,0,0,0,0,0,0,0,0,0,0,0,0,0,0,0,0,0,0,0,0,0,
0,0,0,0,0,0,0,0,0,0,0,0,0,0,0,0,0,0,0,0,0,0,0,0,0,0,0,0,0,0,0,0,0,0,0,0,0,0,0,0,0,0,0,0,0,0,0,0,0,0,0,0,0,0,0,0,0,0,0,0,
0,0,0,0,0,0,0,0,0,0,0,0,0,0,0,0,0,0,0,0,0,0,0,0,0,0,0,0,0,0,0,0,0,0,0,0,0,0,0,0,0,0,0,0,0,0,0,0,0,0,0,0,0,0,0,0,0,0,0,0,
0,0,0,0,0,0,0,0,0,0,0,0,0,0,0,0,0,0,0,0,0,0,0,0,0,0,0,0,0,0,0,0,0,0,0,0,0,0,0,0,0,0,0,0,0,0,0,0,0,0,0,0,0,0,0,0,0,0,0,0,
0,0,0,0,0,0,0,0,0,0,0,0,0,0,0,0,0,0,0,0,0,0,0,0,0,0,0,0,0,0,0,0,0,0,0,0,0,0,0,0,0,0,0,0,0,0,0,0,0,0,0,0,0,0,0,0,0,0,0,0,
0,0,0,0,0,0,0,0,0,0,0,0,0,0,0,0,0,0,0,0,0,0,0,0,0,0,0,0,0,0,0,0,0,0,0,0,0,0,0,0,0,0,0,0,0,0,0,0,0,0,0,0,0,0,0,0,0,0,0,0,
0,0,0,0,0,0,0,0,0,0,0,0,0,0,0,0,0,0,0,0,0,0,0,0,0,0,0,0,0,0,0,0,0,0,0,0,0,0,0,0,0,0,0,0,0,0,0,0,0,0,0,0,0,0,0,0,0,0,0,0,
0,0,0,0,0,0,0,0,0,0,0,0,0,0,0,0,0,0,0,0,0,0,0,0,0,0,0,0,0,0,0,0,0,0,0,0,0,0,0,0,0,0,0,0,0,0,0,0,0,0,0,0,0,0,0,0,0,0,0,0,
0,0,0,0,0,0,0,0,0,0,0,0,0,0,0,0,0,0,0,0,0,0,0,0,0,0,0,0,0,0,0,0,0,0,0,0,0,0,74,0,0,0,0,0,0,0,0,0,0,0,0,0,0,0,0,0,0,0,74,0,
0,0,0,0,0,0,0,0,0,0,0,0,0,0,0,0,0,0,0,0,0,0,0,0,0,0,0,0,0,0,0,0,0,0,0,0,0,0,90,0,0,0,0,0,0,0,0,0,0,0,0,0,0,0,0,0,0,0,90,0,
0,0,0,0,0,0,0,0,0,0,0,0,0,0,0,0,0,0,0,0,0,0,0,0,0,0,0,0,0,0,0,0,0,0,0,0,0,0,0,0,0,0,0,0,0,0,0,0,0,0,0,0,0,0,0,0,0,0,0,0,
0,0,0,0,0,0,0,0,0,0,0,0,0,0,0,0,0,0,0,0,0,0,0,0,0,0,0,0,0,0,0,0,0,0,0,0,0,0,0,0,0,0,0,0,0,0,0,0,0,0,0,0,0,0,0,0,0,0,0,0,
0,0,0,0,0,0,0,0,0,0,0,0,0,0,0,0,0,0,0,0,0,0,0,0,0,0,0,0,0,0,0,0,0,0,0,0,0,0,0,0,0,0,0,0,0,0,0,0,0,0,0,0,0,0,0,0,0,0,0,0
</data>
 </layer>
</map>
